; generated by PrusaSlicer 2.5.0+win64 on 2022-11-04 at 09:54:05 UTC


;
;
; 

; external perimeters extrusion width = 0.45mm
; perimeters extrusion width = 0.45mm
; infill extrusion width = 0.45mm
; solid infill extrusion width = 0.45mm
; top infill extrusion width = 0.40mm
; first layer extrusion width = 0.42mm

M73 P0 R136
M73 Q0 S137
M201 X1000 Y1000 Z200 E5000 ; sets maximum accelerations, mm/sec^2
M203 X200 Y200 Z12 E120 ; sets maximum feedrates, mm / sec
M204 P1250 R1250 T1250 ; sets acceleration (P, T) and retract acceleration (R), mm/sec^2
M205 X8.00 Y8.00 Z0.40 E4.50 ; sets the jerk limits, mm/sec
M205 S0 T0 ; sets the minimum extruding and travel feed rate, mm/sec
M107
;TYPE:Custom
M862.3 P "MK3S" ; printer model check
M862.1 P0.4 ; nozzle diameter check
M115 U3.11.0 ; tell printer latest fw version
G90 ; use absolute coordinates
M83 ; extruder relative mode
M104 S210 ; set extruder temp
M140 S60 ; set bed temp
M190 S60 ; wait for bed temp
M109 S210 ; wait for extruder temp
G28 W ; home all without mesh bed level
G80 ; mesh bed leveling

G1 Z0.2 F720
G1 Y-3 F1000 ; go outside print area
G92 E0
G1 X60 E9 F1000 ; intro line
G1 X100 E12.5 F1000 ; intro line

G92 E0
M221 S95

; Don't change E values below. Excessive value can damage the printer.
M907 E430 ; set extruder motor current
G21 ; set units to millimeters
G90 ; use absolute coordinates
M83 ; use relative distances for extrusion
M900 K0.05 ; Filament gcode LA 1.5
M900 K30 ; Filament gcode LA 1.0
M107
;LAYER_CHANGE
;Z:0.2
;HEIGHT:0.2
;BEFORE_LAYER_CHANGE
G92 E0.0
;0.2


G1 E-.8 F2100
G1 Z.4 F720
;AFTER_LAYER_CHANGE
;0.2
G1 X89.501 Y75.29 F10800
G1 Z.2 F720
G1 E.8 F2100
M204 S800
;TYPE:Skirt/Brim
;WIDTH:0.42
G1 F1200
G1 X91.026 Y73.558 E.07237
G1 X92.636 Y71.903 E.07237
G1 X94.326 Y70.331 E.07237
G1 X96.092 Y68.845 E.07237
G1 X97.93 Y67.449 E.07237
G1 X100.376 Y65.813 E.09227
G1 X103.934 Y63.78 E.1285
G1 X106.015 Y62.781 E.07237
G1 X108.143 Y61.887 E.07237
G1 X110.313 Y61.101 E.07237
G1 X112.52 Y60.423 E.07237
G1 X114.757 Y59.857 E.07237
G1 X117.02 Y59.402 E.07237
G1 X119.303 Y59.061 E.07237
G1 X121.6 Y58.834 E.07237
G1 X123.905 Y58.722 E.07237
G1 X126.213 Y58.725 E.07237
G1 X128.518 Y58.843 E.07237
G1 X130.815 Y59.076 E.07237
G1 X133.097 Y59.423 E.07237
G1 X135.358 Y59.883 E.07237
G1 X137.594 Y60.455 E.07237
G1 X139.799 Y61.139 E.07237
G1 X141.967 Y61.931 E.07237
G1 X144.093 Y62.83 E.07237
G1 X146.171 Y63.834 E.07237
G1 X148.197 Y64.941 E.07237
G1 X150.165 Y66.147 E.07237
G1 X152.07 Y67.449 E.07237
G1 X153.908 Y68.845 E.07237
G1 X155.674 Y70.331 E.07237
G1 X157.364 Y71.903 E.07237
G1 X158.974 Y73.558 E.07237
G1 X160.499 Y75.29 E.07237
G1 X161.936 Y77.097 E.07237
G1 X163.214 Y78.874 E.06865
G1 X164.469 Y80.812 E.07237
G1 X165.625 Y82.809 E.07237
G1 X166.681 Y84.862 E.07237
G1 X167.633 Y86.964 E.07237
G1 X168.479 Y89.112 E.07237
G1 X169.217 Y91.299 E.07237
G1 X169.845 Y93.52 E.07237
G1 X170.361 Y95.77 E.07237
G1 X170.765 Y98.042 E.07237
G1 X171.055 Y100.332 E.07237
G1 X171.23 Y102.633 E.07237
G1 X171.291 Y104.941 E.07237
G1 X171.236 Y107.248 E.07237
G1 X171.067 Y109.55 E.07237
G1 X170.783 Y111.841 E.07237
G1 X170.385 Y114.114 E.07237
G1 X169.874 Y116.365 E.07237
G1 X169.252 Y118.588 E.07237
G1 X168.519 Y120.777 E.07237
G1 X167.679 Y122.926 E.07237
G1 X166.732 Y125.031 E.07237
G1 X165.682 Y127.087 E.07237
G1 X164.53 Y129.087 E.07237
G1 X163.281 Y131.028 E.07237
G1 X161.936 Y132.903 E.07237
G1 X160.499 Y134.71 E.07237
G1 X158.974 Y136.442 E.07237
G1 X157.364 Y138.097 E.07237
G1 X155.674 Y139.669 E.07237
G1 X153.908 Y141.155 E.07237
G1 X152.07 Y142.551 E.07237
G1 X150.165 Y143.853 E.07237
G1 X148.197 Y145.059 E.07237
G1 X144.558 Y146.946 E.1285
G1 X141.857 Y148.113 E.09227
G1 X139.687 Y148.899 E.07237
G1 X137.48 Y149.577 E.07237
G1 X135.243 Y150.143 E.07237
G1 X132.98 Y150.598 E.07237
G1 X130.697 Y150.939 E.07237
G1 X128.4 Y151.166 E.07237
G1 X126.095 Y151.278 E.07237
G1 X123.787 Y151.275 E.07237
G1 X121.482 Y151.157 E.07237
G1 X119.185 Y150.924 E.07237
G1 X116.903 Y150.577 E.07237
G1 X114.642 Y150.117 E.07237
G1 X112.406 Y149.545 E.07237
G1 X110.201 Y148.861 E.07237
G1 X108.033 Y148.069 E.07237
G1 X105.907 Y147.17 E.07237
G1 X103.829 Y146.166 E.07237
G1 X101.803 Y145.059 E.07237
G1 X99.835 Y143.853 E.07237
G1 X97.93 Y142.551 E.07237
G1 X96.092 Y141.155 E.07237
G1 X94.326 Y139.669 E.07237
G1 X92.636 Y138.097 E.07237
G1 X91.026 Y136.442 E.07237
G1 X89.501 Y134.71 E.07237
G1 X88.064 Y132.903 E.07237
G1 X86.786 Y131.126 E.06865
G1 X85.531 Y129.188 E.07237
G1 X84.375 Y127.191 E.07237
G1 X83.319 Y125.138 E.07237
G1 X82.367 Y123.036 E.07237
G1 X81.521 Y120.888 E.07237
G1 X80.783 Y118.701 E.07237
G1 X80.155 Y116.48 E.07237
G1 X79.639 Y114.23 E.07237
G1 X79.235 Y111.958 E.07237
G1 X78.945 Y109.668 E.07237
G1 X78.77 Y107.367 E.07237
G1 X78.709 Y105.059 E.07237
G1 X78.764 Y102.752 E.07237
G1 X78.933 Y100.45 E.07237
G1 X79.217 Y98.159 E.07237
G1 X79.615 Y95.886 E.07237
G1 X80.126 Y93.635 E.07237
G1 X80.748 Y91.412 E.07237
G1 X81.481 Y89.223 E.07237
G1 X82.321 Y87.074 E.07237
G1 X83.268 Y84.969 E.07237
G1 X84.318 Y82.913 E.07237
G1 X85.47 Y80.913 E.07237
G1 X86.719 Y78.972 E.07237
G1 X88.064 Y77.097 E.07237
G1 X89.464 Y75.337 E.07049
M204 S1000
; printing object plant_saucer-85mm.stl id:0 copy 0
;WIPE_START
G1 F8640
G1 X91.026 Y73.558 E-.54679
G1 X91.67 Y72.896 E-.21321
;WIPE_END
G1 E-.04 F2100
G1 Z.6 F720
G1 X146.692 Y68.841 F10800
G1 Z.2 F720
G1 E.8 F2100
M204 S800
;TYPE:Perimeter
;WIDTH:0.419999
G1 F1200
G1 X147.884 Y69.569 E.04379
G1 X149.622 Y70.754 E.06594
G1 X151.298 Y72.023 E.06594
G1 X152.909 Y73.375 E.06594
G1 X154.451 Y74.806 E.06594
G1 X155.919 Y76.311 E.06594
G1 X157.311 Y77.888 E.06594
G1 X158.622 Y79.532 E.06594
G1 X159.85 Y81.24 E.06594
G1 X160.991 Y83.007 E.06594
G1 X162.042 Y84.828 E.06594
G1 X163.002 Y86.699 E.06594
G1 X163.867 Y88.616 E.06594
G1 X164.635 Y90.574 E.06594
G1 X165.305 Y92.568 E.06594
G1 X165.874 Y94.592 E.06594
G1 X166.342 Y96.642 E.06594
G1 X166.708 Y98.714 E.06594
G1 X166.969 Y100.8 E.06594
G1 X167.126 Y102.898 E.06594
G1 X167.179 Y105 E.06594
G1 X167.126 Y107.102 E.06594
G1 X166.969 Y109.2 E.06594
G1 X166.708 Y111.286 E.06594
G1 X166.342 Y113.358 E.06594
G1 X165.874 Y115.408 E.06594
G1 X165.305 Y117.432 E.06594
G1 X164.635 Y119.426 E.06594
G1 X163.867 Y121.384 E.06594
G1 X163.002 Y123.301 E.06594
G1 X162.042 Y125.172 E.06594
G1 X160.991 Y126.993 E.06594
G1 X159.85 Y128.76 E.06594
G1 X158.622 Y130.468 E.06594
G1 X157.311 Y132.112 E.06594
G1 X155.919 Y133.689 E.06594
G1 X154.451 Y135.194 E.06594
G1 X152.909 Y136.625 E.06594
G1 X151.298 Y137.977 E.06594
G1 X149.622 Y139.246 E.06594
G1 X147.884 Y140.431 E.06594
G1 X146.089 Y141.528 E.06594
G1 X144.242 Y142.534 E.06594
G1 X142.348 Y143.446 E.06594
G1 X140.41 Y144.263 E.06594
G1 X138.433 Y144.982 E.06594
G1 X136.424 Y145.602 E.06594
G1 X134.386 Y146.121 E.06594
G1 X132.324 Y146.538 E.06594
G1 X130.245 Y146.851 E.06594
G1 X128.152 Y147.061 E.06594
G1 X126.052 Y147.166 E.06594
G1 X123.948 Y147.166 E.06594
G1 X121.848 Y147.061 E.06594
G1 X119.755 Y146.851 E.06594
G1 X117.676 Y146.538 E.06594
G1 X115.614 Y146.121 E.06594
G1 X113.576 Y145.602 E.06594
G1 X111.567 Y144.982 E.06594
G1 X109.59 Y144.263 E.06594
G1 X107.652 Y143.446 E.06594
G1 X105.758 Y142.534 E.06594
G1 X103.911 Y141.528 E.06594
G1 X102.116 Y140.431 E.06594
G1 X100.378 Y139.246 E.06594
G1 X98.702 Y137.977 E.06594
G1 X97.091 Y136.625 E.06594
G1 X95.549 Y135.194 E.06594
G1 X94.081 Y133.689 E.06594
G1 X92.689 Y132.112 E.06594
G1 X91.378 Y130.468 E.06594
G1 X90.15 Y128.76 E.06594
G1 X89.009 Y126.993 E.06594
G1 X87.958 Y125.172 E.06594
G1 X86.998 Y123.301 E.06594
G1 X86.133 Y121.384 E.06594
G1 X85.365 Y119.426 E.06594
G1 X84.695 Y117.432 E.06594
G1 X84.126 Y115.408 E.06594
G1 X83.658 Y113.358 E.06594
G1 X83.292 Y111.286 E.06594
G1 X83.031 Y109.2 E.06594
G1 X82.874 Y107.102 E.06594
G1 X82.821 Y105 E.06594
G1 X82.874 Y102.898 E.06594
G1 X83.031 Y100.8 E.06594
G1 X83.292 Y98.714 E.06594
G1 X83.658 Y96.642 E.06594
G1 X84.126 Y94.592 E.06594
G1 X84.695 Y92.568 E.06594
G1 X85.365 Y90.574 E.06594
G1 X86.133 Y88.616 E.06594
G1 X86.998 Y86.699 E.06594
G1 X87.958 Y84.828 E.06594
G1 X89.009 Y83.007 E.06594
G1 X90.15 Y81.24 E.06594
G1 X91.378 Y79.532 E.06594
G1 X92.689 Y77.888 E.06594
G1 X94.081 Y76.311 E.06594
G1 X95.549 Y74.806 E.06594
G1 X97.091 Y73.375 E.06594
G1 X98.702 Y72.023 E.06594
G1 X100.378 Y70.754 E.06594
G1 X102.116 Y69.569 E.06594
G1 X103.911 Y68.472 E.06594
G1 X105.758 Y67.466 E.06594
G1 X107.652 Y66.554 E.06594
G1 X109.59 Y65.737 E.06594
G1 X111.567 Y65.018 E.06594
G1 X113.576 Y64.398 E.06594
G1 X115.614 Y63.879 E.06594
G1 X117.676 Y63.462 E.06594
G1 X119.755 Y63.149 E.06594
G1 X121.848 Y62.939 E.06594
G1 X123.948 Y62.834 E.06594
G1 X126.052 Y62.834 E.06594
G1 X128.152 Y62.939 E.06594
G1 X130.245 Y63.149 E.06594
G1 X132.324 Y63.462 E.06594
G1 X134.386 Y63.879 E.06594
G1 X136.424 Y64.398 E.06594
G1 X138.433 Y65.018 E.06594
G1 X140.41 Y65.737 E.06594
G1 X142.348 Y66.554 E.06594
G1 X144.242 Y67.466 E.06594
G1 X146.089 Y68.472 E.06594
G1 X146.641 Y68.809 E.02027
M204 S1000
;WIPE_START
G1 F8640
G1 X147.884 Y69.569 E-.3363
G1 X149.4 Y70.602 E-.4237
;WIPE_END
G1 E-.04 F2100
G1 Z.6 F720
G1 X85.313 Y89.673 F10800
G1 Z.2 F720
G1 E.8 F2100
M204 S800
G1 F1200
G1 X85.786 Y88.47 E.04054
G1 X86.658 Y86.536 E.06653
G1 X87.627 Y84.647 E.06653
G1 X88.687 Y82.81 E.06653
G1 X89.839 Y81.027 E.06653
G1 X91.077 Y79.305 E.06653
G1 X92.4 Y77.646 E.06653
G1 X93.804 Y76.055 E.06653
G1 X95.286 Y74.536 E.06653
G1 X96.841 Y73.092 E.06653
G1 X98.467 Y71.728 E.06653
G1 X100.158 Y70.447 E.06653
G1 X101.911 Y69.252 E.06653
G1 X103.722 Y68.146 E.06653
G1 X105.586 Y67.131 E.06653
G1 X107.497 Y66.21 E.06653
G1 X109.453 Y65.386 E.06653
G1 X111.446 Y64.66 E.06653
G1 X113.474 Y64.035 E.06653
G1 X115.53 Y63.511 E.06653
G1 X117.61 Y63.091 E.06653
G1 X119.708 Y62.774 E.06653
G1 X121.82 Y62.563 E.06653
M73 P0 R135
G1 X123.939 Y62.457 E.06653
G1 X126.061 Y62.457 E.06653
G1 X128.18 Y62.563 E.06653
G1 X130.292 Y62.774 E.06653
G1 X132.39 Y63.091 E.06653
G1 X134.47 Y63.511 E.06653
G1 X136.526 Y64.035 E.06653
G1 X138.554 Y64.66 E.06653
G1 X140.547 Y65.386 E.06653
G1 X142.503 Y66.21 E.06653
G1 X144.414 Y67.131 E.06653
G1 X146.278 Y68.146 E.06653
G1 X148.089 Y69.252 E.06653
G1 X149.842 Y70.447 E.06653
G1 X151.533 Y71.728 E.06653
G1 X153.159 Y73.092 E.06653
G1 X154.714 Y74.536 E.06653
G1 X156.196 Y76.055 E.06653
G1 X157.6 Y77.646 E.06653
G1 X158.923 Y79.305 E.06653
G1 X160.161 Y81.027 E.06653
G1 X161.313 Y82.81 E.06653
G1 X162.373 Y84.647 E.06653
G1 X163.342 Y86.536 E.06653
G1 X164.214 Y88.47 E.06653
G1 X164.989 Y90.445 E.06653
G1 X165.665 Y92.456 E.06653
G1 X166.24 Y94.499 E.06653
G1 X166.712 Y96.568 E.06653
G1 X167.081 Y98.657 E.06653
G1 X167.344 Y100.763 E.06653
G1 X167.503 Y102.879 E.06653
G1 X167.556 Y105 E.06653
G1 X167.503 Y107.121 E.06653
G1 X167.344 Y109.237 E.06653
G1 X167.081 Y111.343 E.06653
G1 X166.712 Y113.432 E.06653
G1 X166.24 Y115.501 E.06653
G1 X165.665 Y117.544 E.06653
G1 X164.989 Y119.555 E.06653
G1 X164.214 Y121.53 E.06653
G1 X163.342 Y123.464 E.06653
G1 X162.373 Y125.353 E.06653
G1 X161.313 Y127.19 E.06653
G1 X160.161 Y128.973 E.06653
G1 X158.923 Y130.695 E.06653
G1 X157.6 Y132.354 E.06653
G1 X156.196 Y133.945 E.06653
G1 X154.714 Y135.464 E.06653
G1 X153.159 Y136.908 E.06653
G1 X151.533 Y138.272 E.06653
G1 X149.842 Y139.553 E.06653
G1 X148.089 Y140.748 E.06653
G1 X146.278 Y141.854 E.06653
G1 X144.414 Y142.869 E.06653
G1 X142.503 Y143.79 E.06653
G1 X140.547 Y144.614 E.06653
G1 X138.554 Y145.34 E.06653
G1 X136.526 Y145.965 E.06653
G1 X134.47 Y146.489 E.06653
G1 X132.39 Y146.909 E.06653
G1 X130.292 Y147.226 E.06653
G1 X128.18 Y147.437 E.06653
G1 X126.061 Y147.543 E.06653
G1 X123.939 Y147.543 E.06653
G1 X121.82 Y147.437 E.06653
G1 X119.708 Y147.226 E.06653
G1 X117.61 Y146.909 E.06653
G1 X115.53 Y146.489 E.06653
G1 X113.474 Y145.965 E.06653
G1 X111.446 Y145.34 E.06653
G1 X109.453 Y144.614 E.06653
G1 X107.497 Y143.79 E.06653
G1 X105.586 Y142.869 E.06653
G1 X103.722 Y141.854 E.06653
G1 X101.911 Y140.748 E.06653
G1 X100.158 Y139.553 E.06653
G1 X98.467 Y138.272 E.06653
G1 X96.841 Y136.908 E.06653
G1 X95.286 Y135.464 E.06653
G1 X93.804 Y133.945 E.06653
G1 X92.4 Y132.354 E.06653
G1 X91.077 Y130.695 E.06653
G1 X89.839 Y128.973 E.06653
G1 X88.687 Y127.19 E.06653
G1 X87.627 Y125.353 E.06653
G1 X86.658 Y123.464 E.06653
G1 X85.786 Y121.53 E.06653
G1 X85.011 Y119.555 E.06653
G1 X84.335 Y117.544 E.06653
G1 X83.76 Y115.501 E.06653
G1 X83.288 Y113.432 E.06653
G1 X82.919 Y111.343 E.06653
G1 X82.656 Y109.237 E.06653
G1 X82.497 Y107.121 E.06653
G1 X82.444 Y105 E.06653
G1 X82.497 Y102.879 E.06653
G1 X82.656 Y100.763 E.06653
G1 X82.919 Y98.657 E.06653
G1 X83.288 Y96.568 E.06653
G1 X83.76 Y94.499 E.06653
G1 X84.335 Y92.456 E.06653
G1 X85.011 Y90.445 E.06653
G1 X85.291 Y89.729 E.02411
M204 S1000
;WIPE_START
G1 F8640
G1 X85.786 Y88.47 E-.31241
G1 X86.583 Y86.703 E-.44759
;WIPE_END
G1 E-.04 F2100
G1 Z.6 F720
G1 X83.127 Y95.58 F10800
G1 Z.2 F720
G1 E.8 F2100
M204 S800
;TYPE:External perimeter
G1 F1200
G1 X83.395 Y94.406 E.03775
G1 X83.974 Y92.345 E.06712
G1 X84.656 Y90.316 E.06712
G1 X85.438 Y88.323 E.06712
G1 X86.319 Y86.372 E.06712
G1 X87.295 Y84.467 E.06712
G1 X88.366 Y82.613 E.06712
G1 X89.527 Y80.815 E.06712
G1 X90.777 Y79.077 E.06712
G1 X92.111 Y77.403 E.06712
G1 X93.528 Y75.798 E.06712
G1 X95.023 Y74.266 E.06712
G1 X96.592 Y72.81 E.06712
G1 X98.232 Y71.434 E.06712
G1 X99.938 Y70.141 E.06712
G1 X101.707 Y68.935 E.06712
G1 X103.533 Y67.819 E.06712
G1 X105.413 Y66.795 E.06712
G1 X107.342 Y65.866 E.06712
G1 X109.315 Y65.035 E.06712
G1 X111.326 Y64.303 E.06712
G1 X113.372 Y63.672 E.06712
G1 X115.446 Y63.143 E.06712
G1 X117.545 Y62.719 E.06712
G1 X119.662 Y62.4 E.06712
G1 X121.792 Y62.187 E.06712
G1 X123.93 Y62.08 E.06712
G1 X126.07 Y62.08 E.06712
G1 X128.208 Y62.187 E.06712
G1 X130.338 Y62.4 E.06712
G1 X132.455 Y62.719 E.06712
G1 X134.554 Y63.143 E.06712
G1 X136.628 Y63.672 E.06712
G1 X138.674 Y64.303 E.06712
G1 X140.685 Y65.035 E.06712
G1 X142.658 Y65.866 E.06712
G1 X144.587 Y66.795 E.06712
G1 X146.467 Y67.819 E.06712
G1 X148.293 Y68.935 E.06712
G1 X150.062 Y70.141 E.06712
G1 X151.768 Y71.434 E.06712
G1 X153.408 Y72.81 E.06712
G1 X154.977 Y74.266 E.06712
G1 X156.472 Y75.798 E.06712
G1 X157.889 Y77.403 E.06712
G1 X159.223 Y79.077 E.06712
G1 X160.473 Y80.815 E.06712
G1 X161.634 Y82.613 E.06712
G1 X162.705 Y84.467 E.06712
M73 Q0 S136
G1 X163.681 Y86.372 E.06712
G1 X164.562 Y88.323 E.06712
G1 X165.344 Y90.316 E.06712
G1 X166.026 Y92.345 E.06712
G1 X166.605 Y94.406 E.06712
G1 X167.082 Y96.493 E.06712
G1 X167.454 Y98.601 E.06712
G1 X167.72 Y100.725 E.06712
G1 X167.88 Y102.86 E.06712
G1 X167.933 Y105 E.06712
G1 X167.88 Y107.14 E.06712
G1 X167.72 Y109.275 E.06712
G1 X167.454 Y111.399 E.06712
G1 X167.082 Y113.507 E.06712
G1 X166.605 Y115.594 E.06712
G1 X166.026 Y117.655 E.06712
G1 X165.344 Y119.684 E.06712
G1 X164.562 Y121.677 E.06712
G1 X163.681 Y123.628 E.06712
G1 X162.705 Y125.533 E.06712
G1 X161.634 Y127.387 E.06712
G1 X160.473 Y129.185 E.06712
G1 X159.223 Y130.923 E.06712
G1 X157.889 Y132.597 E.06712
G1 X156.472 Y134.202 E.06712
G1 X154.977 Y135.734 E.06712
G1 X153.408 Y137.19 E.06712
G1 X151.768 Y138.566 E.06712
G1 X150.062 Y139.859 E.06712
G1 X148.293 Y141.065 E.06712
G1 X146.467 Y142.181 E.06712
G1 X144.587 Y143.205 E.06712
G1 X142.658 Y144.134 E.06712
G1 X140.685 Y144.965 E.06712
G1 X138.674 Y145.697 E.06712
G1 X136.628 Y146.328 E.06712
G1 X134.554 Y146.857 E.06712
G1 X132.455 Y147.281 E.06712
G1 X130.338 Y147.6 E.06712
G1 X128.208 Y147.813 E.06712
G1 X126.07 Y147.92 E.06712
G1 X123.93 Y147.92 E.06712
G1 X121.792 Y147.813 E.06712
G1 X119.662 Y147.6 E.06712
G1 X117.545 Y147.281 E.06712
G1 X115.446 Y146.857 E.06712
G1 X113.372 Y146.328 E.06712
G1 X111.326 Y145.697 E.06712
G1 X109.315 Y144.965 E.06712
G1 X107.342 Y144.134 E.06712
G1 X105.413 Y143.205 E.06712
G1 X103.533 Y142.181 E.06712
G1 X101.707 Y141.065 E.06712
G1 X99.938 Y139.859 E.06712
G1 X98.232 Y138.566 E.06712
G1 X96.592 Y137.19 E.06712
G1 X95.023 Y135.734 E.06712
G1 X93.528 Y134.202 E.06712
