; generated by PrusaSlicer 2.5.0+win64 on 2022-10-23 at 14:29:50 UTC


;
;
; 

; external perimeters extrusion width = 0.45mm
; perimeters extrusion width = 0.45mm
; infill extrusion width = 0.45mm
; solid infill extrusion width = 0.45mm
; top infill extrusion width = 0.40mm
; first layer extrusion width = 0.42mm

M73 P0 R55
M73 Q0 S55
M201 X1000 Y1000 Z200 E5000 ; sets maximum accelerations, mm/sec^2
M203 X200 Y200 Z12 E120 ; sets maximum feedrates, mm / sec
M204 P1250 R1250 T1250 ; sets acceleration (P, T) and retract acceleration (R), mm/sec^2
M205 X8.00 Y8.00 Z0.40 E4.50 ; sets the jerk limits, mm/sec
M205 S0 T0 ; sets the minimum extruding and travel feed rate, mm/sec
M107
;TYPE:Custom
M862.3 P "MK3S" ; printer model check
M862.1 P0.4 ; nozzle diameter check
M115 U3.11.0 ; tell printer latest fw version
G90 ; use absolute coordinates
M83 ; extruder relative mode
M104 S240 ; set extruder temp
M140 S85 ; set bed temp
M190 S85 ; wait for bed temp
M109 S240 ; wait for extruder temp
G28 W ; home all without mesh bed level
G80 ; mesh bed leveling

G1 Z0.2 F720
G1 Y-3 F1000 ; go outside print area
G92 E0
G1 X60 E9 F1000 ; intro line
G1 X100 E12.5 F1000 ; intro line

G92 E0
M221 S95

; Don't change E values below. Excessive value can damage the printer.
M907 E430 ; set extruder motor current
G21 ; set units to millimeters
G90 ; use absolute coordinates
M83 ; use relative distances for extrusion
M900 K0.08 ; Filament gcode LA 1.5
M900 K45 ; Filament gcode LA 1.0
M107
;LAYER_CHANGE
;Z:0.2
;HEIGHT:0.2
;BEFORE_LAYER_CHANGE
G92 E0.0
;0.2


G1 E-1 F2100
G1 Z.2 F720
;AFTER_LAYER_CHANGE
;0.2
G1 Z.4
G1 X106.545 Y72.346 F10800
G1 Z.2 F720
G1 E1 F2100
M204 S800
;TYPE:Skirt/Brim
;WIDTH:0.42
G1 F1200
G1 X107.897 Y70.571 E.06994
G1 X109.418 Y68.94 E.06994
G1 X111.095 Y67.469 E.06994
G1 X112.91 Y66.171 E.06995
G1 X114.844 Y65.061 E.06994
G1 X116.88 Y64.149 E.06994
G1 X118.997 Y63.444 E.06994
M73 P0 R54
G1 X121.173 Y62.953 E.06994
G1 X123.387 Y62.682 E.06994
G1 X125.617 Y62.632 E.06994
G1 X127.724 Y62.79 E.06623
G1 X128.944 Y62.974 E.0387
G1 X131.003 Y63.444 E.06623
G1 X132.183 Y63.808 E.0387
G1 X134.149 Y64.579 E.06623
G1 X135.261 Y65.115 E.0387
G1 X137.09 Y66.171 E.06623
G1 X138.11 Y66.866 E.0387
G1 X139.762 Y68.183 E.06623
G1 X140.666 Y69.023 E.0387
G1 X142.103 Y70.571 E.06623
G1 X142.873 Y71.536 E.0387
G1 X144.063 Y73.282 E.06623
G1 X144.68 Y74.35 E.0387
G1 X145.596 Y76.254 E.06623
G1 X146.047 Y77.403 E.0387
G1 X146.67 Y79.421 E.06623
G1 X146.944 Y80.624 E.03869
G1 X147.259 Y82.713 E.06623
G1 X147.351 Y83.944 E.03869
G1 X147.376 Y125.059 E1.28915
G1 X147.259 Y127.287 E.06994
G1 X146.921 Y129.492 E.06994
G1 X146.365 Y131.652 E.06994
G1 X145.596 Y133.746 E.06994
G1 X144.623 Y135.754 E.06994
G1 X143.455 Y137.654 E.06994
G1 X142.103 Y139.429 E.06994
G1 X140.582 Y141.06 E.06994
G1 X138.905 Y142.531 E.06994
G1 X137.09 Y143.829 E.06994
G1 X135.156 Y144.939 E.06994
G1 X133.12 Y145.851 E.06995
G1 X131.003 Y146.556 E.06994
G1 X128.827 Y147.047 E.06994
G1 X126.731 Y147.309 E.06623
G1 X124.501 Y147.371 E.06994
G1 X123.269 Y147.309 E.0387
G1 X121.056 Y147.026 E.06994
G1 X118.997 Y146.556 E.06623
G1 X117.817 Y146.192 E.0387
G1 X115.851 Y145.421 E.06623
G1 X114.739 Y144.885 E.0387
G1 X112.91 Y143.829 E.06623
G1 X111.89 Y143.134 E.0387
G1 X110.238 Y141.817 E.06623
G1 X109.334 Y140.977 E.0387
G1 X107.897 Y139.429 E.06623
G1 X107.127 Y138.464 E.03869
G1 X105.937 Y136.718 E.06624
G1 X105.32 Y135.65 E.0387
G1 X104.404 Y133.746 E.06623
G1 X103.953 Y132.597 E.0387
G1 X103.33 Y130.579 E.06623
G1 X103.056 Y129.376 E.0387
G1 X102.741 Y127.287 E.06623
G1 X102.649 Y126.056 E.03869
G1 X102.624 Y84.941 E1.28915
G1 X102.741 Y82.713 E.06995
G1 X103.079 Y80.508 E.06994
G1 X103.635 Y78.348 E.06994
G1 X104.404 Y76.254 E.06994
G1 X105.377 Y74.246 E.06994
G1 X106.514 Y72.397 E.06806
M204 S1000
; printing object basement-window-latch-knob.stl id:0 copy 0
;WIPE_START
G1 F8640
G1 X107.897 Y70.571 E-.52887
G1 X109.141 Y69.238 E-.42112
;WIPE_END
G1 E-.05 F2100
G1 Z.4 F720
G1 X139.14 Y136.865 F10800
G1 Z.2 F720
G1 E1 F2100
M204 S800
;TYPE:Perimeter
;WIDTH:0.419999
G1 F1200
G1 X138.531 Y137.555 E.02886
G1 X137.888 Y138.214 E.02886
G1 X137.214 Y138.84 E.02886
G1 X136.509 Y139.431 E.02886
G1 X135.775 Y139.987 E.02886
M73 Q0 S54
G1 X135.014 Y140.505 E.02886
G1 X134.229 Y140.985 E.02886
G1 X133.421 Y141.426 E.02886
G1 X132.592 Y141.825 E.02886
G1 X131.744 Y142.182 E.02886
G1 X130.879 Y142.497 E.02886
G1 X129.999 Y142.768 E.02886
G1 X129.107 Y142.996 E.02886
G1 X128.205 Y143.178 E.02886
G1 X127.295 Y143.315 E.02886
G1 X126.379 Y143.407 E.02886
G1 X125.46 Y143.453 E.02885
G1 X124.54 Y143.453 E.02886
G1 X123.621 Y143.407 E.02886
G1 X122.705 Y143.315 E.02886
G1 X121.795 Y143.178 E.02886
G1 X120.893 Y142.995 E.02886
G1 X120.001 Y142.768 E.02886
G1 X119.121 Y142.497 E.02886
G1 X118.256 Y142.182 E.02885
G1 X117.408 Y141.825 E.02886
G1 X116.579 Y141.426 E.02886
G1 X115.771 Y140.985 E.02886
G1 X114.986 Y140.505 E.02886
G1 X114.225 Y139.987 E.02886
G1 X113.491 Y139.431 E.02886
G1 X112.786 Y138.84 E.02886
G1 X112.112 Y138.214 E.02886
G1 X111.469 Y137.555 E.02886
G1 X110.86 Y136.865 E.02886
G1 X110.286 Y136.145 E.02886
G1 X109.749 Y135.398 E.02886
G1 X109.25 Y134.625 E.02886
G1 X108.79 Y133.828 E.02886
G1 X108.37 Y133.009 E.02884
G1 X107.986 Y132.156 E.02933
G1 X107.655 Y131.313 E.0284
G1 X107.362 Y130.441 E.02884
G1 X107.109 Y129.541 E.02932
G1 X106.908 Y128.657 E.02841
G1 X106.748 Y127.751 E.02886
G1 X106.633 Y126.838 E.02886
G1 X106.565 Y125.92 E.02886
G1 X106.541 Y124.981 E.02946
G1 X106.541 Y85.249 E1.24575
G1 X106.553 Y84.54 E.02225
G1 X106.599 Y83.621 E.02885
G1 X106.691 Y82.706 E.02885
G1 X106.828 Y81.796 E.02885
G1 X107.01 Y80.894 E.02885
G1 X107.237 Y80.002 E.02885
G1 X107.508 Y79.123 E.02885
G1 X107.823 Y78.259 E.02885
G1 X108.18 Y77.411 E.02885
G1 X108.58 Y76.582 E.02885
G1 X109.02 Y75.774 E.02885
G1 X109.499 Y74.989 E.02885
G1 X110.018 Y74.228 E.02885
G1 X110.573 Y73.495 E.02885
G1 X111.165 Y72.79 E.02885
G1 X111.79 Y72.116 E.02885
G1 X112.449 Y71.473 E.02885
G1 X113.139 Y70.864 E.02885
G1 X113.858 Y70.291 E.02885
G1 X114.605 Y69.754 E.02885
G1 X115.378 Y69.255 E.02885
G1 X116.175 Y68.795 E.02885
G1 X116.994 Y68.375 E.02885
G1 X117.832 Y67.996 E.02885
G1 X118.689 Y67.66 E.02885
G1 X119.561 Y67.367 E.02885
G1 X120.447 Y67.118 E.02885
G1 X121.344 Y66.913 E.02885
G1 X122.25 Y66.754 E.02884
G1 X123.163 Y66.639 E.02885
G1 X124.08 Y66.57 E.02885
G1 X125 Y66.547 E.02885
G1 X125.92 Y66.57 E.02886
G1 X126.838 Y66.639 E.02886
G1 X127.754 Y66.754 E.02893
G1 X128.653 Y66.913 E.02862
G1 X129.577 Y67.125 E.02975
G1 X130.443 Y67.368 E.02818
G1 X131.312 Y67.661 E.02877
G1 X132.168 Y67.997 E.02883
G1 X133.007 Y68.375 E.02884
G1 X133.825 Y68.795 E.02885
G1 X134.622 Y69.255 E.02885
G1 X135.395 Y69.754 E.02885
G1 X136.142 Y70.291 E.02885
G1 X136.861 Y70.865 E.02885
G1 X137.551 Y71.473 E.02885
G1 X138.21 Y72.116 E.02885
G1 X138.836 Y72.79 E.02885
G1 X139.427 Y73.495 E.02885
G1 X139.983 Y74.229 E.02886
G1 X140.501 Y74.99 E.02886
G1 X140.982 Y75.777 E.02892
G1 X141.419 Y76.578 E.02862
G1 X141.83 Y77.434 E.02975
G1 X142.178 Y78.262 E.02818
G1 X142.492 Y79.124 E.02877
G1 X142.763 Y80.003 E.02883
G1 X142.99 Y80.894 E.02884
G1 X143.172 Y81.796 E.02884
G1 X143.309 Y82.706 E.02885
G1 X143.401 Y83.621 E.02885
G1 X143.447 Y84.541 E.02887
G1 X143.459 Y85.249 E.02221
G1 X143.459 Y124.981 E1.24575
G1 X143.435 Y125.92 E.02946
G1 X143.367 Y126.838 E.02886
G1 X143.252 Y127.751 E.02886
G1 X143.092 Y128.657 E.02886
G1 X142.888 Y129.555 E.02886
G1 X142.638 Y130.441 E.02886
G1 X142.345 Y131.313 E.02886
G1 X142.009 Y132.17 E.02886
G1 X141.63 Y133.009 E.02886
G1 X141.21 Y133.828 E.02886
G1 X140.75 Y134.625 E.02886
G1 X140.251 Y135.398 E.02886
G1 X139.714 Y136.145 E.02886
G1 X139.177 Y136.818 E.02698
M204 S1000
G1 X139.429 Y137.107 F10800
M204 S800
G1 F1200
G1 X138.807 Y137.811 E.02945
G1 X138.152 Y138.484 E.02945
G1 X137.463 Y139.122 E.02945
G1 X136.744 Y139.726 E.02945
G1 X135.995 Y140.293 E.02945
G1 X135.219 Y140.822 E.02945
G1 X134.418 Y141.312 E.02945
G1 X133.593 Y141.761 E.02945
G1 X132.747 Y142.169 E.02945
G1 X131.881 Y142.533 E.02945
G1 X130.999 Y142.855 E.02945
G1 X130.101 Y143.131 E.02945
G1 X129.191 Y143.363 E.02945
G1 X128.271 Y143.549 E.02945
G1 X127.342 Y143.689 E.02945
G1 X126.408 Y143.783 E.02945
G1 X125.47 Y143.83 E.02944
G1 X124.53 Y143.83 E.02945
G1 X123.592 Y143.783 E.02944
G1 X122.658 Y143.689 E.02945
G1 X121.729 Y143.549 E.02945
G1 X120.809 Y143.363 E.02945
G1 X119.899 Y143.131 E.02944
G1 X119.001 Y142.855 E.02945
G1 X118.119 Y142.533 E.02944
G1 X117.253 Y142.169 E.02945
G1 X116.407 Y141.761 E.02945
G1 X115.582 Y141.312 E.02945
G1 X114.781 Y140.822 E.02945
G1 X114.005 Y140.293 E.02945
G1 X113.256 Y139.726 E.02945
G1 X112.537 Y139.122 E.02945
G1 X111.848 Y138.484 E.02945
G1 X111.193 Y137.811 E.02945
G1 X110.571 Y137.107 E.02945
G1 X109.986 Y136.373 E.02945
G1 X109.437 Y135.61 E.02945
G1 X108.928 Y134.821 E.02945
G1 X108.458 Y134.008 E.02945
G1 X108.03 Y133.173 E.02944
G1 X107.638 Y132.303 E.02991
G1 X107.3 Y131.442 E.02899
G1 X107.001 Y130.552 E.02944
G1 X106.744 Y129.634 E.02991
G1 X106.538 Y128.732 E.02899
G1 X106.375 Y127.807 E.02945
G1 X106.258 Y126.875 E.02945
G1 X106.188 Y125.939 E.02945
G1 X106.164 Y124.985 E.0299
G1 X106.164 Y85.249 E1.2459
G1 X106.176 Y84.531 E.02254
M73 Q1 S54
G1 X106.223 Y83.593 E.02944
G1 X106.317 Y82.659 E.02944
M73 P1 R54
G1 X106.456 Y81.73 E.02944
G1 X106.642 Y80.81 E.02944
G1 X106.874 Y79.9 E.02944
G1 X107.151 Y79.003 E.02944
G1 X107.472 Y78.121 E.02944
G1 X107.837 Y77.256 E.02944
G1 X108.244 Y76.41 E.02944
G1 X108.693 Y75.585 E.02944
G1 X109.183 Y74.784 E.02944
G1 X109.712 Y74.008 E.02944
G1 X110.278 Y73.26 E.02944
G1 X110.882 Y72.541 E.02944
G1 X111.521 Y71.852 E.02944
G1 X112.193 Y71.197 E.02944
G1 X112.897 Y70.576 E.02944
G1 X113.631 Y69.99 E.02944
G1 X114.393 Y69.442 E.02944
G1 X115.182 Y68.933 E.02944
G1 X115.995 Y68.463 E.02944
G1 X116.83 Y68.035 E.02944
G1 X117.686 Y67.649 E.02944
G1 X118.56 Y67.306 E.02944
G1 X119.45 Y67.007 E.02944
G1 X120.354 Y66.753 E.02944
G1 X121.269 Y66.544 E.02944
G1 X122.194 Y66.381 E.02943
G1 X123.125 Y66.264 E.02944
G1 X124.062 Y66.194 E.02944
G1 X125 Y66.17 E.02944
G1 X125.939 Y66.194 E.02945
G1 X126.876 Y66.264 E.02945
G1 X127.81 Y66.381 E.02952
G1 X128.727 Y66.543 E.02921
G1 X129.671 Y66.759 E.03035
G1 X130.554 Y67.008 E.02876
G1 X131.441 Y67.306 E.02936
G1 X132.315 Y67.649 E.02942
G1 X133.17 Y68.035 E.02943
G1 X134.006 Y68.464 E.02943
G1 X134.819 Y68.933 E.02944
G1 X135.607 Y69.442 E.02944
G1 X136.369 Y69.99 E.02943
G1 X137.104 Y70.576 E.02944
G1 X137.807 Y71.197 E.02944
G1 X138.48 Y71.853 E.02944
G1 X139.118 Y72.541 E.02944
G1 X139.722 Y73.26 E.02944
G1 X140.289 Y74.009 E.02945
G1 X140.818 Y74.785 E.02945
G1 X141.309 Y75.588 E.02951
G1 X141.754 Y76.406 E.02921
G1 X142.173 Y77.279 E.03035
G1 X142.529 Y78.124 E.02876
G1 X142.85 Y79.004 E.02936
G1 X143.126 Y79.901 E.02942
G1 X143.358 Y80.81 E.02943
G1 X143.544 Y81.73 E.02943
G1 X143.684 Y82.659 E.02944
G1 X143.777 Y83.593 E.02944
G1 X143.824 Y84.532 E.02946
G1 X143.836 Y85.249 E.02251
G1 X143.836 Y124.985 E1.2459
G1 X143.812 Y125.939 E.0299
G1 X143.742 Y126.875 E.02945
G1 X143.625 Y127.807 E.02945
G1 X143.462 Y128.732 E.02945
G1 X143.253 Y129.648 E.02945
G1 X142.999 Y130.552 E.02945
G1 X142.7 Y131.442 E.02945
G1 X142.356 Y132.316 E.02945
G1 X141.97 Y133.172 E.02945
G1 X141.542 Y134.008 E.02945
G1 X141.072 Y134.822 E.02945
G1 X140.563 Y135.61 E.02945
G1 X140.014 Y136.373 E.02945
G1 X139.466 Y137.06 E.02757
M204 S1000
G1 X139.718 Y137.35 F10800
M204 S800
G1 F1200
G1 X139.084 Y138.068 E.03004
G1 X138.415 Y138.754 E.03004
G1 X137.713 Y139.405 E.03004
G1 X136.979 Y140.021 E.03004
G1 X136.215 Y140.599 E.03004
G1 X135.424 Y141.139 E.03004
G1 X134.606 Y141.639 E.03004
G1 X133.765 Y142.097 E.03004
G1 X132.902 Y142.512 E.03004
G1 X132.019 Y142.885 E.03004
G1 X131.119 Y143.212 E.03004
G1 X130.204 Y143.495 E.03004
G1 X129.275 Y143.731 E.03004
G1 X128.336 Y143.921 E.03004
G1 X127.389 Y144.064 E.03004
G1 X126.436 Y144.159 E.03004
G1 X125.479 Y144.207 E.03003
G1 X124.521 Y144.207 E.03004
G1 X123.564 Y144.159 E.03003
G1 X122.611 Y144.064 E.03004
G1 X121.664 Y143.921 E.03004
G1 X120.725 Y143.731 E.03004
G1 X119.796 Y143.495 E.03003
G1 X118.881 Y143.212 E.03004
G1 X117.981 Y142.885 E.03003
G1 X117.098 Y142.512 E.03004
G1 X116.235 Y142.097 E.03004
G1 X115.394 Y141.639 E.03004
G1 X114.576 Y141.139 E.03004
G1 X113.785 Y140.599 E.03004
G1 X113.021 Y140.021 E.03004
G1 X112.287 Y139.405 E.03004
G1 X111.585 Y138.754 E.03004
G1 X110.916 Y138.068 E.03004
G1 X110.282 Y137.35 E.03004
G1 X109.685 Y136.601 E.03004
G1 X109.126 Y135.823 E.03004
G1 X108.606 Y135.018 E.03004
G1 X108.127 Y134.189 E.03004
G1 X107.69 Y133.336 E.03003
G1 X107.291 Y132.449 E.0305
G1 X106.946 Y131.571 E.02957
G1 X106.641 Y130.663 E.03003
G1 X106.378 Y129.727 E.0305
G1 X106.168 Y128.807 E.02958
G1 X106.002 Y127.864 E.03004
G1 X105.883 Y126.913 E.03004
G1 X105.811 Y125.958 E.03004
G1 X105.787 Y124.99 E.03034
G1 X105.787 Y85.01 E1.25355
G1 X105.811 Y84.042 E.03034
G1 X105.883 Y83.087 E.03004
G1 X106.002 Y82.136 E.03004
G1 X106.168 Y81.193 E.03004
G1 X106.381 Y80.259 E.03004
G1 X106.641 Y79.337 E.03004
G1 X106.946 Y78.429 E.03004
G1 X107.296 Y77.537 E.03004
G1 X107.69 Y76.664 E.03004
G1 X108.127 Y75.811 E.03004
G1 X108.606 Y74.982 E.03004
G1 X109.126 Y74.177 E.03004
G1 X109.685 Y73.399 E.03004
G1 X110.282 Y72.65 E.03004
G1 X110.916 Y71.932 E.03004
G1 X111.585 Y71.246 E.03004
G1 X112.287 Y70.595 E.03003
G1 X113.021 Y69.979 E.03004
G1 X113.785 Y69.401 E.03003
G1 X114.576 Y68.861 E.03004
G1 X115.394 Y68.361 E.03004
G1 X116.235 Y67.903 E.03004
G1 X117.098 Y67.488 E.03004
G1 X117.981 Y67.115 E.03004
G1 X118.881 Y66.788 E.03004
G1 X119.796 Y66.505 E.03004
G1 X120.725 Y66.269 E.03004
G1 X121.664 Y66.079 E.03004
G1 X122.611 Y65.936 E.03004
G1 X123.564 Y65.841 E.03004
G1 X124.521 Y65.793 E.03003
G1 X125.479 Y65.793 E.03004
G1 X126.436 Y65.841 E.03004
G1 X127.389 Y65.936 E.03004
G1 X128.336 Y66.079 E.03004
G1 X129.275 Y66.269 E.03003
G1 X130.218 Y66.51 E.0305
G1 X131.119 Y66.788 E.02958
G1 X132.019 Y67.115 E.03003
G1 X132.902 Y67.488 E.03004
G1 X133.765 Y67.903 E.03004
G1 X134.606 Y68.361 E.03004
G1 X135.424 Y68.861 E.03004
G1 X136.215 Y69.401 E.03004
G1 X136.979 Y69.979 E.03003
G1 X137.713 Y70.595 E.03004
G1 X138.415 Y71.246 E.03003
G1 X139.084 Y71.932 E.03004
G1 X139.718 Y72.65 E.03004
G1 X140.315 Y73.399 E.03004
G1 X140.874 Y74.177 E.03004
G1 X141.394 Y74.982 E.03003
G1 X141.873 Y75.811 E.03004
G1 X142.31 Y76.664 E.03003
G1 X142.88 Y77.987 E.04517
G1 X143.207 Y78.884 E.02995
G1 X143.489 Y79.799 E.03001
G1 X143.725 Y80.727 E.03002
G1 X143.915 Y81.665 E.03002
G1 X144.058 Y82.612 E.03003
G1 X144.153 Y83.565 E.03003
G1 X144.201 Y84.522 E.03005
G1 X144.213 Y85.249 E.0228
G1 X144.213 Y124.99 E1.24604
G1 X144.189 Y125.958 E.03034
G1 X144.117 Y126.913 E.03004
G1 X143.998 Y127.864 E.03004
G1 X143.832 Y128.807 E.03004
G1 X143.619 Y129.741 E.03004
G1 X143.359 Y130.663 E.03004
G1 X143.054 Y131.571 E.03004
G1 X142.704 Y132.463 E.03004
G1 X142.31 Y133.336 E.03004
G1 X141.873 Y134.189 E.03004
G1 X141.394 Y135.018 E.03004
G1 X140.874 Y135.823 E.03003
G1 X140.315 Y136.601 E.03004
G1 X139.755 Y137.303 E.02816
M204 S1000
G1 X140.007 Y137.592 F10800
M204 S800
;TYPE:External perimeter
G1 F1200
G1 X139.36 Y138.325 E.03063
G1 X138.678 Y139.024 E.03063
G1 X137.962 Y139.688 E.03063
G1 X137.214 Y140.316 E.03063
G1 X136.435 Y140.906 E.03063
G1 X135.628 Y141.456 E.03063
G1 X134.795 Y141.965 E.03063
G1 X133.937 Y142.432 E.03063
G1 X133.057 Y142.856 E.03062
G1 X132.157 Y143.236 E.03063
G1 X131.239 Y143.57 E.03063
G1 X130.306 Y143.858 E.03063
G1 X129.359 Y144.099 E.03063
G1 X128.402 Y144.292 E.03063
G1 X127.436 Y144.438 E.03063
G1 X126.464 Y144.535 E.03063
G1 X125.488 Y144.584 E.03062
G1 X124.512 Y144.584 E.03063
G1 X123.536 Y144.535 E.03062
G1 X122.564 Y144.438 E.03063
G1 X121.598 Y144.292 E.03063
G1 X120.641 Y144.099 E.03063
G1 X119.694 Y143.858 E.03062
G1 X118.761 Y143.57 E.03063
G1 X117.843 Y143.236 E.03062
G1 X116.943 Y142.856 E.03063
