; generated by PrusaSlicer 2.5.0+win64 on 2022-10-23 at 15:13:19 UTC


;
;
; 

; external perimeters extrusion width = 0.45mm
; perimeters extrusion width = 0.45mm
; infill extrusion width = 0.45mm
; solid infill extrusion width = 0.45mm
; top infill extrusion width = 0.40mm
; first layer extrusion width = 0.42mm

M73 P0 R132
M73 Q0 S133
M201 X1000 Y1000 Z200 E5000 ; sets maximum accelerations, mm/sec^2
M203 X200 Y200 Z12 E120 ; sets maximum feedrates, mm / sec
M204 P1250 R1250 T1250 ; sets acceleration (P, T) and retract acceleration (R), mm/sec^2
M205 X8.00 Y8.00 Z0.40 E4.50 ; sets the jerk limits, mm/sec
M205 S0 T0 ; sets the minimum extruding and travel feed rate, mm/sec
M107
;TYPE:Custom
M862.3 P "MK3S" ; printer model check
M862.1 P0.4 ; nozzle diameter check
M115 U3.11.0 ; tell printer latest fw version
G90 ; use absolute coordinates
M83 ; extruder relative mode
M104 S240 ; set extruder temp
M140 S85 ; set bed temp
M190 S85 ; wait for bed temp
M109 S240 ; wait for extruder temp
G28 W ; home all without mesh bed level
G80 ; mesh bed leveling

G1 Z0.2 F720
G1 Y-3 F1000 ; go outside print area
G92 E0
G1 X60 E9 F1000 ; intro line
G1 X100 E12.5 F1000 ; intro line

G92 E0
M221 S95

; Don't change E values below. Excessive value can damage the printer.
M907 E430 ; set extruder motor current
G21 ; set units to millimeters
G90 ; use absolute coordinates
M83 ; use relative distances for extrusion
M900 K0.08 ; Filament gcode LA 1.5
M900 K45 ; Filament gcode LA 1.0
M107
;LAYER_CHANGE
;Z:0.2
;HEIGHT:0.2
;BEFORE_LAYER_CHANGE
G92 E0.0
;0.2


G1 E-1 F2100
G1 Z.2 F720
;AFTER_LAYER_CHANGE
;0.2
G1 Z.4
G1 X99.398 Y86.476 F10800
G1 Z.2 F720
G1 E1 F2100
M204 S800
;TYPE:Skirt/Brim
;WIDTH:0.42
G1 F1200
G1 X99.975 Y85.899 E.02559
G1 X100.939 Y85.353 E.03475
G1 X101.56 Y85.181 E.02017
G1 X102.141 Y85.124 E.01832
G1 X147.858 Y85.124 E1.43343
G1 X148.782 Y85.261 E.02928
G1 X149.588 Y85.602 E.02744
G1 X150.287 Y86.13 E.02747
G1 X150.837 Y86.811 E.02745
G1 X151.187 Y87.549 E.0256
G1 X151.353 Y88.291 E.02384
G1 X151.329 Y90.882 E.08126
G1 X143.239 Y122.282 E1.01667
G1 X142.741 Y123.335 E.03652
G1 X142.024 Y124.102 E.03292
G1 X141.06 Y124.648 E.03473
G1 X140.44 Y124.819 E.02015
G1 X139.859 Y124.876 E.01832
G1 X102.142 Y124.876 E1.18261
G1 X101.388 Y124.783 E.02382
G1 X100.62 Y124.509 E.02557
G1 X99.976 Y124.102 E.02387
G1 X99.398 Y123.524 E.02562
G1 X98.852 Y122.56 E.03473
G1 X98.681 Y121.94 E.02015
G1 X98.624 Y121.359 E.01831
G1 X98.624 Y88.642 E1.02584
G1 X98.716 Y87.889 E.02378
G1 X98.992 Y87.118 E.02566
G1 X99.366 Y86.527 E.02194
M204 S1000
; printing object basement-window-latch-bracket.stl id:0 copy 0
;WIPE_START
G1 F8640
G1 X99.975 Y85.899 E-.20198
G1 X100.939 Y85.353 E-.25588
G1 X101.56 Y85.181 E-.14857
G1 X102.141 Y85.124 E-.13492
G1 X103.045 Y85.124 E-.20865
;WIPE_END
G1 E-.05 F2100
G1 Z.4 F720
G1 X103.866 Y91.131 F10800
G1 Z.2 F720
G1 E1 F2100
M204 S800
;TYPE:Perimeter
;WIDTH:0.419999
G1 F1200
G1 X103.836 Y91.279 E.00472
G1 X103.836 Y118.721 E.86045
G1 X103.913 Y119.096 E.01199
G1 X104.112 Y119.388 E.01108
G1 X104.404 Y119.587 E.01107
G1 X104.778 Y119.664 E.01199
G1 X139.759 Y119.669 E1.09679
G1 X139.825 Y119.698 E.00227
G1 X139.821 Y121.29 E.04991
G1 X139.727 Y121.336 E.00329
G1 X103.305 Y121.336 E1.14198
G1 X102.197 Y121.311 E.03477
G1 X102.164 Y121.192 E.00386
G1 X102.164 Y89.805 E.98412
G1 X102.189 Y88.697 E.03477
G1 X102.308 Y88.664 E.00386
G1 X147.002 Y88.665 E1.40137
G1 X147.796 Y88.682 E.0249
G1 X147.836 Y88.795 E.00375
G1 X147.829 Y90.285 E.04672
G1 X147.779 Y90.331 E.00213
G1 X104.778 Y90.336 E1.34825
G1 X104.404 Y90.413 E.01199
G1 X104.112 Y90.612 E.01107
G1 X103.913 Y90.904 E.01108
G1 X103.879 Y91.072 E.00538
M204 S1000
G1 X104.228 Y91.205 F10800
M204 S800
G1 F1200
G1 X104.213 Y91.279 E.00236
G1 X104.213 Y118.721 E.86045
G1 X104.221 Y118.819 E.00308
M73 Q0 S132
G1 X104.379 Y119.121 E.01068
G1 X104.554 Y119.241 E.00664
G1 X104.778 Y119.287 E.00719
G1 X138.992 Y119.292 E1.07273
G1 X139.877 Y119.308 E.02776
G1 X140.086 Y119.414 E.00735
G1 X140.202 Y119.64 E.00797
G1 X140.177 Y121.417 E.05571
G1 X140.034 Y121.628 E.00797
G1 X139.755 Y121.713 E.00917
G1 X102.325 Y121.713 E1.17357
G1 X102.022 Y121.659 E.00966
G1 X101.84 Y121.471 E.00821
G1 X101.787 Y121.234 E.00761
G1 X101.787 Y88.825 E1.01615
G1 X101.842 Y88.522 E.00966
G1 X102.029 Y88.34 E.0082
G1 X102.266 Y88.287 E.00761
G1 X147.778 Y88.288 E1.42698
G1 X148.035 Y88.384 E.00859
G1 X148.182 Y88.571 E.00746
G1 X148.213 Y88.795 E.0071
G1 X148.183 Y90.437 E.05149
G1 X148.064 Y90.61 E.00659
G1 X147.826 Y90.708 E.00808
G1 X104.778 Y90.713 E1.34971
G1 X104.681 Y90.721 E.00307
M73 P0 R131
G1 X104.379 Y90.879 E.01068
G1 X104.259 Y91.054 E.00665
G1 X104.24 Y91.146 E.00295
M204 S1000
G1 X104.59 Y91.279 F10800
M204 S800
;TYPE:External perimeter
G1 F1200
G1 X104.59 Y118.721 E.86045
G1 X104.645 Y118.855 E.00452
G1 X104.779 Y118.91 E.00452
G1 X139.759 Y118.915 E1.09679
G1 X140.004 Y118.952 E.00775
G1 X140.247 Y119.066 E.00842
G1 X140.444 Y119.267 E.00883
G1 X140.579 Y119.584 E.01081
G1 X140.579 Y121.411 E.05728
G1 X140.474 Y121.704 E.00975
G1 X140.267 Y121.933 E.00969
G1 X140.027 Y122.054 E.00841
G1 X139.782 Y122.09 E.00776
G1 X102.224 Y122.09 E1.1776
G1 X101.781 Y121.961 E.01447
G1 X101.49 Y121.636 E.01369
G1 X101.41 Y121.275 E.01157
G1 X101.41 Y88.724 E1.02061
G1 X101.539 Y88.281 E.01447
G1 X101.864 Y87.99 E.01368
G1 X102.225 Y87.91 E.01157
G1 X147.707 Y87.911 E1.42606
G1 X148.136 Y87.989 E.01368
G1 X148.382 Y88.172 E.00962
G1 X148.541 Y88.437 E.00969
G1 X148.59 Y88.795 E.01133
G1 X148.564 Y90.452 E.05196
G1 X148.431 Y90.771 E.01085
G1 X148.201 Y90.968 E.00951
G1 X147.872 Y91.085 E.01093
G1 X104.779 Y91.09 E1.35117
G1 X104.645 Y91.145 E.00452
G1 X104.613 Y91.223 E.00264
M204 S1000
G1 X104.204 Y91.382 F10800
;WIPE_START
G1 F8640
G1 X104.61 Y95.337 E-.95
;WIPE_END
G1 E-.05 F2100
G1 Z.4 F720
G1 X147.722 Y89.541 F10800
G1 Z.2 F720
G1 E1 F2100
M204 S800
;TYPE:Solid infill
;WIDTH:0.420519
G1 F1200
G1 X147.129 Y88.948 E.02634
G1 X146.595 Y88.948 E.01677
G1 X147.552 Y89.905 E.0425
G1 X147.552 Y90.048 E.00449
G1 X147.161 Y90.048 E.01228
G1 X146.061 Y88.948 E.04885
G1 X145.527 Y88.948 E.01677
G1 X146.627 Y90.048 E.04885
G1 X146.093 Y90.048 E.01676
G1 X144.993 Y88.948 E.04885
G1 X144.459 Y88.948 E.01677
G1 X145.559 Y90.048 E.04886
G1 X145.025 Y90.048 E.01676
G1 X143.925 Y88.948 E.04886
G1 X143.391 Y88.948 E.01677
G1 X144.491 Y90.049 E.04886
G1 X143.957 Y90.049 E.01676
G1 X142.857 Y88.948 E.04887
G1 X142.323 Y88.948 E.01677
G1 X143.423 Y90.049 E.04887
G1 X142.889 Y90.049 E.01676
G1 X141.789 Y88.948 E.04887
G1 X141.255 Y88.948 E.01677
G1 X142.356 Y90.049 E.04888
G1 X141.822 Y90.049 E.01676
G1 X140.721 Y88.948 E.04888
G1 X140.187 Y88.948 E.01677
G1 X141.288 Y90.049 E.04888
G1 X140.754 Y90.049 E.01676
G1 X139.653 Y88.948 E.04889
G1 X139.119 Y88.948 E.01677
G1 X140.22 Y90.049 E.04889
G1 X139.686 Y90.049 E.01676
G1 X138.585 Y88.948 E.04889
G1 X138.051 Y88.948 E.01677
G1 X139.152 Y90.049 E.0489
G1 X138.618 Y90.049 E.01676
G1 X137.517 Y88.948 E.0489
G1 X136.983 Y88.948 E.01677
G1 X138.084 Y90.049 E.0489
G1 X137.55 Y90.049 E.01676
G1 X136.449 Y88.948 E.04891
G1 X135.915 Y88.948 E.01677
G1 X137.016 Y90.049 E.04891
G1 X136.482 Y90.049 E.01676
G1 X135.381 Y88.948 E.04891
G1 X134.847 Y88.948 E.01677
G1 X135.948 Y90.05 E.04892
G1 X135.414 Y90.05 E.01676
G1 X134.312 Y88.948 E.04892
G1 X133.778 Y88.948 E.01677
G1 X134.88 Y90.05 E.04892
G1 X134.346 Y90.05 E.01676
G1 X133.244 Y88.948 E.04893
G1 X132.71 Y88.948 E.01677
G1 X133.812 Y90.05 E.04893
G1 X133.278 Y90.05 E.01676
G1 X132.176 Y88.948 E.04893
G1 X131.642 Y88.948 E.01677
G1 X132.745 Y90.05 E.04894
G1 X132.211 Y90.05 E.01676
G1 X131.108 Y88.948 E.04894
G1 X130.574 Y88.948 E.01677
G1 X131.677 Y90.05 E.04894
G1 X131.143 Y90.05 E.01676
G1 X130.04 Y88.948 E.04895
G1 X129.506 Y88.948 E.01677
G1 X130.609 Y90.05 E.04895
G1 X130.075 Y90.05 E.01676
G1 X128.972 Y88.948 E.04895
G1 X128.438 Y88.948 E.01677
G1 X129.541 Y90.05 E.04896
G1 X129.007 Y90.05 E.01676
G1 X127.904 Y88.948 E.04896
G1 X127.37 Y88.948 E.01677
G1 X128.473 Y90.05 E.04896
G1 X127.939 Y90.05 E.01676
G1 X126.836 Y88.948 E.04897
G1 X126.302 Y88.948 E.01677
G1 X127.405 Y90.05 E.04897
G1 X126.871 Y90.051 E.01676
G1 X125.768 Y88.948 E.04897
G1 X125.234 Y88.948 E.01677
G1 X126.337 Y90.051 E.04898
G1 X125.803 Y90.051 E.01676
G1 X124.7 Y88.948 E.04898
G1 X124.166 Y88.948 E.01677
G1 X125.269 Y90.051 E.04898
G1 X124.735 Y90.051 E.01676
G1 X123.632 Y88.948 E.04899
G1 X123.098 Y88.948 E.01677
G1 X124.201 Y90.051 E.04899
G1 X123.667 Y90.051 E.01676
G1 X122.564 Y88.948 E.04899
G1 X122.03 Y88.948 E.01677
G1 X123.133 Y90.051 E.049
G1 X122.6 Y90.051 E.01676
G1 X121.496 Y88.947 E.049
G1 X120.962 Y88.947 E.01677
G1 X122.066 Y90.051 E.049
G1 X121.532 Y90.051 E.01676
G1 X120.428 Y88.947 E.04901
G1 X119.894 Y88.947 E.01677
G1 X120.998 Y90.051 E.04901
G1 X120.464 Y90.051 E.01676
G1 X119.36 Y88.947 E.04901
G1 X118.826 Y88.947 E.01677
G1 X119.93 Y90.051 E.04902
G1 X119.396 Y90.051 E.01676
G1 X118.292 Y88.947 E.04902
G1 X117.758 Y88.947 E.01677
G1 X118.862 Y90.051 E.04902
G1 X118.328 Y90.052 E.01676
G1 X117.224 Y88.947 E.04903
G1 X116.69 Y88.947 E.01677
G1 X117.794 Y90.052 E.04903
G1 X117.26 Y90.052 E.01676
G1 X116.156 Y88.947 E.04903
G1 X115.622 Y88.947 E.01677
G1 X116.726 Y90.052 E.04904
G1 X116.192 Y90.052 E.01676
G1 X115.088 Y88.947 E.04904
G1 X114.554 Y88.947 E.01677
G1 X115.658 Y90.052 E.04904
G1 X115.124 Y90.052 E.01676
G1 X114.02 Y88.947 E.04905
G1 X113.486 Y88.947 E.01677
G1 X114.59 Y90.052 E.04905
G1 X114.056 Y90.052 E.01676
G1 X112.952 Y88.947 E.04905
G1 X112.418 Y88.947 E.01677
G1 X113.522 Y90.052 E.04906
G1 X112.989 Y90.052 E.01676
G1 X111.884 Y88.947 E.04906
G1 X111.35 Y88.947 E.01677
G1 X112.455 Y90.052 E.04906
G1 X111.921 Y90.052 E.01676
G1 X110.816 Y88.947 E.04907
G1 X110.282 Y88.947 E.01677
G1 X111.387 Y90.052 E.04907
G1 X110.853 Y90.052 E.01676
G1 X109.748 Y88.947 E.04907
G1 X109.214 Y88.947 E.01677
G1 X110.319 Y90.052 E.04908
G1 X109.785 Y90.052 E.01676
G1 X108.68 Y88.947 E.04908
G1 X108.145 Y88.947 E.01677
G1 X109.251 Y90.053 E.04908
G1 X108.717 Y90.053 E.01676
G1 X107.611 Y88.947 E.04909
G1 X107.077 Y88.947 E.01677
G1 X108.183 Y90.053 E.04909
G1 X107.649 Y90.053 E.01676
G1 X106.543 Y88.947 E.04909
G1 X106.009 Y88.947 E.01677
G1 X107.115 Y90.053 E.0491
G1 X106.581 Y90.053 E.01676
G1 X105.475 Y88.947 E.0491
G1 X104.941 Y88.947 E.01677
G1 X106.047 Y90.053 E.0491
G1 X105.513 Y90.053 E.01676
G1 X104.407 Y88.947 E.04911
G1 X103.873 Y88.947 E.01677
G1 X104.979 Y90.053 E.04911
G1 X104.774 Y90.053 E.00644
G1 X104.487 Y90.095 E.00911
G1 X103.339 Y88.947 E.05096
G1 X102.805 Y88.947 E.01677
G1 X104.124 Y90.266 E.05856
G1 X103.911 Y90.411 E.0081
G1 X103.84 Y90.515 E.00397
G1 X102.447 Y89.123 E.06184
G1 X102.447 Y89.657 E.01677
G1 X103.64 Y90.85 E.05297
G1 X103.553 Y91.297 E.0143
G1 X102.447 Y90.191 E.04911
G1 X102.447 Y90.725 E.01677
G1 X103.553 Y91.831 E.04911
G1 X103.553 Y92.365 E.01677
G1 X102.447 Y91.259 E.04911
G1 X102.447 Y91.793 E.01677
G1 X103.553 Y92.899 E.04911
G1 X103.553 Y93.433 E.01677
G1 X102.447 Y92.327 E.04911
G1 X102.447 Y92.861 E.01677
G1 X103.553 Y93.967 E.04911
G1 X103.553 Y94.501 E.01677
G1 X102.447 Y93.395 E.04911
G1 X102.447 Y93.929 E.01677
G1 X103.553 Y95.035 E.04911
G1 X103.553 Y95.569 E.01677
G1 X102.447 Y94.463 E.04911
G1 X102.447 Y94.997 E.01677
G1 X103.553 Y96.103 E.04911
G1 X103.553 Y96.637 E.01677
G1 X102.447 Y95.531 E.04911
G1 X102.447 Y96.065 E.01677
G1 X103.553 Y97.171 E.04911
G1 X103.553 Y97.705 E.01677
G1 X102.447 Y96.599 E.04911
G1 X102.447 Y97.133 E.01677
G1 X103.553 Y98.239 E.04911
G1 X103.553 Y98.773 E.01677
G1 X102.447 Y97.667 E.04911
G1 X102.447 Y98.201 E.01677
G1 X103.553 Y99.307 E.04911
G1 X103.553 Y99.841 E.01677
G1 X102.447 Y98.735 E.04911
G1 X102.447 Y99.269 E.01677
G1 X103.553 Y100.375 E.04911
G1 X103.553 Y100.909 E.01677
G1 X102.447 Y99.803 E.04911
G1 X102.447 Y100.337 E.01677
G1 X103.553 Y101.443 E.04911
G1 X103.553 Y101.977 E.01677
G1 X102.447 Y100.871 E.04911
G1 X102.447 Y101.405 E.01677
G1 X103.553 Y102.511 E.04911
G1 X103.553 Y103.045 E.01677
G1 X102.447 Y101.939 E.04911
G1 X102.447 Y102.473 E.01677
G1 X103.553 Y103.579 E.04911
G1 X103.553 Y104.113 E.01677
G1 X102.447 Y103.007 E.04911
G1 X102.447 Y103.541 E.01677
G1 X103.553 Y104.647 E.04911
G1 X103.553 Y105.181 E.01677
G1 X102.447 Y104.075 E.04911
G1 X102.447 Y104.609 E.01677
G1 X103.553 Y105.715 E.04911
G1 X103.553 Y106.249 E.01677
G1 X102.447 Y105.143 E.04911
G1 X102.447 Y105.677 E.01677
G1 X103.553 Y106.783 E.04911
G1 X103.553 Y107.317 E.01677
G1 X102.447 Y106.211 E.04911
G1 X102.447 Y106.745 E.01677
G1 X103.553 Y107.851 E.04911
G1 X103.553 Y108.385 E.01677
G1 X102.447 Y107.279 E.04911
G1 X102.447 Y107.813 E.01677
G1 X103.553 Y108.919 E.04911
G1 X103.553 Y109.453 E.01677
G1 X102.447 Y108.347 E.04911
G1 X102.447 Y108.881 E.01677
G1 X103.553 Y109.987 E.04911
G1 X103.553 Y110.521 E.01677
G1 X102.447 Y109.415 E.04911
G1 X102.447 Y109.949 E.01677
G1 X103.553 Y111.055 E.04911
G1 X103.553 Y111.589 E.01677
G1 X102.447 Y110.483 E.04911
G1 X102.447 Y111.017 E.01677
G1 X103.553 Y112.123 E.04911
G1 X103.553 Y112.657 E.01677
G1 X102.447 Y111.551 E.04911
G1 X102.447 Y112.085 E.01677
G1 X103.553 Y113.191 E.04911
G1 X103.553 Y113.725 E.01677
G1 X102.447 Y112.619 E.04911
G1 X102.447 Y113.153 E.01677
G1 X103.553 Y114.259 E.04911
G1 X103.553 Y114.793 E.01677
G1 X102.447 Y113.687 E.04911
G1 X102.447 Y114.221 E.01677
G1 X103.553 Y115.327 E.04911
G1 X103.553 Y115.861 E.01677
G1 X102.447 Y114.755 E.04911
G1 X102.447 Y115.289 E.01677
G1 X103.553 Y116.395 E.04911
G1 X103.553 Y116.929 E.01677
G1 X102.447 Y115.823 E.04911
G1 X102.447 Y116.357 E.01677
G1 X103.553 Y117.463 E.04911
G1 X103.553 Y117.997 E.01677
G1 X102.447 Y116.891 E.04911
G1 X102.447 Y117.425 E.01677
G1 X103.723 Y118.701 E.05665
M204 S1000
;WIPE_START
G1 F8640
G1 X102.447 Y117.425 E-.4166
G1 X102.447 Y116.891 E-.1233
G1 X103.553 Y117.997 E-.36119
G1 X103.553 Y117.785 E-.04891
;WIPE_END
G1 E-.05 F2100
G1 Z.4 F720
G1 X138.98 Y119.782 F10800
G1 Z.2 F720
G1 E1 F2100
M204 S800
G1 F1200
G1 X139.542 Y120.344 E.02494
G1 X139.542 Y120.878 E.01677
G1 X138.616 Y119.952 E.04112
G1 X138.082 Y119.952 E.01677
G1 X139.183 Y121.053 E.04891
G1 X138.649 Y121.053 E.01677
G1 X137.548 Y119.952 E.04891
G1 X137.014 Y119.951 E.01677
G1 X138.115 Y121.053 E.04891
G1 X137.581 Y121.053 E.01677
G1 X136.48 Y119.951 E.04892
G1 X135.946 Y119.951 E.01677
G1 X137.047 Y121.053 E.04892
G1 X136.513 Y121.053 E.01677
G1 X135.412 Y119.951 E.04892
G1 X134.877 Y119.951 E.01677
G1 X135.979 Y121.053 E.04893
G1 X135.445 Y121.053 E.01677
G1 X134.343 Y119.951 E.04893
G1 X133.809 Y119.951 E.01677
G1 X134.911 Y121.053 E.04893
G1 X134.377 Y121.053 E.01677
G1 X133.275 Y119.951 E.04894
G1 X132.741 Y119.951 E.01677
G1 X133.843 Y121.053 E.04894
G1 X133.309 Y121.053 E.01677
G1 X132.207 Y119.951 E.04894
G1 X131.673 Y119.951 E.01677
G1 X132.775 Y121.053 E.04895
G1 X132.241 Y121.053 E.01677
G1 X131.139 Y119.951 E.04895
G1 X130.605 Y119.951 E.01677
G1 X131.707 Y121.053 E.04895
G1 X131.173 Y121.053 E.01677
G1 X130.071 Y119.95 E.04896
G1 X129.537 Y119.95 E.01677
G1 X130.639 Y121.053 E.04896
G1 X130.105 Y121.053 E.01677
G1 X129.003 Y119.95 E.04896
G1 X128.468 Y119.95 E.01677
G1 X129.571 Y121.053 E.04897
G1 X129.037 Y121.053 E.01677
G1 X127.934 Y119.95 E.04897
G1 X127.4 Y119.95 E.01677
G1 X128.503 Y121.053 E.04897
G1 X127.969 Y121.053 E.01677
G1 X126.866 Y119.95 E.04898
G1 X126.332 Y119.95 E.01677
G1 X127.435 Y121.053 E.04898
G1 X126.901 Y121.053 E.01677
G1 X125.798 Y119.95 E.04898
G1 X125.264 Y119.95 E.01677
G1 X126.367 Y121.053 E.04899
G1 X125.833 Y121.053 E.01677
G1 X124.73 Y119.95 E.04899
G1 X124.196 Y119.95 E.01677
G1 X125.299 Y121.053 E.04899
G1 X124.765 Y121.053 E.01677
G1 X123.662 Y119.95 E.049
G1 X123.128 Y119.95 E.01677
G1 X124.231 Y121.053 E.049
G1 X123.697 Y121.053 E.01677
G1 X122.594 Y119.949 E.049
G1 X122.06 Y119.949 E.01677
G1 X123.163 Y121.053 E.04901
G1 X122.629 Y121.053 E.01677
G1 X121.525 Y119.949 E.04901
G1 X120.991 Y119.949 E.01677
G1 X122.095 Y121.053 E.04901
G1 X121.561 Y121.053 E.01677
