; generated by PrusaSlicer 2.5.0+win64 on 2022-10-23 at 21:20:57 UTC


;
;
; 

; external perimeters extrusion width = 0.45mm
; perimeters extrusion width = 0.45mm
; infill extrusion width = 0.45mm
; solid infill extrusion width = 0.45mm
; top infill extrusion width = 0.40mm
; support material extrusion width = 0.35mm
; first layer extrusion width = 0.42mm

M73 P0 R143
M73 Q0 S144
M201 X1000 Y1000 Z200 E5000 ; sets maximum accelerations, mm/sec^2
M203 X200 Y200 Z12 E120 ; sets maximum feedrates, mm / sec
M204 P1250 R1250 T1250 ; sets acceleration (P, T) and retract acceleration (R), mm/sec^2
M205 X8.00 Y8.00 Z0.40 E4.50 ; sets the jerk limits, mm/sec
M205 S0 T0 ; sets the minimum extruding and travel feed rate, mm/sec
M107
;TYPE:Custom
M862.3 P "MK3S" ; printer model check
M862.1 P0.4 ; nozzle diameter check
M115 U3.11.0 ; tell printer latest fw version
G90 ; use absolute coordinates
M83 ; extruder relative mode
M104 S240 ; set extruder temp
M140 S85 ; set bed temp
M190 S85 ; wait for bed temp
M109 S240 ; wait for extruder temp
G28 W ; home all without mesh bed level
G80 ; mesh bed leveling

G1 Z0.2 F720
G1 Y-3 F1000 ; go outside print area
G92 E0
G1 X60 E9 F1000 ; intro line
G1 X100 E12.5 F1000 ; intro line

G92 E0
M221 S95

; Don't change E values below. Excessive value can damage the printer.
M907 E430 ; set extruder motor current
G21 ; set units to millimeters
G90 ; use absolute coordinates
M83 ; use relative distances for extrusion
M900 K0.08 ; Filament gcode LA 1.5
M900 K45 ; Filament gcode LA 1.0
M107
;LAYER_CHANGE
;Z:0.2
;HEIGHT:0.2
;BEFORE_LAYER_CHANGE
G92 E0.0
;0.2


G1 E-1 F2100
G1 Z.2 F720
;AFTER_LAYER_CHANGE
;0.2
G1 Z.4
G1 X95.419 Y84.321 F10800
G1 Z.2 F720
G1 E1 F2100
M204 S800
;TYPE:Skirt/Brim
;WIDTH:0.42
G1 F1200
G1 X97.821 Y81.919 E.1065
G1 X99.502 Y81.223 E.05704
G1 X150.498 Y81.223 E1.59896
G1 X152.179 Y81.919 E.05704
G1 X154.581 Y84.321 E.1065
G1 X155.277 Y86.002 E.05704
G1 X155.277 Y92.998 E.21937
G1 X155.202 Y93.592 E.01877
G1 X147.202 Y124.592 E1.00383
G1 X146.581 Y125.679 E.03925
G1 X144.179 Y128.081 E.1065
G1 X142.498 Y128.777 E.05704
G1 X99.502 Y128.777 E1.34813
G1 X97.821 Y128.081 E.05704
G1 X95.419 Y125.679 E.1065
G1 X94.723 Y123.998 E.05704
G1 X94.723 Y86.002 E1.19136
G1 X95.396 Y84.376 E.05516
M204 S1000
;WIPE_START
G1 F8640
G1 X97.821 Y81.919 E-.79709
G1 X98.433 Y81.666 E-.15291
;WIPE_END
G1 E-.05 F2100
G1 Z.4 F720
G1 X97.979 Y85.873 F10800
G1 Z.2 F720
G1 E1 F2100
M204 S800
G1 F1200
G1 X98.317 Y85.4 E.0182
G1 X98.907 Y84.803 E.02634
G1 X99.802 Y84.284 E.03241
G1 X100.853 Y84.018 E.034
G1 X149.142 Y84.021 E1.51409
G1 X150.217 Y84.291 E.03472
G1 X151.158 Y84.85 E.03434
G1 X151.586 Y85.279 E.01899
G1 X151.946 Y85.748 E.01854
G1 X152.458 Y87.176 E.04757
G1 X152.466 Y91.763 E.14383
G1 X152.2 Y92.746 E.03193
G1 X151.68 Y93.607 E.03151
G1 X151.039 Y94.234 E.02814
G1 X150.436 Y94.615 E.02235
G1 X149.53 Y94.923 E.02999
G1 X108.482 Y94.981 E1.28704
G1 X108.482 Y115.02 E.62829
G1 X141.601 Y115.09 E1.03842
G1 X142.526 Y115.433 E.03094
M73 Q0 S143
G1 X143.16 Y115.862 E.02402
G1 X143.715 Y116.438 E.02505
G1 X144.128 Y117.096 E.02436
G1 X144.467 Y118.236 E.0373
G1 X144.433 Y122.967 E.14834
G1 X144.018 Y124.131 E.03875
G1 X143.683 Y124.6 E.01805
G1 X143.093 Y125.197 E.02634
G1 X142.198 Y125.716 E.03241
G1 X141.148 Y125.982 E.03399
G1 X100.839 Y125.982 E1.26383
G1 X99.373 Y125.521 E.04821
G1 X98.9 Y125.183 E.0182
G1 X98.303 Y124.593 E.02634
G1 X97.784 Y123.698 E.03241
G1 X97.518 Y122.648 E.03399
G1 X97.518 Y87.339 E1.10706
G1 X97.961 Y85.93 E.04633
M204 S1000
G1 X98.304 Y86.066 F10800
M204 S800
G1 F1200
G1 X98.596 Y85.654 E.01584
G1 X99.158 Y85.085 E.02506
G1 X99.922 Y84.643 E.02768
G1 X100.877 Y84.395 E.03095
G1 X149.12 Y84.398 E1.51261
G1 X150.05 Y84.63 E.03005
G1 X150.909 Y85.134 E.03124
G1 X151.31 Y85.536 E.01782
G1 X151.628 Y85.954 E.01645
G1 X152.081 Y87.21 E.04186
G1 X152.089 Y91.738 E.14197
G1 X151.844 Y92.619 E.02868
G1 X151.372 Y93.388 E.0283
G1 X150.791 Y93.949 E.02533
G1 X150.293 Y94.265 E.01848
G1 X149.438 Y94.556 E.02831
G1 X108.105 Y94.605 E1.29597
G1 X108.105 Y115.396 E.6519
G1 X141.503 Y115.455 E1.04718
G1 X142.334 Y115.758 E.02774
G1 X142.932 Y116.163 E.02263
G1 X143.429 Y116.684 E.0226
G1 X143.774 Y117.228 E.0202
G1 X144.097 Y118.317 E.0356
G1 X144.067 Y122.873 E.14285
G1 X143.695 Y123.935 E.03531
G1 X143.404 Y124.346 E.01578
G1 X142.842 Y124.915 E.02506
G1 X142.078 Y125.357 E.02768
G1 X141.123 Y125.605 E.03095
G1 X100.868 Y125.605 E1.26216
G1 X99.566 Y125.196 E.04279
G1 X99.154 Y124.904 E.01584
G1 X98.585 Y124.342 E.02506
G1 X98.143 Y123.578 E.02768
G1 X97.895 Y122.623 E.03095
G1 X97.895 Y87.368 E1.10539
G1 X98.286 Y86.124 E.04091
M204 S1000
M73 P0 R142
G1 X98.63 Y86.259 F10800
M204 S800
G1 F1200
G1 X98.876 Y85.908 E.01346
G1 X99.409 Y85.368 E.02376
G1 X100.043 Y85 E.023
G1 X100.902 Y84.772 E.02787
G1 X149.097 Y84.776 E1.51111
G1 X149.884 Y84.97 E.02543
G1 X150.66 Y85.419 E.0281
G1 X151.034 Y85.794 E.01661
G1 X151.311 Y86.159 E.01435
G1 X151.704 Y87.243 E.03618
G1 X151.712 Y91.711 E.14009
G1 X151.489 Y92.488 E.02536
G1 X151.066 Y93.168 E.02509
G1 X150.544 Y93.663 E.02256
G1 X150.15 Y93.916 E.01468
G1 X149.346 Y94.189 E.02662
G1 X107.728 Y94.228 E1.30491
G1 X107.728 Y115.773 E.67553
G1 X141.407 Y115.821 E1.05599
G1 X142.145 Y116.085 E.02456
G1 X142.674 Y116.439 E.01994
G1 X143.145 Y116.932 E.02138
G1 X143.42 Y117.362 E.01602
G1 X143.728 Y118.397 E.03387
G1 X143.7 Y122.78 E.13741
G1 X143.37 Y123.741 E.03187
G1 X143.124 Y124.092 E.01345
G1 X142.591 Y124.632 E.02376
G1 X141.957 Y125 E.023
G1 X141.098 Y125.228 E.02787
G1 X100.897 Y125.228 E1.26048
G1 X99.759 Y124.87 E.03741
G1 X99.408 Y124.624 E.01346
G1 X98.868 Y124.091 E.02376
G1 X98.5 Y123.457 E.023
G1 X98.272 Y122.598 E.02786
G1 X98.272 Y87.397 E1.1037
G1 X98.612 Y86.316 E.03552
M204 S1000
G1 X98.956 Y86.45 F10800
M204 S800
G1 F1200
G1 X99.156 Y86.161 E.01103
G1 X99.659 Y85.651 E.02244
G1 X100.167 Y85.357 E.01839
G1 X100.928 Y85.149 E.02475
G1 X149.075 Y85.153 E1.5096
G1 X149.721 Y85.31 E.02088
G1 X150.411 Y85.704 E.02491
G1 X150.758 Y86.05 E.01537
G1 X150.993 Y86.363 E.01224
G1 X151.327 Y87.277 E.03053
G1 X151.335 Y91.683 E.13816
G1 X151.136 Y92.355 E.02195
G1 X150.761 Y92.944 E.02189
G1 X150.299 Y93.377 E.01985
G1 X150.006 Y93.567 E.01095
G1 X149.254 Y93.822 E.0249
G1 X107.351 Y93.851 E1.31384
G1 X107.351 Y116.149 E.69915
G1 X141.314 Y116.188 E1.06488
G1 X141.956 Y116.412 E.02133
G1 X142.446 Y116.74 E.01848
G1 X142.859 Y117.178 E.01889
G1 X143.068 Y117.499 E.012
G1 X143.351 Y118.425 E.03037
G1 X143.333 Y122.689 E.13371
G1 X143.045 Y123.55 E.02844
G1 X142.844 Y123.839 E.01106
G1 X142.341 Y124.349 E.02244
G1 X141.833 Y124.643 E.01839
G1 X141.072 Y124.851 E.02475
G1 X100.926 Y124.851 E1.25876
G1 X99.95 Y124.544 E.03208
G1 X99.661 Y124.344 E.01103
G1 X99.151 Y123.841 E.02244
G1 X98.857 Y123.333 E.01839
G1 X98.649 Y122.572 E.02475
G1 X98.649 Y87.426 E1.10199
G1 X98.938 Y86.507 E.0302
M204 S1000
G1 X99.283 Y86.639 F10800
M204 S800
G1 F1200
G1 X99.437 Y86.413 E.00857
G1 X99.91 Y85.934 E.02108
G1 X100.292 Y85.713 E.01386
G1 X100.955 Y85.526 E.02159
G1 X149.052 Y85.53 E1.50807
G1 X149.561 Y85.652 E.0164
G1 X150.164 Y85.989 E.02166
G1 X150.481 Y86.307 E.01408
G1 X150.674 Y86.566 E.01012
G1 X150.95 Y87.311 E.02492
G1 X150.957 Y91.654 E.13617
G1 X150.784 Y92.217 E.01845
G1 X150.459 Y92.718 E.01874
G1 X150.076 Y93.073 E.01636
G1 X149.859 Y93.218 E.00817
G1 X149.162 Y93.455 E.0231
G1 X106.974 Y93.474 E1.32278
G1 X106.974 Y116.526 E.72279
G1 X141.222 Y116.554 E1.07384
G1 X141.768 Y116.74 E.01805
G1 X142.217 Y117.041 E.01696
G1 X142.573 Y117.424 E.0164
G1 X142.718 Y117.64 E.00814
G1 X142.974 Y118.454 E.02678
G1 X142.965 Y122.602 E.13003
G1 X142.717 Y123.361 E.02503
G1 X142.563 Y123.587 E.0086
G1 X142.09 Y124.066 E.02108
G1 X141.708 Y124.287 E.01386
G1 X141.045 Y124.474 E.02158
G1 X100.955 Y124.474 E1.25701
G1 X100.139 Y124.217 E.02682
G1 X99.913 Y124.063 E.00857
G1 X99.434 Y123.59 E.02108
G1 X99.213 Y123.208 E.01386
G1 X99.026 Y122.545 E.02158
G1 X99.026 Y87.455 E1.10024
G1 X99.265 Y86.696 E.02494
M204 S1000
G1 X99.612 Y86.825 F10800
M204 S800
G1 F1200
G1 X99.719 Y86.664 E.00606
G1 X100.16 Y86.218 E.01967
G1 X100.42 Y86.069 E.00942
G1 X100.983 Y85.903 E.01838
G1 X149.031 Y85.907 E1.5065
G1 X149.404 Y85.996 E.01202
G1 X149.917 Y86.276 E.01834
G1 X150.204 Y86.563 E.01274
G1 X150.355 Y86.768 E.00799
G1 X150.574 Y87.347 E.0194
G1 X150.589 Y91.571 E.13243
G1 X150.431 Y92.08 E.01671
G1 X150.186 Y92.457 E.01411
G1 X149.832 Y92.785 E.01513
G1 X149.674 Y92.889 E.00592
G1 X149.073 Y93.088 E.01985
G1 X106.597 Y93.097 E1.33181
G1 X106.597 Y116.903 E.74643
M73 Q0 S142
G1 X141.134 Y116.922 E1.0829
M73 P1 R142
M73 Q1 S142
G1 X141.583 Y117.07 E.01482
G1 X141.957 Y117.314 E.014
G1 X142.285 Y117.668 E.01514
G1 X142.388 Y117.825 E.00588
G1 X142.597 Y118.484 E.02167
G1 X142.597 Y122.516 E.12644
G1 X142.388 Y123.175 E.02167
G1 X142.281 Y123.336 E.00606
G1 X141.84 Y123.782 E.01967
G1 X141.58 Y123.931 E.00942
G1 X141.017 Y124.097 E.01838
G1 X100.984 Y124.097 E1.25522
G1 X100.325 Y123.888 E.02167
G1 X100.164 Y123.781 E.00606
G1 X99.718 Y123.34 E.01967
G1 X99.569 Y123.08 E.00942
G1 X99.403 Y122.517 E.01838
G1 X99.403 Y87.484 E1.09845
G1 X99.594 Y86.882 E.01979
M204 S1000
G1 X99.943 Y87.007 F10800
M204 S800
G1 F1200
G1 X100.004 Y86.911 E.00358
G1 X100.375 Y86.528 E.01672
G1 X100.555 Y86.421 E.00656
G1 X101.012 Y86.28 E.015
G1 X149.009 Y86.284 E1.50489
G1 X149.25 Y86.341 E.00777
G1 X149.671 Y86.563 E.01494
G1 X149.926 Y86.819 E.01131
G1 X150.035 Y86.97 E.00584
G1 X150.197 Y87.385 E.01397
G1 X150.22 Y91.487 E.12863
G1 X150.079 Y91.943 E.01495
G1 X149.913 Y92.196 E.00948
G1 X149.588 Y92.496 E.01387
G1 X149.493 Y92.557 E.00355
G1 X148.987 Y92.72 E.01667
G1 X106.22 Y92.72 E1.34093
G1 X106.22 Y117.28 E.77007
G1 X141.045 Y117.29 E1.09192
G1 X141.442 Y117.42 E.01309
G1 X141.696 Y117.587 E.00953
G1 X141.996 Y117.912 E.01387
G1 X142.057 Y118.007 E.00355
G1 X142.22 Y118.513 E.01667
G1 X142.22 Y122.487 E.12458
G1 X142.057 Y122.993 E.01667
M73 P1 R141
G1 X141.996 Y123.089 E.00358
G1 X141.625 Y123.472 E.01672
G1 X141.445 Y123.579 E.00656
G1 X140.988 Y123.72 E.015
G1 X101.013 Y123.72 E1.25336
G1 X100.507 Y123.557 E.01667
G1 X100.411 Y123.496 E.00358
G1 X100.028 Y123.125 E.01672
G1 X99.921 Y122.945 E.00656
G1 X99.78 Y122.488 E.015
G1 X99.78 Y87.513 E1.09659
G1 X99.924 Y87.064 E.01478
M204 S1000
G1 X100.276 Y87.183 F10800
M204 S800
G1 F1200
G1 X100.597 Y86.834 E.01486
G1 X100.698 Y86.771 E.00372
G1 X101.044 Y86.657 E.01143
G1 X148.987 Y86.661 E1.50322
G1 X149.102 Y86.688 E.00369
G1 X149.427 Y86.852 E.01144
G1 X149.647 Y87.073 E.00977
G1 X149.712 Y87.165 E.00352
G1 X149.832 Y87.484 E.01069
G1 X149.843 Y91.456 E.12454
G1 X149.73 Y91.799 E.01133
G1 X149.64 Y91.934 E.00506
G1 X149.317 Y92.224 E.01361
G1 X148.956 Y92.343 E.01193
G1 X105.843 Y92.343 E1.35178
G1 X105.843 Y117.657 E.79372
G1 X140.956 Y117.657 E1.10095
G1 X141.299 Y117.77 E.01134
G1 X141.434 Y117.86 E.00506
G1 X141.724 Y118.183 E.01361
G1 X141.843 Y118.544 E.01193
G1 X141.843 Y122.456 E.12265
G1 X141.706 Y122.847 E.01299
G1 X141.403 Y123.166 E.0138
G1 X141.302 Y123.229 E.00372
G1 X140.956 Y123.343 E.01143
G1 X101.044 Y123.343 E1.2514
G1 X100.653 Y123.206 E.01299
G1 X100.334 Y122.903 E.0138
G1 X100.271 Y122.802 E.00372
G1 X100.157 Y122.456 E.01143
G1 X100.157 Y87.544 E1.09463
G1 X100.258 Y87.24 E.01005
M204 S1000
G1 X100.611 Y87.366 F10800
M204 S800
G1 F1200
G1 X100.828 Y87.132 E.01002
G1 X101.079 Y87.034 E.00845
G1 X148.935 Y87.034 E1.50049
G1 X149.185 Y87.144 E.00856
G1 X149.384 Y87.352 E.00902
G1 X149.466 Y87.579 E.00757
G1 X149.466 Y91.421 E.12045
G1 X149.368 Y91.672 E.00845
G1 X149.134 Y91.889 E.01002
G1 X148.921 Y91.966 E.00709
G1 X105.466 Y91.966 E1.36251
G1 X105.466 Y118.034 E.81737
G1 X140.921 Y118.034 E1.11167
G1 X141.172 Y118.132 E.00845
G1 X141.389 Y118.366 E.01002
G1 X141.466 Y118.579 E.00709
G1 X141.466 Y122.421 E.12045
G1 X141.389 Y122.634 E.00709
G1 X141.172 Y122.868 E.01002
G1 X140.921 Y122.966 E.00845
G1 X101.079 Y122.966 E1.24921
G1 X100.866 Y122.889 E.00709
G1 X100.632 Y122.672 E.01002
G1 X100.534 Y122.421 E.00845
G1 X100.534 Y87.579 E1.09244
G1 X100.59 Y87.423 E.00521
M204 S1000
G1 X100.935 Y87.565 F10800
M204 S800
G1 F1200
G1 X101.052 Y87.44 E.00538
G1 X101.121 Y87.411 E.00235
G1 X148.879 Y87.411 E1.49741
G1 X148.948 Y87.44 E.00235
G1 X149.06 Y87.552 E.00495
G1 X149.089 Y87.621 E.00235
G1 X149.089 Y91.379 E.11782
G1 X149.06 Y91.448 E.00235
G1 X148.948 Y91.56 E.00495
G1 X148.879 Y91.589 E.00235
G1 X105.089 Y91.589 E1.37302
G1 X105.089 Y118.411 E.84101
G1 X140.879 Y118.411 E1.12218
G1 X140.948 Y118.44 E.00235
G1 X141.06 Y118.552 E.00495
G1 X141.089 Y118.621 E.00235
G1 X141.089 Y122.379 E.11782
G1 X141.06 Y122.448 E.00235
G1 X140.948 Y122.56 E.00495
G1 X140.879 Y122.589 E.00235
G1 X101.121 Y122.589 E1.24658
G1 X101.052 Y122.56 E.00235
G1 X100.94 Y122.448 E.00495
G1 X100.911 Y122.379 E.00235
G1 X100.912 Y87.621 E1.08982
M204 S1000
; printing object basement-window-latch-bracket.stl id:0 copy 0
;WIPE_START
G1 F8640
G1 X101.052 Y87.44 E-.05278
G1 X101.121 Y87.411 E-.01732
G1 X104.932 Y87.411 E-.87991
;WIPE_END
G1 E-.05 F2100
G1 Z.4 F720
G1 X121.022 Y113.592 F10800
G1 Z.2 F720
G1 E1 F2100
M204 S800
;TYPE:Support material
G1 F1200
G1 X123.329 Y113.592 E.07234
G1 X123.329 Y114.19 E.01875
G1 X109.31 Y114.19 E.43956
G1 X109.31 Y111.285 E.09109
G1 X121.022 Y111.285 E.36723
G1 X121.022 Y113.535 E.07056
M204 S1000
G1 X120.391 Y114.02 F10800
M204 S800
M73 Q1 S141
G1 F1200
G1 X120.391 Y111.624 E.07513
G1 X119.972 Y111.624 E.01314
G1 X119.972 Y113.851 E.06981
G1 X119.553 Y113.851 E.01314
G1 X119.553 Y111.624 E.06981
G1 X119.134 Y111.624 E.01314
G1 X119.134 Y113.851 E.06981
G1 X118.715 Y113.851 E.01314
G1 X118.715 Y111.624 E.06981
G1 X118.296 Y111.624 E.01314
G1 X118.296 Y113.851 E.06981
G1 X117.877 Y113.851 E.01314
G1 X117.877 Y111.624 E.06981
G1 X117.458 Y111.624 E.01314
G1 X117.458 Y113.851 E.06981
G1 X117.039 Y113.851 E.01314
G1 X117.039 Y111.624 E.06981
G1 X116.62 Y111.624 E.01314
G1 X116.62 Y113.851 E.06981
G1 X116.201 Y113.851 E.01314
G1 X116.201 Y111.624 E.06981
G1 X115.783 Y111.624 E.01314
G1 X115.783 Y113.851 E.06981
G1 X115.364 Y113.851 E.01314
G1 X115.364 Y111.624 E.06981
G1 X114.945 Y111.624 E.01314
G1 X114.945 Y113.851 E.06981
G1 X114.526 Y113.851 E.01314
G1 X114.526 Y111.624 E.06981
G1 X114.107 Y111.624 E.01314
G1 X114.107 Y113.851 E.06981
G1 X113.688 Y113.851 E.01314
G1 X113.688 Y111.624 E.06981
G1 X113.269 Y111.624 E.01314
G1 X113.269 Y113.851 E.06981
G1 X112.85 Y113.851 E.01314
G1 X112.85 Y111.624 E.06981
G1 X112.431 Y111.624 E.01314
G1 X112.431 Y113.851 E.06981
G1 X112.012 Y113.851 E.01314
G1 X112.012 Y111.624 E.06981
G1 X111.593 Y111.624 E.01314
G1 X111.593 Y113.851 E.06981
G1 X111.174 Y113.851 E.01314
G1 X111.174 Y111.624 E.06981
G1 X110.755 Y111.624 E.01314
G1 X110.755 Y113.851 E.06981
G1 X110.336 Y113.851 E.01314
G1 X110.336 Y111.624 E.06981
G1 X109.917 Y111.624 E.01314
G1 X109.917 Y114.02 E.07513
M204 S1000
;WIPE_START
G1 F8640
G1 X109.917 Y111.624 E-.55326
G1 X110.336 Y111.624 E-.09674
G1 X110.336 Y112.923 E-.3
;WIPE_END
G1 E-.05 F2100
G1 Z.4 F720
G1 X104.631 Y119.634 F10800
G1 Z.2 F720
G1 E1 F2100
M204 S800
;TYPE:Perimeter
;WIDTH:0.419999
G1 F1200
G1 X104.779 Y119.664 E.00472
G1 X139.836 Y119.664 E1.0992
G1 X139.836 Y121.336 E.05241
G1 X102.164 Y121.336 E1.18117
G1 X102.164 Y88.664 E1.0244
G1 X147.836 Y88.664 E1.432
G1 X147.836 Y90.336 E.05241
G1 X104.779 Y90.336 E1.35003
G1 X104.404 Y90.413 E.01199
G1 X104.112 Y90.612 E.01108
G1 X103.913 Y90.904 E.01108
G1 X103.836 Y91.279 E.01199
G1 X103.836 Y118.721 E.86045
G1 X103.913 Y119.096 E.01199
G1 X104.112 Y119.388 E.01108
G1 X104.404 Y119.587 E.01108
G1 X104.572 Y119.621 E.00538
M204 S1000
G1 X104.705 Y119.272 F10800
M204 S800
G1 F1200
G1 X104.779 Y119.287 E.00236
G1 X140.213 Y119.287 E1.11102
G1 X140.213 Y121.713 E.07606
M73 P1 R140
G1 X101.787 Y121.713 E1.20481
G1 X101.787 Y88.287 E1.04804
G1 X148.213 Y88.287 E1.45565
G1 X148.213 Y90.713 E.07606
G1 X104.779 Y90.713 E1.36185
G1 X104.681 Y90.721 E.00308
G1 X104.379 Y90.879 E.01068
