; generated by PrusaSlicer 2.5.0+win64 on 2022-10-07 at 17:55:02 UTC


;
;
; 

; external perimeters extrusion width = 0.45mm
; perimeters extrusion width = 0.45mm
; infill extrusion width = 0.45mm
; solid infill extrusion width = 0.45mm
; top infill extrusion width = 0.40mm
; first layer extrusion width = 0.42mm

M73 P0 R13
M73 Q0 S13
M201 X1000 Y1000 Z200 E5000 ; sets maximum accelerations, mm/sec^2
M203 X200 Y200 Z12 E120 ; sets maximum feedrates, mm / sec
M204 P1250 R1250 T1250 ; sets acceleration (P, T) and retract acceleration (R), mm/sec^2
M205 X8.00 Y8.00 Z0.40 E4.50 ; sets the jerk limits, mm/sec
M205 S0 T0 ; sets the minimum extruding and travel feed rate, mm/sec
M107
;TYPE:Custom
M862.3 P "MK3S" ; printer model check
M862.1 P0.4 ; nozzle diameter check
M115 U3.11.0 ; tell printer latest fw version
G90 ; use absolute coordinates
M83 ; extruder relative mode
M104 S215 ; set extruder temp
M140 S60 ; set bed temp
M190 S60 ; wait for bed temp
M109 S215 ; wait for extruder temp
G28 W ; home all without mesh bed level
G80 ; mesh bed leveling

G1 Z0.2 F720
G1 Y-3 F1000 ; go outside print area
G92 E0
G1 X60 E9 F1000 ; intro line
G1 X100 E12.5 F1000 ; intro line

G92 E0
M221 S95

; Don't change E values below. Excessive value can damage the printer.
M907 E430 ; set extruder motor current
G21 ; set units to millimeters
G90 ; use absolute coordinates
M83 ; use relative distances for extrusion
M900 K0.05 ; Filament gcode LA 1.5
M900 K30 ; Filament gcode LA 1.0
M107
;LAYER_CHANGE
;Z:0.2
;HEIGHT:0.2
;BEFORE_LAYER_CHANGE
G92 E0.0
;0.2


G1 E-.8 F2100
G1 Z.4 F720
;AFTER_LAYER_CHANGE
;0.2
G1 X121.582 Y90.091 F10800
G1 Z.2 F720
G1 E.8 F2100
M204 S800
;TYPE:Skirt/Brim
;WIDTH:0.42
G1 F1200
G1 X122.648 Y89.078 E.04612
G1 X123.943 Y88.754 E.04186
G1 X138.943 Y88.754 E.47031
G1 X140.361 Y89.147 E.04612
M73 P1 R13
M73 Q1 S13
G1 X141.374 Y90.213 E.04612
G1 X141.697 Y91.508 E.04186
G1 X141.697 Y115.893 E.76457
G1 X141.305 Y117.31 E.04612
G1 X140.238 Y118.324 E.04612
G1 X138.943 Y118.647 E.04186
G1 X123.943 Y118.647 E.47031
G1 X122.526 Y118.254 E.04612
G1 X121.513 Y117.188 E.04612
G1 X121.189 Y115.893 E.04186
G1 X121.189 Y91.508 E.76457
G1 X121.566 Y90.149 E.04424
M204 S1000
G1 X121.94 Y90.261 F10800
M204 S800
G1 F1200
G1 X121.958 Y90.201 E.00195
G1 X123.003 Y89.325 E.04278
G1 X123.943 Y89.131 E.03008
G1 X138.943 Y89.131 E.47031
G1 X140.25 Y89.523 E.04278
G1 X141.127 Y90.568 E.04278
G1 X141.32 Y91.508 E.03008
G1 X141.32 Y115.893 E.76457
G1 X140.929 Y117.2 E.04278
M73 P1 R12
G1 X139.883 Y118.077 E.04278
G1 X138.943 Y118.27 E.03008
G1 X123.943 Y118.27 E.47031
G1 X122.636 Y117.879 E.04278
G1 X121.76 Y116.833 E.04278
G1 X121.566 Y115.893 E.03008
G1 X121.566 Y91.508 E.76457
G1 X121.923 Y90.318 E.03895
M204 S1000
; printing object kb_replacement_feet-v2.stl id:0 copy 0
;WIPE_START
M73 P2 R12
M73 Q2 S12
G1 F8640
G1 X121.958 Y90.201 E-.0282
G1 X123.003 Y89.325 E-.31505
G1 X123.943 Y89.131 E-.22155
G1 X124.788 Y89.131 E-.1952
;WIPE_END
G1 E-.04 F2100
G1 Z.6 F720
G1 X133.811 Y106.132 F10800
G1 Z.2 F720
G1 E.8 F2100
M204 S800
;TYPE:Perimeter
;WIDTH:0.419999
G1 F1200
G1 X133.779 Y106.287 E.00494
G1 X133.779 Y114.444 E.25577
G1 X129.107 Y114.444 E.14648
G1 X129.107 Y106.287 E.25577
G1 X129.07 Y106.025 E.00829
G1 X128.928 Y105.733 E.01019
G1 X128.773 Y105.567 E.00713
G1 X128.477 Y105.397 E.01069
G1 X128.165 Y105.344 E.00994
G1 X125.722 Y105.344 E.0766
G1 X125.156 Y105.533 E.01869
G1 X125.107 Y105.63 E.00342
G1 X125.107 Y92.672 E.40628
G1 X130.313 Y92.672 E.16323
;WIDTH:0.458562
G1 X130.538 Y92.692 E.0078
;WIDTH:0.497124
G1 X130.763 Y92.711 E.00853
;WIDTH:0.535686
G1 X130.988 Y92.73 E.00925
;WIDTH:0.574248
G1 X131.213 Y92.749 E.00997
;WIDTH:0.597196
G1 X132.056 Y92.761 E.03886
G1 X132.189 Y92.739 E.00622
;WIDTH:0.552897
G1 X132.322 Y92.717 E.00572
;WIDTH:0.508598
G1 X132.455 Y92.694 E.00522
;WIDTH:0.464299
G1 X132.588 Y92.672 E.00472
;WIDTH:0.419999
G1 X137.779 Y92.672 E.16275
G1 X137.779 Y94.478 E.05662
G1 X137.779 Y105.63 E.34966
G1 X137.73 Y105.533 E.00342
G1 X137.165 Y105.344 E.01869
G1 X135.366 Y105.344 E.05639
G1 X134.517 Y105.367 E.02664
G1 X134.303 Y105.442 E.00713
G1 X134.029 Y105.648 E.01073
G1 X133.858 Y105.909 E.00981
G1 X133.823 Y106.074 E.00526
M204 S1000
G1 X134.172 Y106.21 F10800
M204 S800
G1 F1200
G1 X134.156 Y106.287 E.00247
G1 X134.156 Y114.821 E.26759
G1 X128.73 Y114.821 E.17012
G1 X128.722 Y106.191 E.27059
G1 X128.622 Y105.955 E.00804
G1 X128.427 Y105.786 E.00808
G1 X128.165 Y105.721 E.00849
G1 X125.722 Y105.721 E.0766
G1 X125.382 Y105.834 E.01122
;WIDTH:0.444381
G1 X125.144 Y106.287 E.01707
G1 X125.144 Y114.809 E.28448
G1 X124.742 Y114.809 E.0134
G1 X124.73 Y105.508 E.31047
;WIDTH:0.419999
G1 X124.73 Y92.295 E.41428
G1 X138.156 Y92.295 E.42096
M73 Q3 S12
G1 X138.156 Y94.478 E.06844
M73 P3 R12
G1 X138.156 Y105.508 E.34584
;WIDTH:0.444381
G1 X138.144 Y114.809 E.31047
G1 X137.742 Y114.809 E.0134
G1 X137.742 Y106.287 E.28448
G1 X137.504 Y105.834 E.01707
;WIDTH:0.419999
G1 X137.165 Y105.721 E.01122
G1 X134.599 Y105.735 E.08045
G1 X134.376 Y105.839 E.00771
G1 X134.203 Y106.06 E.00881
G1 X134.184 Y106.151 E.0029
M204 S1000
G1 X134.533 Y106.287 F10800
M204 S800
;TYPE:External perimeter
G1 F1200
G1 X134.533 Y115.198 E.27941
G1 X128.353 Y115.198 E.19377
G1 X128.353 Y106.287 E.27941
G1 X128.303 Y106.159 E.0043
G1 X128.165 Y106.098 E.00474
G1 X125.722 Y106.098 E.0766
G1 X125.609 Y106.136 E.00374
G1 X125.533 Y106.287 E.00529
G1 X125.533 Y115.198 E.27941
G1 X124.353 Y115.198 E.037
G1 X124.353 Y91.918 E.72993
G1 X138.533 Y91.918 E.4446
G1 X138.533 Y115.198 E.72993
G1 X137.353 Y115.198 E.037
G1 X137.353 Y106.287 E.27941
G1 X137.278 Y106.136 E.00529
M73 Q4 S12
G1 X137.165 Y106.098 E.00374
G1 X134.74 Y106.098 E.07604
G1 X134.6 Y106.143 E.00459
M73 P4 R12
G1 X134.558 Y106.232 E.0031
M204 S1000
G1 X134.145 Y106.384 F10800
;WIPE_START
G1 F8640
G1 X134.549 Y109.524 E-.76
;WIPE_END
G1 E-.04 F2100
G1 Z.6 F720
G1 X131.813 Y93.291 F10800
G1 Z.2 F720
G1 E.8 F2100
M204 S800
;TYPE:Perimeter
;WIDTH:0.597196
G1 F1200
G1 X131.988 Y93.307 E.00807
G1 X132.111 Y93.361 E.00622
;WIDTH:0.552897
G1 X132.234 Y93.415 E.00572
;WIDTH:0.508598
G1 X132.358 Y93.47 E.00522
;WIDTH:0.464299
G1 X132.481 Y93.524 E.00473
;WIDTH:0.419999
G1 X133.161 Y93.856 E.02373
G1 X133.706 Y94.304 E.02211
G1 X134.184 Y94.938 E.0249
G1 X134.485 Y95.648 E.02417
G1 X134.607 Y96.496 E.02685
G1 X134.607 Y100.522 E.12623
G1 X134.537 Y101.154 E.01994
G1 X134.293 Y101.876 E.02389
G1 X133.883 Y102.518 E.02389
G1 X133.331 Y103.043 E.02389
G1 X132.758 Y103.375 E.02077
G1 X132.457 Y103.502 E.01023
G1 X131.937 Y103.63 E.0168
G1 X131.175 Y103.658 E.02389
G1 X130.429 Y103.502 E.02389
G1 X130.217 Y103.422 E.00713
G1 X129.742 Y103.172 E.0168
G1 X129.167 Y102.7 E.02333
G1 X128.776 Y102.188 E.02019
G1 X128.593 Y101.876 E.01136
G1 X128.403 Y101.374 E.0168
G1 X128.279 Y100.522 E.02702
G1 X128.279 Y96.496 E.12623
G1 X128.348 Y95.867 E.01982
G1 X128.6 Y95.147 E.02392
G1 X128.721 Y94.907 E.00843
G1 X129.143 Y94.341 E.02216
G1 X129.54 Y93.986 E.01669
G1 X130.195 Y93.606 E.02373
;WIDTH:0.463011
G1 X130.45 Y93.511 E.00953
;WIDTH:0.506023
G1 X130.706 Y93.417 E.0105
;WIDTH:0.549035
G1 X130.962 Y93.322 E.01148
;WIDTH:0.574248
G1 X131.21 Y93.281 E.01112
;WIDTH:0.576882
G1 X131.743 Y93.285 E.02362
;WIDTH:0.597196
G1 X131.753 Y93.286 E.0005
M204 S1000
G1 X131.808 Y93.756 F10800
M204 S800
;WIDTH:0.419999
G1 F1200
G1 X132.388 Y93.889 E.01865
G1 X132.984 Y94.189 E.02091
G1 X133.456 Y94.587 E.01936
G1 X133.877 Y95.156 E.02219
G1 X134.132 Y95.781 E.02118
G1 X134.23 Y96.496 E.02262
G1 X134.23 Y100.522 E.12623
G1 X134.163 Y101.108 E.01852
G1 X133.94 Y101.742 E.02105
G1 X133.573 Y102.304 E.02105
G1 X133.081 Y102.761 E.02105
G1 X132.582 Y103.041 E.01793
G1 X132.367 Y103.136 E.00739
G1 X131.846 Y103.264 E.0168
G1 X131.175 Y103.281 E.02105
G1 X130.519 Y103.136 E.02105
G1 X130.392 Y103.088 E.00428
G1 X129.917 Y102.839 E.0168
G1 X129.417 Y102.418 E.02049
G1 X129.086 Y101.974 E.01735
G1 X128.946 Y101.742 E.00851
G1 X128.756 Y101.241 E.0168
G1 X128.656 Y100.522 E.02277
G1 X128.656 Y96.496 E.12623
G1 X128.722 Y95.912 E.0184
G1 X128.95 Y95.286 E.02091
G1 X129.307 Y94.722 E.02092
G1 X129.791 Y94.267 E.02084
G1 X130.372 Y93.938 E.02091
G1 X131.067 Y93.751 E.02256
G1 X131.75 Y93.743 E.02142
M204 S1000
G1 X131.831 Y94.141 F10800
M204 S800
;TYPE:External perimeter
G1 F1200
G1 X132.295 Y94.255 E.01497
G1 X132.806 Y94.522 E.01809
G1 X133.206 Y94.869 E.0166
G1 X133.569 Y95.373 E.01948
G1 X133.779 Y95.914 E.01819
G1 X133.853 Y96.496 E.01839
G1 X133.853 Y100.522 E.12623
G1 X133.789 Y101.063 E.01709
G1 X133.588 Y101.608 E.01822
G1 X133.262 Y102.089 E.01822
G1 X132.831 Y102.479 E.01822
G1 X132.319 Y102.754 E.01822
G1 X131.756 Y102.898 E.01822
G1 X131.175 Y102.904 E.01822
G1 X130.567 Y102.754 E.01963
G1 X130.093 Y102.505 E.0168
G1 X129.667 Y102.135 E.01766
G1 X129.319 Y101.648 E.01877
G1 X129.108 Y101.107 E.01822
G1 X129.033 Y100.522 E.01851
G1 X129.033 Y96.496 E.12623
G1 X129.097 Y95.958 E.01699
G1 X129.301 Y95.424 E.01791
G1 X129.617 Y94.936 E.01824
G1 X130.043 Y94.548 E.01807
G1 X130.55 Y94.271 E.0181
G1 X131.156 Y94.117 E.01961
G1 X131.773 Y94.127 E.01934
M204 S1000
G1 X132.073 Y93.823 F10800
;WIPE_START
G1 F8640
G1 X132.295 Y94.255 E-.12411
G1 X132.806 Y94.522 E-.13322
G1 X133.206 Y94.869 E-.12224
G1 X133.569 Y95.373 E-.14347
G1 X133.779 Y95.914 E-.13395
G1 X133.835 Y96.357 E-.10301
;WIPE_END
G1 E-.04 F2100
G1 Z.6 F720
G1 X130.494 Y92.824 F10800
G1 Z.2 F720
G1 E.8 F2100
M204 S800
;TYPE:Solid infill
;WIDTH:0.422564
G1 F1200
G1 X130.721 Y93.051 E.01014
G1 X130.367 Y93.234 E.01258
G1 X130.088 Y92.955 E.01245
G1 X129.551 Y92.955 E.01695
G1 X129.99 Y93.394 E.0196
G1 X129.64 Y93.581 E.01253
G1 X129.014 Y92.955 E.02794
G1 X128.477 Y92.955 E.01695
G1 X129.323 Y93.8 E.03774
G1 X129.04 Y94.054 E.012
G1 X127.941 Y92.955 E.04906
G1 X127.404 Y92.955 E.01695
G1 X128.778 Y94.33 E.06136
G1 X128.557 Y94.646 E.01217
G1 X126.867 Y92.955 E.07548
G1 X126.33 Y92.955 E.01695
G1 X128.36 Y94.985 E.09062
G1 X128.208 Y95.37 E.01306
G1 X125.793 Y92.955 E.10779
G1 X125.39 Y92.955 E.01272
G1 X125.39 Y93.089 E.00423
G1 X128.08 Y95.779 E.1201
G1 X128.021 Y96.257 E.01521
G1 X125.39 Y93.626 E.11747
G1 X125.39 Y94.163 E.01695
G1 X127.997 Y96.77 E.11637
G1 X127.998 Y97.308 E.01698
G1 X125.39 Y94.7 E.11642
G1 X125.39 Y95.237 E.01695
G1 X127.999 Y97.845 E.11646
G1 X128 Y98.383 E.01698
G1 X125.39 Y95.774 E.11651
G1 X125.39 Y96.311 E.01695
G1 X128.001 Y98.921 E.11656
G1 X128.002 Y99.459 E.01698
M73 Q5 S12
G1 X125.39 Y96.847 E.11661
G1 X125.39 Y97.384 E.01695
M73 P5 R12
G1 X128.003 Y99.997 E.11665
G1 X128.004 Y100.535 E.01698
G1 X125.39 Y97.921 E.1167
G1 X125.39 Y98.458 E.01695
G1 X128.279 Y101.347 E.12898
M204 S1000
;WIPE_START
G1 F8640
G1 X125.952 Y99.02 E-.76
;WIPE_END
G1 E-.04 F2100
G1 Z.6 F720
G1 X137.666 Y93.553 F10800
G1 Z.2 F720
G1 E.8 F2100
M204 S800
G1 F1200
G1 X137.068 Y92.955 E.0267
G1 X136.531 Y92.955 E.01695
G1 X137.496 Y93.92 E.04309
G1 X137.496 Y94.457 E.01695
G1 X135.994 Y92.955 E.06706
G1 X135.457 Y92.955 E.01695
G1 X137.496 Y94.994 E.09103
G1 X137.496 Y95.531 E.01695
G1 X134.92 Y92.955 E.115
G1 X134.383 Y92.955 E.01695
G1 X137.496 Y96.068 E.13897
G1 X137.496 Y96.605 E.01695
G1 X133.846 Y92.955 E.16294
G1 X133.31 Y92.955 E.01695
G1 X137.496 Y97.142 E.1869
G1 X137.496 Y97.679 E.01695
G1 X132.773 Y92.955 E.21087
G1 X132.604 Y92.955 E.00534
G1 X132.328 Y93.047 E.00918
G1 X132.478 Y93.197 E.00669
G1 X132.571 Y93.257 E.0035
G1 X132.82 Y93.354 E.00843
G1 X133.299 Y93.609 E.01715
G1 X133.526 Y93.767 E.00871
G1 X133.898 Y94.096 E.01567
G1 X134.078 Y94.298 E.00856
G1 X134.419 Y94.779 E.0186
G1 X134.554 Y95.03 E.00898
G1 X134.701 Y95.42 E.01317
G1 X137.496 Y98.216 E.12479
G1 X137.496 Y98.752 E.01695
G1 X134.848 Y96.105 E.11821
G1 X134.89 Y96.491 E.01226
G1 X134.89 Y96.683 E.00608
G1 X137.496 Y99.289 E.11634
G1 X137.496 Y99.826 E.01695
G1 X134.89 Y97.22 E.11634
G1 X134.89 Y97.757 E.01695
G1 X137.496 Y100.363 E.11634
G1 X137.496 Y100.9 E.01695
G1 X134.89 Y98.294 E.11634
G1 X134.89 Y98.831 E.01695
G1 X137.496 Y101.437 E.11634
G1 X137.496 Y101.974 E.01695
G1 X134.89 Y99.368 E.11634
G1 X134.89 Y99.905 E.01695
G1 X137.496 Y102.511 E.11634
G1 X137.496 Y103.048 E.01695
G1 X134.89 Y100.442 E.11634
G1 X134.845 Y100.933 E.01558
G1 X137.496 Y103.585 E.11838
G1 X137.496 Y104.121 E.01695
G1 X134.77 Y101.395 E.12171
G1 X134.628 Y101.79 E.01325
G1 X137.496 Y104.658 E.12805
G1 X137.496 Y105.167 E.01605
G1 X137.453 Y105.152 E.00143
G1 X134.461 Y102.16 E.13357
G1 X134.249 Y102.485 E.01224
G1 X136.825 Y105.061 E.11501
G1 X136.288 Y105.061 E.01695
G1 X134.018 Y102.79 E.10138
G1 X133.743 Y103.053 E.01199
G1 X135.751 Y105.061 E.08967
G1 X135.215 Y105.061 E.01695
G1 X133.455 Y103.302 E.07855
G1 X133.117 Y103.501 E.01238
G1 X134.682 Y105.065 E.06983
G1 X134.455 Y105.09 E.0072
G1 X134.244 Y105.164 E.00706
G1 X132.766 Y103.686 E.066
G1 X132.36 Y103.817 E.01346
G1 X133.912 Y105.37 E.0693
G1 X133.73 Y105.566 E.00847
M73 Q6 S12
G1 X133.672 Y105.666 E.00365
G1 X131.921 Y103.916 E.07816
G1 X131.716 Y103.941 E.00652
G1 X131.406 Y103.937 E.00979
G1 X133.521 Y106.052 E.09442
M73 P6 R12
G1 X133.496 Y106.283 E.00731
G1 X133.496 Y106.564 E.00889
G1 X130.587 Y103.655 E.12989
M204 S1000
;WIPE_START
G1 F8640
G1 X132.914 Y105.982 E-.76
;WIPE_END
G1 E-.04 F2100
G1 Z.6 F720
G1 X133.666 Y107.271 F10800
G1 Z.2 F720
G1 E.8 F2100
M204 S800
G1 F1200
G1 X130.047 Y103.652 E.16157
G1 X129.606 Y103.42 E.01573
G1 X129.372 Y103.259 E.00897
G1 X128.962 Y102.896 E.01728
G1 X128.774 Y102.683 E.00897
G1 X128.463 Y102.233 E.01728
G1 X128.303 Y101.908 E.01143
G1 X125.39 Y98.995 E.13005
G1 X125.39 Y99.532 E.01695
G1 X133.496 Y107.638 E.36188
G1 X133.496 Y108.175 E.01695
G1 X125.39 Y100.069 E.36188
G1 X125.39 Y100.606 E.01695
G1 X133.496 Y108.712 E.36188
G1 X133.496 Y109.249 E.01695
G1 X125.39 Y101.143 E.36188
G1 X125.39 Y101.679 E.01695
G1 X133.496 Y109.786 E.36188
G1 X133.496 Y110.322 E.01695
G1 X129.384 Y106.21 E.18358
G1 X129.373 Y106.078 E.0042
G1 X129.288 Y105.797 E.00926
G1 X129.157 Y105.566 E.00838
G1 X128.956 Y105.35 E.00931
G1 X128.71 Y105.188 E.0093
G1 X128.431 Y105.09 E.00931
G1 X128.243 Y105.069 E.00598
G1 X125.39 Y102.216 E.12736
G1 X125.39 Y102.753 E.01695
G1 X127.698 Y105.061 E.10303
G1 X127.161 Y105.061 E.01695
G1 X125.39 Y103.29 E.07906
G1 X125.39 Y103.827 E.01695
G1 X126.624 Y105.061 E.0551
G1 X126.087 Y105.061 E.01695
G1 X125.39 Y104.364 E.03113
G1 X125.39 Y104.901 E.01695
G1 X125.724 Y105.234 E.01489
M204 S1000
;WIPE_START
G1 F8640
G1 X125.39 Y104.901 E-.1089
G1 X125.39 Y104.364 E-.12397
G1 X126.087 Y105.061 E-.22768
G1 X126.624 Y105.061 E-.12397
G1 X126.087 Y104.524 E-.17548
;WIPE_END
G1 E-.04 F2100
G1 Z.6 F720
G1 X129.22 Y106.584 F10800
G1 Z.2 F720
G1 E.8 F2100
M204 S800
G1 F1200
G1 X133.496 Y110.859 E.19088
G1 X133.496 Y111.396 E.01695
G1 X129.39 Y107.29 E.18331
G1 X129.39 Y107.827 E.01695
G1 X133.496 Y111.933 E.18331
G1 X133.496 Y112.47 E.01695
G1 X129.39 Y108.364 E.18331
G1 X129.39 Y108.901 E.01695
G1 X133.496 Y113.007 E.18331
G1 X133.496 Y113.544 E.01695
M73 Q7 S12
G1 X129.39 Y109.438 E.18331
G1 X129.39 Y109.975 E.01695
M73 P7 R12
G1 X133.496 Y114.081 E.18331
G1 X133.496 Y114.161 E.00254
G1 X133.04 Y114.161 E.01441
G1 X129.39 Y110.512 E.16293
G1 X129.39 Y111.048 E.01695
G1 X132.503 Y114.161 E.13896
G1 X131.966 Y114.161 E.01695
G1 X129.39 Y111.585 E.11499
G1 X129.39 Y112.122 E.01695
G1 X131.429 Y114.161 E.09103
G1 X130.892 Y114.161 E.01695
G1 X129.39 Y112.659 E.06706
G1 X129.39 Y113.196 E.01695
G1 X130.355 Y114.161 E.04309
G1 X129.818 Y114.161 E.01695
G1 X129.22 Y113.563 E.02669
M204 S1000
; stop printing object kb_replacement_feet-v2.stl id:0 copy 0
M106 S84.15
;LAYER_CHANGE
;Z:0.323264
;HEIGHT:0.123264
;BEFORE_LAYER_CHANGE
G92 E0.0
;0.323264


;WIPE_START
G1 F8640
G1 X129.818 Y114.161 E-.19526
G1 X130.355 Y114.161 E-.12397
G1 X129.39 Y113.196 E-.31517
G1 X129.39 Y112.659 E-.12397
G1 X129.395 Y112.664 E-.00163
;WIPE_END
G1 E-.04 F2100
G1 Z.6 F720
;AFTER_LAYER_CHANGE
;0.323264
G1 X129.395 Y118.647 F10800
G1 Z.323 F720
G1 E.8 F2100
;TYPE:Skirt/Brim
;WIDTH:0.42
G1 F3000
