; generated by PrusaSlicer 2.5.0+win64 on 2022-10-06 at 17:49:56 UTC


;
;
; 

; external perimeters extrusion width = 0.45mm
; perimeters extrusion width = 0.45mm
; infill extrusion width = 0.45mm
; solid infill extrusion width = 0.45mm
; top infill extrusion width = 0.40mm
; first layer extrusion width = 0.42mm

M73 P0 R74
M73 Q0 S74
M201 X1000 Y1000 Z200 E5000 ; sets maximum accelerations, mm/sec^2
M203 X200 Y200 Z12 E120 ; sets maximum feedrates, mm / sec
M204 P1250 R1250 T1250 ; sets acceleration (P, T) and retract acceleration (R), mm/sec^2
M205 X8.00 Y8.00 Z0.40 E4.50 ; sets the jerk limits, mm/sec
M205 S0 T0 ; sets the minimum extruding and travel feed rate, mm/sec
M107
;TYPE:Custom
M862.3 P "MK3S" ; printer model check
M862.1 P0.4 ; nozzle diameter check
M115 U3.11.0 ; tell printer latest fw version
G90 ; use absolute coordinates
M83 ; extruder relative mode
M104 S215 ; set extruder temp
M140 S60 ; set bed temp
M190 S60 ; wait for bed temp
M109 S215 ; wait for extruder temp
G28 W ; home all without mesh bed level
G80 ; mesh bed leveling

G1 Z0.2 F720
G1 Y-3 F1000 ; go outside print area
G92 E0
G1 X60 E9 F1000 ; intro line
G1 X100 E12.5 F1000 ; intro line

G92 E0
M221 S95

; Don't change E values below. Excessive value can damage the printer.
M907 E430 ; set extruder motor current
G21 ; set units to millimeters
G90 ; use absolute coordinates
M83 ; use relative distances for extrusion
M900 K0.05 ; Filament gcode LA 1.5
M900 K30 ; Filament gcode LA 1.0
M107
;LAYER_CHANGE
;Z:0.2
;HEIGHT:0.2
;BEFORE_LAYER_CHANGE
G92 E0.0
;0.2


G1 E-.8 F2100
M73 P0 R73
G1 Z.4 F720
;AFTER_LAYER_CHANGE
;0.2
G1 X101.199 Y98.635 F10800
G1 Z.2 F720
G1 E.8 F2100
M204 S800
;TYPE:Skirt/Brim
;WIDTH:0.42
G1 F1200
G1 X102.15 Y97.687 E.04209
G1 X129.15 Y81.58 E.98575
G1 X130.561 Y81.192 E.04589
G1 X134.628 Y81.192 E.12754
G1 X136.202 Y81.347 E.04958
G1 X137.569 Y81.725 E.04446
G1 X138.747 Y82.258 E.04053
G1 X140.061 Y83.136 E.04958
G1 X141.001 Y84.017 E.04036
G1 X141.874 Y85.135 E.04449
G1 X142.503 Y86.264 E.04052
G1 X143.035 Y87.753 E.04959
G1 X143.229 Y88.725 E.03108
G1 X143.314 Y89.878 E.03624
G1 X143.313 Y106.753 E.52909
G1 X143.191 Y107.574 E.02605
G1 X142.944 Y108.226 E.02185
G1 X142.551 Y108.847 E.02306
G1 X142.067 Y109.35 E.02185
G1 X141.53 Y109.728 E.02062
G1 X141.022 Y109.969 E.01762
G1 X140.389 Y110.144 E.02059
G1 X139.829 Y110.199 E.01763
G1 X104.361 Y110.2 E1.11208
G1 X103.601 Y110.118 E.02395
G1 X102.904 Y109.888 E.02301
G1 X102.191 Y109.46 E.02608
G1 X101.657 Y108.952 E.0231
G1 X101.052 Y107.943 E.03689
G1 X100.818 Y106.927 E.03269
G1 X100.807 Y100.052 E.21557
G1 X101.183 Y98.692 E.04424
M204 S1000
G1 X101.557 Y98.804 F10800
M204 S800
G1 F1200
G1 X101.575 Y98.745 E.00195
G1 X102.343 Y98.01 E.03331
G1 X129.343 Y81.904 E.98575
G1 X130.561 Y81.569 E.03961
G1 X134.619 Y81.569 E.12725
G1 X136.138 Y81.719 E.04785
G1 X137.433 Y82.077 E.04215
G1 X138.561 Y82.586 E.03878
G1 X139.829 Y83.434 E.04784
G1 X140.728 Y84.277 E.03863
G1 X141.555 Y85.337 E.04217
G1 X142.158 Y86.417 E.03878
G1 X142.672 Y87.854 E.04785
G1 X142.855 Y88.772 E.02934
G1 X142.937 Y89.887 E.03508
G1 X142.936 Y106.743 E.52851
G1 X142.828 Y107.474 E.02316
G1 X142.607 Y108.057 E.01954
G1 X142.253 Y108.616 E.02074
G1 X141.821 Y109.064 E.01954
G1 X140.886 Y109.617 E.03406
G1 X139.82 Y109.822 E.03404
G1 X104.361 Y109.823 E1.11179
G1 X103.684 Y109.75 E.02135
M73 Q0 S73
G1 X103.057 Y109.543 E.0207
G1 X102.423 Y109.163 E.02318
G1 X101.943 Y108.706 E.02078
G1 X101.404 Y107.807 E.03285
G1 X101.194 Y106.899 E.02922
G1 X101.184 Y100.052 E.2147
G1 X101.54 Y98.862 E.03895
M204 S1000
; printing object webcam-raiser_v2.stl id:0 copy 0
;WIPE_START
G1 F8640
G1 X101.575 Y98.745 E-.0282
G1 X102.343 Y98.01 E-.24532
G1 X104.152 Y96.931 E-.48648
;WIPE_END
G1 E-.04 F2100
G1 Z.6 F720
G1 X131.725 Y85.112 F10800
G1 Z.2 F720
G1 E.8 F2100
M204 S800
;TYPE:Perimeter
;WIDTH:0.419999
G1 F1200
G1 X134.785 Y85.117 E.09595
G1 X135.32 Y85.183 E.01689
G1 X135.953 Y85.316 E.02027
G1 X136.439 Y85.504 E.01636
G1 X136.894 Y85.718 E.01575
G1 X137.431 Y86.056 E.01989
G1 X137.979 Y86.528 E.02268
G1 X138.443 Y87.067 E.02229
G1 X138.709 Y87.487 E.01559
G1 X139.022 Y88.085 E.02117
G1 X139.249 Y88.772 E.02268
G1 X139.373 Y89.483 E.02265
G1 X139.397 Y90.066 E.01828
G1 X139.397 Y106.282 E.50843
G1 X104.725 Y106.282 E1.0871
G1 X104.725 Y102.527 E.11773
G1 X106.037 Y102.527 E.04112
G1 X106.069 Y102.57 E.00172
G1 X106.34 Y102.61 E.00857
G1 X124.866 Y102.603 E.58088
G1 X126.026 Y102.456 E.03664
G1 X127.018 Y102.175 E.03233
G1 X127.685 Y101.89 E.02275
G1 X128.597 Y101.362 E.03304
G1 X129.406 Y100.722 E.03233
G1 X129.899 Y100.222 E.02204
G1 X130.342 Y99.676 E.02204
G1 X130.729 Y99.089 E.02204
G1 X131.056 Y98.467 E.02204
G1 X131.321 Y97.815 E.02204
G1 X131.52 Y97.141 E.02204
G1 X131.655 Y96.428 E.02275
G1 X131.725 Y95.449 E.0308
G1 X131.725 Y85.172 E.32223
M204 S1000
G1 X131.348 Y84.734 F10800
M204 S800
G1 F1200
G1 X134.809 Y84.74 E.10851
G1 X135.366 Y84.809 E.01761
G1 X136.067 Y84.956 E.02245
G1 X136.795 Y85.237 E.02449
G1 X137.24 Y85.475 E.01582
G1 X137.66 Y85.755 E.01581
G1 X138.246 Y86.261 E.02428
G1 X138.747 Y86.842 E.02404
G1 X139.028 Y87.285 E.01646
G1 X139.373 Y87.945 E.02334
G1 X139.616 Y88.68 E.02428
G1 X139.748 Y89.442 E.02425
G1 X139.774 Y90.066 E.01958
G1 X139.774 Y106.57 E.51749
G1 X139.766 Y106.615 E.00142
G1 X139.716 Y106.659 E.00209
G1 X104.436 Y106.659 E1.10616
G1 X104.392 Y106.651 E.00141
G1 X104.348 Y106.6 E.0021
G1 X104.348 Y102.15 E.13955
G1 X106.133 Y102.149 E.05597
G1 X106.177 Y102.209 E.00233
G1 X106.34 Y102.233 E.00514
G1 X124.935 Y102.221 E.58305
G1 X125.925 Y102.093 E.0313
G1 X126.873 Y101.826 E.03088
G1 X127.499 Y101.562 E.02131
G1 X128.365 Y101.065 E.0313
G1 X129.139 Y100.456 E.03088
G1 X129.608 Y99.983 E.02088
G1 X130.028 Y99.466 E.02088
G1 X130.396 Y98.911 E.02088
G1 X130.708 Y98.322 E.02088
G1 X130.96 Y97.706 E.02088
G1 X131.151 Y97.068 E.02088
G1 X131.279 Y96.401 E.0213
G1 X131.348 Y95.449 E.02992
G1 X131.348 Y84.794 E.33408
M204 S1000
G1 X130.971 Y84.356 F10800
M204 S800
;TYPE:External perimeter
G1 F1200
G1 X134.832 Y84.363 E.12107
G1 X135.654 Y84.464 E.02595
G1 X136.181 Y84.596 E.01704
G1 X136.953 Y84.894 E.02594
G1 X137.434 Y85.151 E.01713
G1 X137.888 Y85.455 E.01712
G1 X138.513 Y85.994 E.02588
G1 X139.05 Y86.616 E.02578
G1 X139.491 Y87.313 E.02585
G1 X139.724 Y87.804 E.01704
G1 X139.983 Y88.588 E.02588
G1 X140.124 Y89.4 E.02585
G1 X140.151 Y90.066 E.02089
G1 X140.151 Y106.57 E.51749
G1 X140.109 Y106.808 E.00757
G1 X139.985 Y106.959 E.00613
G1 X139.743 Y107.036 E.00796
G1 X104.436 Y107.036 E1.10703
G1 X104.198 Y106.994 E.00756
G1 X104.047 Y106.87 E.00613
G1 X103.971 Y106.628 E.00796
G1 X103.971 Y101.773 E.15223
G1 X106.229 Y101.772 E.07081
G1 X106.285 Y101.848 E.00295
G1 X106.339 Y101.856 E.00171
G1 X124.889 Y101.847 E.5816
G1 X125.825 Y101.73 E.02957
G1 X126.729 Y101.478 E.02943
G1 X127.314 Y101.234 E.01986
G1 X128.133 Y100.768 E.02957
G1 X128.872 Y100.189 E.02943
G1 X129.316 Y99.744 E.01972
G1 X129.715 Y99.257 E.01972
G1 X130.063 Y98.733 E.01972
G1 X130.359 Y98.178 E.01972
G1 X130.599 Y97.596 E.01972
G1 X130.781 Y96.994 E.01972
G1 X130.903 Y96.373 E.01986
G1 X130.971 Y95.449 E.02905
G1 X130.971 Y84.416 E.34592
M204 S1000
G1 X131.317 Y84.557 F10800
;WIPE_START
G1 F8640
G1 X134.262 Y84.371 E-.76
;WIPE_END
G1 E-.04 F2100
G1 Z.6 F720
G1 X138.645 Y87.597 F10800
G1 Z.2 F720
G1 E.8 F2100
M204 S800
;TYPE:Solid infill
;WIDTH:0.423059
G1 F1200
G1 X137.767 Y86.719 E.03925
G1 X137.259 Y86.281 E.02119
G1 X136.901 Y86.042 E.01363
G1 X136.52 Y85.838 E.01364
G1 X136.241 Y85.731 E.00947
G1 X138.788 Y88.278 E.11388
G1 X138.974 Y88.841 E.01872
G1 X139.008 Y89.036 E.00625
G1 X135.457 Y85.485 E.15873
G1 X134.844 Y85.409 E.01953
G1 X139.098 Y89.664 E.19018
G1 X139.114 Y90.217 E.01749
G1 X134.296 Y85.399 E.21536
G1 X133.758 Y85.398 E.01702
G1 X139.114 Y90.754 E.23943
G1 X139.114 Y91.292 E.01699
G1 X133.219 Y85.397 E.26351
G1 X132.681 Y85.396 E.01702
G1 X139.114 Y91.829 E.28758
G1 X139.114 Y92.367 E.01699
G1 X132.142 Y85.395 E.31165
G1 X132.008 Y85.395 E.00424
G1 X132.008 Y85.798 E.01276
G1 X139.114 Y92.905 E.31765
G1 X139.114 Y93.442 E.01699
G1 X132.008 Y86.336 E.31765
G1 X132.008 Y86.874 E.01699
G1 X139.114 Y93.98 E.31765
G1 X139.114 Y94.517 E.01699
G1 X132.008 Y87.411 E.31765
G1 X132.008 Y87.949 E.01699
G1 X139.114 Y95.055 E.31765
G1 X139.114 Y95.593 E.01699
G1 X132.008 Y88.486 E.31765
G1 X132.008 Y89.024 E.01699
G1 X139.114 Y96.13 E.31765
G1 X139.114 Y96.668 E.01699
G1 X132.008 Y89.562 E.31765
M73 Q1 S73
G1 X132.008 Y90.099 E.01699
M73 P1 R73
G1 X139.114 Y97.205 E.31765
G1 X139.114 Y97.743 E.01699
G1 X132.008 Y90.637 E.31765
G1 X132.008 Y91.174 E.01699
G1 X139.114 Y98.281 E.31765
G1 X139.114 Y98.818 E.01699
G1 X132.008 Y91.712 E.31765
G1 X132.008 Y92.25 E.01699
G1 X139.114 Y99.356 E.31765
G1 X139.114 Y99.893 E.01699
G1 X132.008 Y92.787 E.31765
G1 X132.008 Y93.325 E.01699
G1 X139.114 Y100.431 E.31765
G1 X139.114 Y100.969 E.01699
G1 X132.008 Y93.862 E.31765
G1 X132.008 Y94.4 E.01699
G1 X139.114 Y101.506 E.31765
G1 X139.114 Y102.044 E.01699
G1 X132.008 Y94.938 E.31765
G1 X132.006 Y95.474 E.01694
G1 X139.114 Y102.581 E.31773
G1 X139.114 Y103.119 E.01699
G1 X131.967 Y95.972 E.31948
G1 X131.928 Y96.47 E.0158
G1 X139.114 Y103.657 E.32123
G1 X139.114 Y104.194 E.01699
G1 X131.849 Y96.929 E.32477
G1 X131.751 Y97.369 E.01425
G1 X139.114 Y104.732 E.32912
G1 X139.114 Y105.269 E.01699
G1 X131.623 Y97.779 E.33483
G1 X131.482 Y98.175 E.01329
G1 X139.114 Y105.807 E.34117
G1 X139.114 Y105.999 E.00607
G1 X138.768 Y105.999 E.01093
G1 X131.322 Y98.552 E.33287
G1 X131.143 Y98.911 E.01267
G1 X138.231 Y105.999 E.31682
G1 X137.693 Y105.999 E.01699
G1 X130.955 Y99.261 E.30119
G1 X130.74 Y99.583 E.01225
G1 X137.155 Y105.999 E.28678
G1 X136.618 Y105.999 E.01699
G1 X130.523 Y99.904 E.27245
G1 X130.28 Y100.199 E.01207
G1 X136.08 Y105.999 E.25925
G1 X135.543 Y105.999 E.01699
G1 X130.036 Y100.492 E.24616
G1 X129.764 Y100.758 E.01202
G1 X135.005 Y105.999 E.23429
G1 X134.467 Y105.999 E.01699
G1 X129.491 Y101.023 E.22243
G1 X129.189 Y101.259 E.01211
G1 X133.93 Y105.999 E.2119
G1 X133.392 Y105.999 E.01699
G1 X128.888 Y101.494 E.20136
G1 X128.766 Y101.589 E.00487
G1 X128.563 Y101.707 E.00743
G1 X132.855 Y105.999 E.19185
G1 X132.317 Y105.999 E.01699
G1 X128.223 Y101.905 E.18301
G1 X127.883 Y102.102 E.01243
G1 X131.779 Y105.999 E.17417
G1 X131.242 Y105.999 E.01699
G1 X127.51 Y102.267 E.1668
G1 X127.13 Y102.425 E.01301
G1 X130.704 Y105.999 E.15976
G1 X130.167 Y105.999 E.01699
G1 X126.723 Y102.555 E.15393
G1 X126.3 Y102.67 E.01385
G1 X129.629 Y105.999 E.1488
G1 X129.091 Y105.999 E.01699
G1 X125.862 Y102.77 E.14435
G1 X125.381 Y102.826 E.01532
G1 X128.554 Y105.999 E.14184
G1 X128.016 Y105.999 E.01699
G1 X124.899 Y102.882 E.13932
G1 X124.365 Y102.886 E.01688
G1 X127.479 Y105.999 E.13917
G1 X126.941 Y105.999 E.01699
G1 X123.828 Y102.886 E.13916
G1 X123.291 Y102.886 E.01699
G1 X126.403 Y105.999 E.13915
G1 X125.866 Y105.999 E.01699
G1 X122.753 Y102.886 E.13914
G1 X122.216 Y102.886 E.01699
G1 X125.328 Y105.999 E.13913
G1 X124.791 Y105.999 E.01699
G1 X121.678 Y102.887 E.13912
G1 X121.141 Y102.887 E.01699
G1 X124.253 Y105.999 E.13911
G1 X123.715 Y105.999 E.01699
G1 X120.604 Y102.887 E.1391
G1 X120.066 Y102.887 E.01699
G1 X123.178 Y105.999 E.13909
G1 X122.64 Y105.999 E.01699
G1 X119.529 Y102.887 E.13908
G1 X118.991 Y102.888 E.01699
G1 X122.103 Y105.999 E.13907
G1 X121.565 Y105.999 E.01699
G1 X118.454 Y102.888 E.13906
G1 X117.917 Y102.888 E.01699
M73 P1 R72
G1 X121.027 Y105.999 E.13905
G1 X120.49 Y105.999 E.01699
G1 X117.379 Y102.888 E.13904
G1 X116.842 Y102.889 E.01699
G1 X119.952 Y105.999 E.13903
G1 X119.415 Y105.999 E.01699
G1 X116.305 Y102.889 E.13902
G1 X115.767 Y102.889 E.01699
G1 X118.877 Y105.999 E.13901
G1 X118.339 Y105.999 E.01699
G1 X115.23 Y102.889 E.13901
G1 X114.692 Y102.889 E.01699
G1 X117.802 Y105.999 E.139
G1 X117.264 Y105.999 E.01699
G1 X114.155 Y102.89 E.13899
G1 X113.618 Y102.89 E.01699
G1 X116.727 Y105.999 E.13898
G1 X116.189 Y105.999 E.01699
G1 X113.08 Y102.89 E.13897
G1 X112.543 Y102.89 E.01699
G1 X115.651 Y105.999 E.13896
G1 X115.114 Y105.999 E.01699
G1 X112.006 Y102.89 E.13895
G1 X111.468 Y102.891 E.01699
G1 X114.576 Y105.999 E.13894
G1 X114.039 Y105.999 E.01699
G1 X110.931 Y102.891 E.13893
G1 X110.393 Y102.891 E.01699
G1 X113.501 Y105.999 E.13892
G1 X112.963 Y105.999 E.01699
G1 X109.856 Y102.891 E.13891
G1 X109.319 Y102.892 E.01699
G1 X112.426 Y105.999 E.1389
G1 X111.888 Y105.999 E.01699
G1 X108.781 Y102.892 E.13889
G1 X108.244 Y102.892 E.01699
G1 X111.351 Y105.999 E.13888
G1 X110.813 Y105.999 E.01699
G1 X107.706 Y102.892 E.13887
G1 X107.169 Y102.892 E.01699
G1 X110.275 Y105.999 E.13886
G1 X109.738 Y105.999 E.01699
G1 X106.632 Y102.893 E.13885
G1 X106.333 Y102.893 E.00944
G1 X106.053 Y102.852 E.00893
G1 X109.2 Y105.999 E.14067
G1 X108.663 Y105.999 E.01699
G1 X105.473 Y102.809 E.14257
G1 X105.008 Y102.81 E.01472
G1 X105.008 Y102.881 E.00227
G1 X108.125 Y105.999 E.13935
G1 X107.587 Y105.999 E.01699
G1 X105.008 Y103.419 E.11532
G1 X105.008 Y103.957 E.01699
G1 X107.05 Y105.999 E.09129
G1 X106.512 Y105.999 E.01699
G1 X105.008 Y104.494 E.06726
G1 X105.008 Y105.032 E.01699
G1 X105.975 Y105.999 E.04322
G1 X105.437 Y105.999 E.01699
G1 X104.838 Y105.4 E.02678
M204 S1000
; stop printing object webcam-raiser_v2.stl id:0 copy 0
M106 S84.15
;LAYER_CHANGE
;Z:0.4
;HEIGHT:0.2
;BEFORE_LAYER_CHANGE
G92 E0.0
;0.4


;WIPE_START
G1 F8640
G1 X105.437 Y105.999 E-.19561
G1 X105.975 Y105.999 E-.12413
G1 X105.008 Y105.032 E-.31575
G1 X105.008 Y104.494 E-.12413
G1 X105.009 Y104.495 E-.00036
;WIPE_END
G1 E-.04 F2100
G1 Z.6 F720
;AFTER_LAYER_CHANGE
;0.4
G1 X100.814 Y104.502 F10800
G1 Z.4 F720
G1 E.8 F2100
;TYPE:Skirt/Brim
;WIDTH:0.42
G1 F3000
G1 X100.807 Y100.052 E.13954
G1 X101.199 Y98.635 E.04612
G1 X102.15 Y97.687 E.04209
G1 X129.15 Y81.58 E.98575
G1 X130.561 Y81.192 E.04589
G1 X134.628 Y81.192 E.12754
G1 X136.202 Y81.347 E.04958
G1 X137.569 Y81.725 E.04446
G1 X138.747 Y82.258 E.04053
G1 X140.061 Y83.136 E.04958
G1 X141.001 Y84.017 E.04036
G1 X141.874 Y85.135 E.04449
G1 X142.503 Y86.264 E.04052
G1 X143.035 Y87.753 E.04959
G1 X143.229 Y88.725 E.03108
G1 X143.314 Y89.878 E.03624
G1 X143.313 Y106.753 E.52909
G1 X143.191 Y107.574 E.02605
G1 X142.944 Y108.226 E.02185
G1 X142.551 Y108.847 E.02306
G1 X142.067 Y109.35 E.02185
G1 X141.53 Y109.728 E.02062
G1 X141.022 Y109.969 E.01762
G1 X140.389 Y110.144 E.02059
G1 X139.829 Y110.199 E.01763
G1 X104.361 Y110.2 E1.11208
G1 X103.601 Y110.118 E.02395
G1 X102.904 Y109.888 E.02301
G1 X102.191 Y109.46 E.02608
G1 X101.657 Y108.952 E.0231
G1 X101.052 Y107.943 E.03689
G1 X100.818 Y106.927 E.03269
G1 X100.814 Y104.562 E.07415
G1 X101.191 Y104.562 F10800
G1 F3000
G1 X101.184 Y100.052 E.1414
G1 X101.575 Y98.745 E.04278
G1 X102.343 Y98.01 E.03331
G1 X129.343 Y81.904 E.98575
G1 X130.561 Y81.569 E.03961
G1 X134.619 Y81.569 E.12725
G1 X136.138 Y81.719 E.04785
G1 X137.433 Y82.077 E.04215
G1 X138.561 Y82.586 E.03878
G1 X139.829 Y83.434 E.04784
G1 X140.728 Y84.277 E.03863
G1 X141.555 Y85.337 E.04217
G1 X142.158 Y86.417 E.03878
G1 X142.672 Y87.854 E.04785
G1 X142.855 Y88.772 E.02934
G1 X142.937 Y89.887 E.03508
G1 X142.936 Y106.743 E.52851
G1 X142.828 Y107.474 E.02316
G1 X142.607 Y108.057 E.01954
G1 X142.253 Y108.616 E.02074
G1 X141.821 Y109.064 E.01954
G1 X140.886 Y109.617 E.03406
G1 X139.82 Y109.822 E.03404
G1 X104.361 Y109.823 E1.11179
G1 X103.684 Y109.75 E.02135
G1 X103.057 Y109.543 E.0207
G1 X102.423 Y109.163 E.02318
G1 X101.943 Y108.706 E.02078
G1 X101.404 Y107.807 E.03285
G1 X101.194 Y106.899 E.02922
G1 X101.191 Y104.622 E.07141
; printing object webcam-raiser_v2.stl id:0 copy 0
;WIPE_START
G1 F8640
G1 X101.186 Y101.33 E-.76
;WIPE_END
G1 E-.04 F2100
G1 Z.8 F720
G1 X105.563 Y101.647 F10800
M73 Q1 S72
G1 Z.4 F720
G1 E.8 F2100
M204 S800
;TYPE:Perimeter
;WIDTH:0.449999
G1 F2700
G1 X105.626 Y101.917 E.0094
G1 X105.914 Y102.27 E.01541
G1 X106.247 Y102.442 E.01269
G1 X106.539 Y102.485 E.00999
G1 X124.561 Y102.485 E.61002
G1 X125.325 Y102.441 E.02588
G1 X126.319 Y102.261 E.03421
G1 X127.001 Y102.046 E.02421
