; generated by PrusaSlicer 2.5.0+win64 on 2022-10-04 at 15:50:14 UTC


;
;
; 

; external perimeters extrusion width = 0.45mm
; perimeters extrusion width = 0.45mm
; infill extrusion width = 0.45mm
; solid infill extrusion width = 0.45mm
; top infill extrusion width = 0.40mm
; first layer extrusion width = 0.42mm

M73 P0 R73
M73 Q0 S73
M201 X1000 Y1000 Z200 E5000 ; sets maximum accelerations, mm/sec^2
M203 X200 Y200 Z12 E120 ; sets maximum feedrates, mm / sec
M204 P1250 R1250 T1250 ; sets acceleration (P, T) and retract acceleration (R), mm/sec^2
M205 X8.00 Y8.00 Z0.40 E4.50 ; sets the jerk limits, mm/sec
M205 S0 T0 ; sets the minimum extruding and travel feed rate, mm/sec
M107
;TYPE:Custom
M862.3 P "MK3S" ; printer model check
M862.1 P0.4 ; nozzle diameter check
M115 U3.11.0 ; tell printer latest fw version
G90 ; use absolute coordinates
M83 ; extruder relative mode
M104 S215 ; set extruder temp
M140 S60 ; set bed temp
M190 S60 ; wait for bed temp
M109 S215 ; wait for extruder temp
G28 W ; home all without mesh bed level
G80 ; mesh bed leveling

G1 Z0.2 F720
G1 Y-3 F1000 ; go outside print area
G92 E0
G1 X60 E9 F1000 ; intro line
G1 X100 E12.5 F1000 ; intro line

G92 E0
M221 S95

; Don't change E values below. Excessive value can damage the printer.
M907 E430 ; set extruder motor current
G21 ; set units to millimeters
G90 ; use absolute coordinates
M83 ; use relative distances for extrusion
M900 K0.05 ; Filament gcode LA 1.5
M900 K30 ; Filament gcode LA 1.0
M107
;LAYER_CHANGE
;Z:0.2
;HEIGHT:0.2
;BEFORE_LAYER_CHANGE
G92 E0.0
;0.2


G1 E-.8 F2100
G1 Z.4 F720
;AFTER_LAYER_CHANGE
;0.2
G1 X101.425 Y95.15 F10800
G1 Z.2 F720
G1 E.8 F2100
M204 S800
;TYPE:Skirt/Brim
;WIDTH:0.42
G1 F1200
G1 X101.964 Y94.575 E.0247
G1 X102.819 Y94.021 E.03195
G1 X128.798 Y81.925 E.89853
G1 X129.961 Y81.667 E.03733
G1 X134.028 Y81.668 E.12754
G1 X135.602 Y81.823 E.04958
G1 X136.969 Y82.201 E.04446
G1 X138.147 Y82.734 E.04053
G1 X139.461 Y83.612 E.04958
G1 X140.401 Y84.492 E.04036
G1 X141.274 Y85.611 E.04449
G1 X141.903 Y86.74 E.04053
G1 X142.435 Y88.229 E.04958
G1 X142.629 Y89.201 E.03108
G1 X142.714 Y90.354 E.03624
G1 X142.713 Y106.753 E.51417
G1 X142.591 Y107.574 E.02605
G1 X142.344 Y108.226 E.02186
G1 X141.975 Y108.817 E.02184
G1 X141.467 Y109.35 E.02307
G1 X140.93 Y109.728 E.02063
G1 X140.422 Y109.969 E.01762
G1 X139.789 Y110.144 E.02058
G1 X139.23 Y110.199 E.0176
G1 X104.35 Y110.2 E1.09366
G1 X103.597 Y110.119 E.02373
G1 X102.905 Y109.893 E.02282
G1 X102.196 Y109.473 E.02586
G1 X101.664 Y108.974 E.02285
G1 X101.056 Y107.98 E.03654
G1 X100.808 Y106.935 E.03367
G1 X100.667 Y97.343 E.30077
G1 X100.784 Y96.477 E.0274
G1 X101.039 Y95.781 E.02324
G1 X101.394 Y95.201 E.02133
M204 S1000
G1 X101.716 Y95.401 F10800
M204 S800
G1 F1200
G1 X101.754 Y95.341 E.00222
G1 X102.302 Y94.785 E.02448
G1 X102.978 Y94.363 E.025
G1 X128.957 Y82.267 E.89853
G1 X129.961 Y82.044 E.03222
G1 X134.019 Y82.045 E.12725
G1 X135.538 Y82.195 E.04785
G1 X136.833 Y82.553 E.04215
G1 X137.961 Y83.062 E.03878
G1 X139.229 Y83.909 E.04784
G1 X140.128 Y84.752 E.03863
G1 X140.955 Y85.813 E.04217
G1 X141.558 Y86.893 E.03878
G1 X142.072 Y88.33 E.04784
G1 X142.255 Y89.247 E.02934
G1 X142.337 Y90.363 E.03508
G1 X142.336 Y106.743 E.51359
G1 X142.228 Y107.474 E.02316
G1 X142.007 Y108.057 E.01954
G1 X141.677 Y108.585 E.01952
G1 X141.221 Y109.064 E.02075
G1 X140.286 Y109.617 E.03406
G1 X139.221 Y109.822 E.03401
G1 X104.35 Y109.823 E1.09336
G1 X103.641 Y109.743 E.02236
G1 X102.951 Y109.498 E.02294
G1 X102.395 Y109.15 E.02059
G1 X101.874 Y108.636 E.02295
G1 X101.391 Y107.804 E.03016
G1 X101.183 Y106.902 E.02901
G1 X101.044 Y97.348 E.29962
G1 X101.149 Y96.574 E.02449
G1 X101.377 Y95.947 E.0209
G1 X101.685 Y95.452 E.01827
M204 S1000
; printing object webcam-raiser_v2.stl id:0 copy 0
;WIPE_START
G1 F8640
G1 X101.754 Y95.341 E-.03022
G1 X102.302 Y94.785 E-.18027
G1 X102.978 Y94.363 E-.18412
G1 X104.413 Y93.695 E-.36539
;WIPE_END
G1 E-.04 F2100
G1 Z.6 F720
G1 X104.841 Y101.997 F10800
G1 Z.2 F720
G1 E.8 F2100
M204 S800
;TYPE:Perimeter
;WIDTH:0.545585
G1 F1200
G1 X104.857 Y102.02 E.00118
;WIDTH:0.503723
G1 X104.921 Y102.114 E.00431
;WIDTH:0.461861
G1 X104.984 Y102.207 E.00392
;WIDTH:0.419999
G1 X105.375 Y102.512 E.01558
G1 X105.74 Y102.586 E.01166
G1 X124.266 Y102.578 E.58088
G1 X125.426 Y102.432 E.03664
G1 X126.439 Y102.141 E.03304
G1 X127.378 Y101.717 E.03233
G1 X127.997 Y101.338 E.02275
G1 X128.806 Y100.698 E.03233
G1 X129.299 Y100.198 E.02204
G1 X129.742 Y99.651 E.02204
G1 X130.129 Y99.064 E.02204
G1 X130.456 Y98.442 E.02204
G1 X130.721 Y97.791 E.02204
G1 X130.92 Y97.117 E.02204
G1 X131.055 Y96.404 E.02275
G1 X131.125 Y95.424 E.03079
G1 X131.125 Y85.587 E.30844
G1 X134.185 Y85.593 E.09595
G1 X134.72 Y85.658 E.01689
G1 X135.353 Y85.792 E.02027
G1 X136.038 Y86.056 E.02304
G1 X136.59 Y86.371 E.0199
G1 X137.069 Y86.726 E.01871
G1 X137.535 Y87.167 E.02011
G1 X137.848 Y87.567 E.01594
G1 X138.219 Y88.133 E.0212
G1 X138.516 Y88.804 E.02302
G1 X138.687 Y89.431 E.02037
G1 X138.758 Y89.935 E.01596
G1 X138.797 Y90.6 E.0209
G1 X138.797 Y106.282 E.49168
G1 X104.709 Y106.282 E1.0688
G1 X104.654 Y102.319 E.12427
;WIDTH:0.461861
G1 X104.673 Y102.198 E.00427
;WIDTH:0.503723
G1 X104.692 Y102.076 E.0047
;WIDTH:0.545585
G1 X104.712 Y101.955 E.00513
;WIDTH:0.587446
G1 X104.731 Y101.834 E.00555
G1 X104.794 Y101.927 E.00509
;WIDTH:0.545585
G1 X104.808 Y101.947 E.00102
M204 S1000
G1 X105.205 Y101.738 F10800
M204 S800
;WIDTH:0.419999
G1 F1200
G1 X105.286 Y101.981 E.00802
G1 X105.521 Y102.165 E.00935
G1 X105.74 Y102.209 E.00699
G1 X124.266 Y102.201 E.58088
G1 X125.325 Y102.069 E.03347
G1 X126.286 Y101.796 E.0313
G1 X127.184 Y101.393 E.03088
G1 X127.765 Y101.041 E.02131
G1 X128.539 Y100.431 E.03088
G1 X129.008 Y99.958 E.02088
G1 X129.428 Y99.442 E.02088
G1 X129.796 Y98.887 E.02088
G1 X130.108 Y98.298 E.02088
G1 X130.36 Y97.682 E.02088
G1 X130.551 Y97.043 E.02088
G1 X130.679 Y96.376 E.0213
G1 X130.748 Y95.424 E.02992
G1 X130.748 Y85.21 E.32028
G1 X134.209 Y85.215 E.10851
G1 X134.766 Y85.284 E.01761
G1 X135.467 Y85.432 E.02245
G1 X136.195 Y85.713 E.02449
G1 X136.64 Y85.951 E.01582
G1 X137.065 Y86.235 E.01603
G1 X137.461 Y86.559 E.01604
G1 X137.818 Y86.916 E.01584
G1 X138.145 Y87.336 E.01667
G1 X138.554 Y87.959 E.02337
G1 X138.87 Y88.672 E.02447
G1 X139.065 Y89.396 E.0235
G1 X139.134 Y89.907 E.01617
G1 X139.174 Y90.6 E.02177
G1 X139.174 Y106.571 E.50074
G1 X139.166 Y106.615 E.00142
G1 X139.116 Y106.659 E.00209
G1 X104.424 Y106.659 E1.08772
G1 X104.38 Y106.651 E.00141
G1 X104.336 Y106.601 E.00209
G1 X104.209 Y97.43 E.28758
G1 X104.286 Y97.264 E.00573
G1 X104.445 Y97.209 E.00528
G1 X105.174 Y97.209 E.02284
G1 X105.174 Y101.643 E.13904
G1 X105.187 Y101.681 E.00127
M204 S1000
G1 X105.551 Y101.643 F10800
M204 S800
;TYPE:External perimeter
G1 F1200
G1 X105.588 Y101.756 E.00372
G1 X105.739 Y101.831 E.0053
G1 X124.266 Y101.824 E.58088
G1 X125.225 Y101.705 E.03029
G1 X126.133 Y101.452 E.02957
G1 X126.991 Y101.07 E.02943
G1 X127.533 Y100.743 E.01986
G1 X128.272 Y100.165 E.02943
G1 X128.716 Y99.719 E.01972
G1 X129.115 Y99.232 E.01972
G1 X129.463 Y98.709 E.01972
G1 X129.759 Y98.154 E.01972
G1 X129.999 Y97.572 E.01972
G1 X130.181 Y96.97 E.01972
G1 X130.303 Y96.348 E.01986
G1 X130.371 Y95.424 E.02905
G1 X130.371 Y84.832 E.33212
G1 X134.232 Y84.838 E.12107
G1 X135.054 Y84.94 E.02595
G1 X135.581 Y85.072 E.01704
G1 X136.353 Y85.37 E.02594
G1 X136.834 Y85.627 E.01713
G1 X137.29 Y85.932 E.01719
G1 X137.714 Y86.28 E.0172
G1 X138.101 Y86.666 E.01714
G1 X138.61 Y87.318 E.02592
G1 X138.889 Y87.785 E.01706
G1 X139.111 Y88.284 E.01713
G1 X139.306 Y88.809 E.01755
G1 X139.435 Y89.323 E.0166
G1 X139.51 Y89.879 E.01762
G1 X139.551 Y90.6 E.02264
G1 X139.551 Y106.571 E.50074
G1 X139.509 Y106.808 E.00756
G1 X139.385 Y106.959 E.00613
G1 X139.143 Y107.036 E.00796
G1 X104.424 Y107.036 E1.08858
G1 X104.189 Y106.995 E.0075
G1 X104.038 Y106.873 E.00608
G1 X103.959 Y106.634 E.00789
G1 X103.831 Y97.398 E.28961
G1 X103.91 Y97.139 E.00848
G1 X104.112 Y96.916 E.00943
G1 X104.422 Y96.831 E.01008
G1 X105.551 Y96.831 E.03539
G1 X105.551 Y101.583 E.14898
M204 S1000
G1 X105.469 Y101.729 F10800
;WIPE_START
G1 F8640
G1 X105.588 Y101.756 E-.04081
G1 X105.739 Y101.831 E-.03905
G1 X108.685 Y101.83 E-.68014
;WIPE_END
G1 E-.04 F2100
M73 P0 R72
G1 Z.6 F720
G1 X104.693 Y97.689 F10800
G1 Z.2 F720
G1 E.8 F2100
M204 S800
;TYPE:Perimeter
;WIDTH:0.62692
G1 F1200
G1 X104.707 Y99.666 E.096
;WIDTH:0.599512
G1 X104.721 Y101.643 E.0915
;WIDTH:0.587446
G1 X104.731 Y101.834 E.00868
M204 S1000
;WIPE_START
G1 F8640
G1 X104.721 Y101.643 E-.04425
G1 X104.707 Y99.666 E-.45649
G1 X104.699 Y98.543 E-.25927
;WIPE_END
G1 E-.04 F2100
G1 Z.6 F720
G1 X136.28 Y86.314 F10800
G1 Z.2 F720
G1 E.8 F2100
M204 S800
;TYPE:Solid infill
;WIDTH:0.423141
G1 F1200
G1 X137.331 Y87.365 E.04698
G1 X137.753 Y87.906 E.02169
G1 X137.967 Y88.263 E.01318
G1 X138.187 Y88.758 E.01712
G1 X135.631 Y86.203 E.11427
G1 X135.267 Y86.062 E.01233
G1 X134.85 Y85.959 E.01358
G1 X138.418 Y89.527 E.15953
G1 X138.46 Y89.738 E.0068
G1 X138.489 Y90.136 E.01262
G1 X134.237 Y85.884 E.19014
G1 X133.69 Y85.874 E.0173
G1 X138.514 Y90.699 E.21569
G1 X138.514 Y91.236 E.017
G1 X133.151 Y85.874 E.23978
G1 X132.612 Y85.873 E.01703
G1 X138.514 Y91.774 E.26386
G1 X138.514 Y92.312 E.017
G1 X132.074 Y85.872 E.28794
G1 X131.535 Y85.871 E.01703
G1 X138.514 Y92.849 E.31203
G1 X138.514 Y93.387 E.017
G1 X131.408 Y86.281 E.31772
G1 X131.408 Y86.819 E.017
G1 X138.514 Y93.925 E.31772
G1 X138.514 Y94.463 E.017
G1 X131.408 Y87.357 E.31772
G1 X131.408 Y87.894 E.017
G1 X138.514 Y95 E.31772
G1 X138.514 Y95.538 E.017
M73 Q1 S73
G1 X131.408 Y88.432 E.31772
G1 X131.408 Y88.97 E.017
M73 P1 R72
G1 X138.514 Y96.076 E.31772
G1 X138.514 Y96.613 E.017
G1 X131.408 Y89.507 E.31772
G1 X131.408 Y90.045 E.017
G1 X138.514 Y97.151 E.31772
G1 X138.514 Y97.689 E.017
G1 X131.408 Y90.583 E.31772
G1 X131.408 Y91.121 E.017
G1 X138.514 Y98.227 E.31772
G1 X138.514 Y98.764 E.017
G1 X131.408 Y91.658 E.31772
G1 X131.408 Y92.196 E.017
G1 X138.514 Y99.302 E.31772
G1 X138.514 Y99.84 E.017
G1 X131.408 Y92.734 E.31772
G1 X131.408 Y93.271 E.017
G1 X138.514 Y100.377 E.31772
M73 Q1 S72
G1 X138.514 Y100.915 E.017
G1 X131.408 Y93.809 E.31772
G1 X131.408 Y94.347 E.017
G1 X138.514 Y101.453 E.31772
G1 X138.514 Y101.991 E.017
G1 X131.408 Y94.885 E.31772
G1 X131.408 Y95.422 E.017
G1 X138.514 Y102.528 E.31772
G1 X138.514 Y103.066 E.017
G1 X131.373 Y95.925 E.31929
G1 X131.337 Y96.427 E.01592
G1 X138.514 Y103.604 E.32089
G1 X138.514 Y104.141 E.017
G1 X131.253 Y96.88 E.32466
G1 X131.155 Y97.32 E.01425
G1 X138.514 Y104.679 E.32904
G1 X138.514 Y105.217 E.017
G1 X131.032 Y97.735 E.33452
G1 X130.888 Y98.129 E.01325
G1 X138.514 Y105.755 E.34095
G1 X138.514 Y105.999 E.00772
G1 X138.22 Y105.999 E.00928
G1 X130.733 Y98.511 E.33477
G1 X130.55 Y98.867 E.01262
G1 X137.683 Y105.999 E.31889
G1 X137.145 Y105.999 E.017
G1 X130.364 Y99.218 E.30317
G1 X130.153 Y99.545 E.01229
G1 X136.607 Y105.999 E.28858
G1 X136.069 Y105.999 E.017
G1 X129.933 Y99.863 E.27435
G1 X129.693 Y100.16 E.01209
G1 X135.532 Y105.999 E.26105
G1 X134.994 Y105.999 E.017
G1 X129.446 Y100.451 E.24806
G1 X129.179 Y100.722 E.01202
G1 X134.456 Y105.999 E.23595
G1 X133.919 Y105.999 E.017
G1 X128.901 Y100.981 E.22433
G1 X128.601 Y101.219 E.0121
G1 X133.381 Y105.999 E.2137
G1 X132.843 Y105.999 E.017
G1 X128.302 Y101.457 E.20306
G1 X128.167 Y101.564 E.00544
G1 X127.982 Y101.675 E.00682
G1 X132.305 Y105.999 E.19332
G1 X131.768 Y105.999 E.017
G1 X127.645 Y101.877 E.18431
G1 X127.299 Y102.068 E.01251
G1 X131.23 Y105.999 E.17576
G1 X130.692 Y105.999 E.017
G1 X126.923 Y102.23 E.16853
G1 X126.547 Y102.391 E.01294
G1 X130.155 Y105.999 E.1613
G1 X129.617 Y105.999 E.017
G1 X126.144 Y102.526 E.1553
G1 X125.721 Y102.64 E.01386
G1 X129.079 Y105.999 E.15017
G1 X128.541 Y105.999 E.017
G1 X125.285 Y102.742 E.14559
G1 X124.804 Y102.799 E.01532
G1 X128.004 Y105.999 E.14308
G1 X127.466 Y105.999 E.017
G1 X124.322 Y102.855 E.14056
G1 X123.791 Y102.861 E.01681
G1 X126.928 Y105.999 E.14029
G1 X126.391 Y105.999 E.017
G1 X123.253 Y102.861 E.14028
G1 X122.716 Y102.862 E.01699
G1 X125.853 Y105.999 E.14027
G1 X125.315 Y105.999 E.017
G1 X122.178 Y102.862 E.14026
G1 X121.641 Y102.862 E.01699
G1 X124.777 Y105.999 E.14025
G1 X124.24 Y105.999 E.017
G1 X121.103 Y102.862 E.14024
G1 X120.566 Y102.862 E.01699
G1 X123.702 Y105.999 E.14023
G1 X123.164 Y105.999 E.017
G1 X120.028 Y102.863 E.14022
G1 X119.491 Y102.863 E.01699
G1 X122.627 Y105.999 E.14021
G1 X122.089 Y105.999 E.017
G1 X118.953 Y102.863 E.1402
G1 X118.416 Y102.863 E.01699
G1 X121.551 Y105.999 E.14019
G1 X121.014 Y105.999 E.017
G1 X117.878 Y102.864 E.14018
G1 X117.341 Y102.864 E.01699
G1 X120.476 Y105.999 E.14017
G1 X119.938 Y105.999 E.017
G1 X116.803 Y102.864 E.14016
G1 X116.266 Y102.864 E.01699
G1 X119.4 Y105.999 E.14015
G1 X118.863 Y105.999 E.017
G1 X115.728 Y102.864 E.14014
G1 X115.191 Y102.865 E.01699
G1 X118.325 Y105.999 E.14013
G1 X117.787 Y105.999 E.017
G1 X114.653 Y102.865 E.14012
G1 X114.116 Y102.865 E.01699
G1 X117.25 Y105.999 E.14011
G1 X116.712 Y105.999 E.017
G1 X113.578 Y102.865 E.1401
G1 X113.041 Y102.865 E.01699
G1 X116.174 Y105.999 E.1401
G1 X115.636 Y105.999 E.017
G1 X112.503 Y102.866 E.14009
G1 X111.966 Y102.866 E.01699
G1 X115.099 Y105.999 E.14008
G1 X114.561 Y105.999 E.017
G1 X111.428 Y102.866 E.14007
G1 X110.891 Y102.866 E.01699
G1 X114.023 Y105.999 E.14006
G1 X113.486 Y105.999 E.017
G1 X110.353 Y102.867 E.14005
G1 X109.816 Y102.867 E.01699
G1 X112.948 Y105.999 E.14004
G1 X112.41 Y105.999 E.017
G1 X109.278 Y102.867 E.14003
G1 X108.741 Y102.867 E.01699
G1 X111.872 Y105.999 E.14002
G1 X111.335 Y105.999 E.017
G1 X108.203 Y102.867 E.14001
G1 X107.666 Y102.868 E.01699
G1 X110.797 Y105.999 E.14
G1 X110.259 Y105.999 E.017
G1 X107.128 Y102.868 E.13999
G1 X106.591 Y102.868 E.01699
G1 X109.722 Y105.999 E.13998
G1 X109.184 Y105.999 E.017
G1 X106.053 Y102.868 E.13997
G1 X105.73 Y102.868 E.01021
G1 X105.462 Y102.814 E.00866
G1 X108.646 Y105.999 E.14238
G1 X108.108 Y105.999 E.017
G1 X104.944 Y102.834 E.14149
G1 X104.951 Y103.38 E.01724
G1 X107.571 Y105.999 E.11711
G1 X107.033 Y105.999 E.017
G1 X104.959 Y103.925 E.09273
G1 X104.967 Y104.47 E.01724
G1 X106.495 Y105.999 E.06835
G1 X105.958 Y105.999 E.017
G1 X104.974 Y105.015 E.04397
G1 X104.982 Y105.561 E.01724
G1 X105.589 Y106.169 E.02718
M204 S1000
; stop printing object webcam-raiser_v2.stl id:0 copy 0
M106 S84.15
;LAYER_CHANGE
;Z:0.4
;HEIGHT:0.2
;BEFORE_LAYER_CHANGE
G92 E0.0
;0.4


;WIPE_START
G1 F8640
G1 X104.982 Y105.561 E-.19849
G1 X104.974 Y105.015 E-.12592
G1 X105.958 Y105.999 E-.32113
G1 X106.453 Y105.999 E-.11447
;WIPE_END
G1 E-.04 F2100
G1 Z.6 F720
;AFTER_LAYER_CHANGE
;0.4
G1 X106.453 Y110.2 F10800
G1 Z.4 F720
G1 E.8 F2100
;TYPE:Skirt/Brim
;WIDTH:0.42
G1 F3000
G1 X104.35 Y110.2 E.06596
G1 X103.597 Y110.119 E.02373
G1 X102.905 Y109.893 E.02282
G1 X102.196 Y109.473 E.02586
G1 X101.664 Y108.974 E.02285
G1 X101.056 Y107.98 E.03654
G1 X100.808 Y106.935 E.03367
G1 X100.667 Y97.343 E.30077
G1 X100.784 Y96.477 E.0274
G1 X101.039 Y95.781 E.02324
G1 X101.425 Y95.15 E.02321
G1 X101.964 Y94.575 E.0247
G1 X102.819 Y94.021 E.03195
G1 X128.798 Y81.925 E.89853
G1 X129.961 Y81.667 E.03733
G1 X134.028 Y81.668 E.12754
G1 X135.602 Y81.823 E.04958
G1 X136.969 Y82.201 E.04446
G1 X138.147 Y82.734 E.04053
G1 X139.461 Y83.612 E.04958
G1 X140.401 Y84.492 E.04036
G1 X141.274 Y85.611 E.04449
G1 X141.903 Y86.74 E.04053
G1 X142.435 Y88.229 E.04958
G1 X142.629 Y89.201 E.03108
G1 X142.714 Y90.354 E.03624
G1 X142.713 Y106.753 E.51417
G1 X142.591 Y107.574 E.02605
G1 X142.344 Y108.226 E.02186
G1 X141.975 Y108.817 E.02184
G1 X141.467 Y109.35 E.02307
G1 X140.93 Y109.728 E.02063
G1 X140.422 Y109.969 E.01762
G1 X139.789 Y110.144 E.02058
G1 X139.23 Y110.199 E.0176
G1 X106.513 Y110.2 E1.02582
G1 X106.513 Y109.823 F10800
G1 F3000
G1 X104.35 Y109.823 E.06784
G1 X103.641 Y109.743 E.02236
G1 X102.951 Y109.498 E.02294
G1 X102.395 Y109.15 E.02059
G1 X101.874 Y108.636 E.02295
G1 X101.391 Y107.804 E.03016
G1 X101.183 Y106.902 E.02901
G1 X101.044 Y97.348 E.29962
G1 X101.149 Y96.574 E.02449
