; generated by PrusaSlicer 2.5.0+win64 on 2022-10-04 at 15:30:30 UTC


;
;
; 

; external perimeters extrusion width = 0.45mm
; perimeters extrusion width = 0.45mm
; infill extrusion width = 0.45mm
; solid infill extrusion width = 0.45mm
; top infill extrusion width = 0.40mm
; first layer extrusion width = 0.42mm

M73 P0 R74
M73 Q0 S74
M201 X1000 Y1000 Z200 E5000 ; sets maximum accelerations, mm/sec^2
M203 X200 Y200 Z12 E120 ; sets maximum feedrates, mm / sec
M204 P1250 R1250 T1250 ; sets acceleration (P, T) and retract acceleration (R), mm/sec^2
M205 X8.00 Y8.00 Z0.40 E4.50 ; sets the jerk limits, mm/sec
M205 S0 T0 ; sets the minimum extruding and travel feed rate, mm/sec
M107
;TYPE:Custom
M862.3 P "MK3S" ; printer model check
M862.1 P0.4 ; nozzle diameter check
M115 U3.11.0 ; tell printer latest fw version
G90 ; use absolute coordinates
M83 ; extruder relative mode
M104 S215 ; set extruder temp
M140 S60 ; set bed temp
M190 S60 ; wait for bed temp
M109 S215 ; wait for extruder temp
G28 W ; home all without mesh bed level
G80 ; mesh bed leveling

G1 Z0.2 F720
G1 Y-3 F1000 ; go outside print area
G92 E0
G1 X60 E9 F1000 ; intro line
G1 X100 E12.5 F1000 ; intro line

G92 E0
M221 S95

; Don't change E values below. Excessive value can damage the printer.
M907 E430 ; set extruder motor current
G21 ; set units to millimeters
G90 ; use absolute coordinates
M83 ; use relative distances for extrusion
M900 K0.05 ; Filament gcode LA 1.5
M900 K30 ; Filament gcode LA 1.0
M107
;LAYER_CHANGE
;Z:0.2
;HEIGHT:0.2
;BEFORE_LAYER_CHANGE
G92 E0.0
;0.2


G1 E-.8 F2100
G1 Z.4 F720
;AFTER_LAYER_CHANGE
;0.2
G1 X93.232 Y92.14 F10800
G1 Z.2 F720
G1 E.8 F2100
M204 S800
;TYPE:Skirt/Brim
;WIDTH:0.42
G1 F1200
G1 X94.439 Y91.057 E.05086
G1 X120.439 Y79.057 E.89785
G1 X121.593 Y78.804 E.03705
G1 X125.661 Y78.805 E.12754
G1 X127.235 Y78.96 E.04959
G1 X128.602 Y79.338 E.04446
G1 X129.779 Y79.87 E.04053
G1 X131.094 Y80.748 E.04958
G1 X132.033 Y81.629 E.04036
G1 X132.907 Y82.747 E.04449
G1 X133.535 Y83.876 E.04052
G1 X134.068 Y85.365 E.04959
G1 X134.262 Y86.338 E.03108
G1 X134.347 Y87.49 E.03624
G1 X134.339 Y103.809 E.51166
G1 X134.218 Y104.536 E.02309
G1 X133.936 Y105.267 E.02457
G1 X133.538 Y105.887 E.0231
G1 X133.027 Y106.416 E.02307
G1 X132.465 Y106.812 E.02156
G1 X131.922 Y107.069 E.01885
G1 X131.259 Y107.252 E.02154
G1 X130.662 Y107.311 E.01881
G1 X96.593 Y107.312 E1.06821
G1 X95.795 Y107.226 E.02518
G1 X95.051 Y106.98 E.02456
G1 X94.304 Y106.533 E.02732
G1 X93.735 Y105.991 E.02461
G1 X93.339 Y105.43 E.02155
G1 X93.1 Y104.932 E.01732
G1 X92.848 Y103.81 E.03604
G1 X92.839 Y93.558 E.32146
G1 X93.216 Y92.198 E.04424
M204 S1000
G1 X93.59 Y92.31 F10800
M204 S800
G1 F1200
G1 X93.608 Y92.251 E.00195
G1 X94.597 Y91.4 E.04092
G1 X120.597 Y79.4 E.89785
G1 X121.593 Y79.181 E.03198
G1 X125.652 Y79.182 E.12725
G1 X127.17 Y79.331 E.04785
G1 X128.466 Y79.689 E.04215
G1 X129.593 Y80.198 E.03878
G1 X130.862 Y81.046 E.04784
G1 X131.76 Y81.889 E.03863
G1 X132.588 Y82.949 E.04217
G1 X133.191 Y84.029 E.03878
G1 X133.705 Y85.466 E.04785
G1 X133.887 Y86.384 E.02934
G1 X133.97 Y87.5 E.03508
G1 X133.969 Y103.665 E.50686
G1 X133.883 Y104.322 E.02076
G1 X133.621 Y105.053 E.02436
G1 X133.271 Y105.616 E.02078
G1 X132.781 Y106.131 E.02228
G1 X131.786 Y106.717 E.03622
G1 X130.653 Y106.934 E.03617
G1 X96.593 Y106.935 E1.06791
G1 X95.878 Y106.858 E.02258
G1 X95.204 Y106.636 E.02225
G1 X94.536 Y106.235 E.02442
G1 X94.021 Y105.745 E.02229
G1 X93.452 Y104.796 E.0347
G1 X93.224 Y103.783 E.03257
G1 X93.216 Y93.558 E.32059
G1 X93.573 Y92.368 E.03895
M204 S1000
; printing object webcam-raiser_v2.stl id:0 copy 0
;WIPE_START
G1 F8640
G1 X93.608 Y92.251 E-.0282
G1 X94.597 Y91.4 E-.30137
G1 X96.29 Y90.618 E-.43043
;WIPE_END
G1 E-.04 F2100
G1 Z.6 F720
G1 X96.758 Y99.454 F10800
G1 Z.2 F720
G1 E.8 F2100
M204 S800
;TYPE:Perimeter
;WIDTH:0.419999
G1 F1200
G1 X96.807 Y99.534 E.00294
G1 X97.372 Y99.722 E.0187
G1 X115.899 Y99.715 E.58089
G1 X116.69 Y99.637 E.02492
G1 X117.379 Y99.495 E.02206
G1 X118.071 Y99.278 E.02275
G1 X119.03 Y98.841 E.03304
G1 X119.898 Y98.284 E.03233
G1 X120.438 Y97.834 E.02204
G1 X120.932 Y97.334 E.02204
G1 X121.374 Y96.788 E.02204
G1 X121.761 Y96.201 E.02204
G1 X122.089 Y95.579 E.02204
G1 X122.353 Y94.928 E.02204
G1 X122.553 Y94.254 E.02204
G1 X122.688 Y93.541 E.02275
G1 X122.758 Y92.561 E.0308
G1 X122.758 Y82.724 E.30844
G1 X125.818 Y82.729 E.09595
G1 X126.353 Y82.795 E.01689
G1 X126.985 Y82.929 E.02027
G1 X127.472 Y83.116 E.01636
G1 X127.927 Y83.33 E.01575
G1 X128.464 Y83.668 E.01989
G1 X129.011 Y84.141 E.02268
G1 X129.476 Y84.679 E.02229
G1 X129.742 Y85.099 E.01559
G1 X130.055 Y85.697 E.02117
G1 X130.282 Y86.384 E.02268
G1 X130.405 Y87.096 E.02265
G1 X130.429 Y87.678 E.01828
G1 X130.429 Y103.394 E.49276
G1 X96.758 Y103.394 E1.05575
G1 X96.758 Y99.514 E.12165
M204 S1000
G1 X96.838 Y98.937 F10800
M204 S800
;WIDTH:0.45028
G1 F1200
G1 X97.033 Y99.232 E.01198
;WIDTH:0.419999
G1 X97.372 Y99.345 E.01122
G1 X115.954 Y99.335 E.58262
G1 X116.616 Y99.267 E.02087
G1 X117.27 Y99.134 E.0209
G1 X117.918 Y98.933 E.0213
G1 X118.829 Y98.523 E.0313
G1 X119.658 Y97.992 E.03088
G1 X120.172 Y97.568 E.02088
G1 X120.641 Y97.095 E.02088
M73 P0 R73
G1 X121.061 Y96.578 E.02088
G1 X121.429 Y96.023 E.02088
G1 X121.74 Y95.434 E.02088
G1 X121.993 Y94.818 E.02088
G1 X122.183 Y94.18 E.02088
G1 X122.312 Y93.513 E.0213
G1 X122.381 Y92.561 E.02992
G1 X122.381 Y82.346 E.32028
G1 X125.841 Y82.352 E.10851
G1 X126.399 Y82.421 E.01761
G1 X127.099 Y82.568 E.02245
G1 X127.828 Y82.849 E.02449
G1 X128.273 Y83.087 E.01582
G1 X128.692 Y83.367 E.01581
G1 X129.279 Y83.873 E.02428
G1 X129.779 Y84.454 E.02404
G1 X130.06 Y84.897 E.01646
G1 X130.406 Y85.557 E.02334
G1 X130.649 Y86.292 E.02428
G1 X130.781 Y87.054 E.02425
G1 X130.806 Y87.678 E.01958
G1 X130.806 Y103.458 E.49476
G1 X130.791 Y103.56 E.00325
G1 X130.696 Y103.731 E.00614
G1 X130.548 Y103.771 E.0048
G1 X96.694 Y103.771 E1.06148
G1 X96.591 Y103.756 E.00324
G1 X96.42 Y103.661 E.00614
G1 X96.381 Y103.512 E.00481
G1 X96.381 Y99.558 E.12398
;WIDTH:0.444381
G1 X96.393 Y94.357 E.17362
G1 X96.794 Y94.357 E.0134
G1 X96.794 Y98.779 E.14762
;WIDTH:0.45028
G1 X96.805 Y98.887 E.00366
M204 S1000
G1 X97.183 Y98.779 F10800
M204 S800
;TYPE:External perimeter
;WIDTH:0.419999
G1 F1200
G1 X97.259 Y98.93 E.00529
G1 X97.372 Y98.968 E.00374
G1 X115.899 Y98.961 E.58089
G1 X116.543 Y98.897 E.02029
G1 X117.16 Y98.773 E.01974
G1 X117.766 Y98.588 E.01985
G1 X118.627 Y98.204 E.02957
G1 X119.419 Y97.701 E.02943
G1 X119.905 Y97.301 E.01972
G1 X120.349 Y96.856 E.01972
G1 X120.747 Y96.369 E.01972
G1 X121.096 Y95.845 E.01972
G1 X121.392 Y95.29 E.01972
G1 X121.632 Y94.709 E.01972
G1 X121.813 Y94.106 E.01972
G1 X121.936 Y93.485 E.01986
G1 X122.003 Y92.561 E.02905
G1 X122.003 Y81.968 E.33212
G1 X125.865 Y81.975 E.12107
G1 X126.686 Y82.076 E.02595
G1 X127.213 Y82.208 E.01704
G1 X127.985 Y82.506 E.02594
G1 X128.467 Y82.763 E.01713
G1 X128.921 Y83.067 E.01712
G1 X129.546 Y83.606 E.02588
G1 X130.083 Y84.229 E.02578
G1 X130.524 Y84.925 E.02585
G1 X130.756 Y85.416 E.01704
G1 X131.015 Y86.2 E.02588
G1 X131.156 Y87.012 E.02585
G1 X131.183 Y87.678 E.02089
G1 X131.183 Y103.458 E.49476
G1 X131.123 Y103.806 E.01108
G1 X131.008 Y103.946 E.00569
G1 X130.838 Y104.082 E.00684
G1 X130.576 Y104.148 E.00846
G1 X96.694 Y104.148 E1.06235
G1 X96.346 Y104.087 E.01108
G1 X96.205 Y103.972 E.00569
G1 X96.069 Y103.802 E.00684
G1 X96.003 Y103.54 E.00847
G1 X96.003 Y93.968 E.30013
G1 X97.183 Y93.968 E.037
M73 Q0 S73
G1 X97.183 Y98.719 E.14898
M204 S1000
G1 X97.08 Y98.913 F10800
;WIPE_START
G1 F8640
G1 X97.259 Y98.93 E-.05171
G1 X97.372 Y98.968 E-.02754
G1 X100.32 Y98.967 E-.68075
;WIPE_END
G1 E-.04 F2100
G1 Z.6 F720
G1 X129.679 Y85.211 F10800
G1 Z.2 F720
G1 E.8 F2100
M204 S800
;TYPE:Solid infill
;WIDTH:0.423899
G1 F1200
G1 X128.795 Y84.328 E.03957
G1 X128.292 Y83.894 E.02106
G1 X127.933 Y83.654 E.01366
G1 X127.553 Y83.451 E.01367
G1 X127.27 Y83.342 E.00959
G1 X129.822 Y85.893 E.11431
G1 X130.007 Y86.453 E.01867
G1 X130.041 Y86.651 E.00638
G1 X126.486 Y83.096 E.15926
G1 X125.872 Y83.021 E.01962
G1 X130.131 Y87.28 E.19082
G1 X130.146 Y87.834 E.01756
G1 X125.323 Y83.011 E.21608
G1 X124.784 Y83.01 E.0171
G1 X130.146 Y88.373 E.24026
G1 X130.146 Y88.912 E.01707
G1 X124.244 Y83.009 E.26443
G1 X123.704 Y83.008 E.0171
G1 X130.146 Y89.45 E.28861
G1 X130.146 Y89.989 E.01707
G1 X123.165 Y83.007 E.31279
G1 X123.04 Y83.007 E.00393
G1 X123.04 Y83.422 E.01314
G1 X130.146 Y90.528 E.31835
G1 X130.146 Y91.067 E.01707
G1 X123.04 Y83.961 E.31835
G1 X123.04 Y84.499 E.01707
G1 X130.146 Y91.606 E.31835
G1 X130.146 Y92.144 E.01707
G1 X123.04 Y85.038 E.31835
G1 X123.04 Y85.577 E.01707
G1 X130.146 Y92.683 E.31835
G1 X130.146 Y93.222 E.01707
G1 X123.04 Y86.116 E.31835
G1 X123.04 Y86.655 E.01707
G1 X130.146 Y93.761 E.31835
G1 X130.146 Y94.299 E.01707
M73 Q1 S73
G1 X123.04 Y87.193 E.31835
G1 X123.04 Y87.732 E.01707
M73 P1 R73
G1 X130.146 Y94.838 E.31835
G1 X130.146 Y95.377 E.01707
G1 X123.04 Y88.271 E.31835
G1 X123.04 Y88.81 E.01707
G1 X130.146 Y95.916 E.31835
G1 X130.146 Y96.455 E.01707
G1 X123.04 Y89.349 E.31835
G1 X123.04 Y89.887 E.01707
G1 X130.146 Y96.993 E.31835
G1 X130.146 Y97.532 E.01707
G1 X123.04 Y90.426 E.31835
G1 X123.04 Y90.965 E.01707
G1 X130.146 Y98.071 E.31835
G1 X130.146 Y98.61 E.01707
G1 X123.04 Y91.504 E.31835
G1 X123.04 Y92.042 E.01707
G1 X130.146 Y99.149 E.31835
G1 X130.146 Y99.687 E.01707
G1 X123.039 Y92.58 E.31841
G1 X123 Y93.079 E.01587
G1 X130.146 Y100.226 E.32017
G1 X130.146 Y100.765 E.01707
G1 X122.961 Y93.579 E.32193
G1 X122.882 Y94.039 E.01478
G1 X130.146 Y101.304 E.32547
G1 X130.146 Y101.842 E.01707
G1 X122.784 Y94.48 E.32983
G1 X122.656 Y94.891 E.01363
G1 X130.146 Y102.381 E.33557
G1 X130.146 Y102.92 E.01707
G1 X122.514 Y95.287 E.34194
G1 X122.354 Y95.666 E.01302
G1 X129.799 Y103.111 E.33353
G1 X129.26 Y103.111 E.01707
G1 X122.175 Y96.026 E.31742
G1 X121.986 Y96.376 E.0126
G1 X128.721 Y103.111 E.30173
G1 X128.182 Y103.111 E.01707
G1 X121.77 Y96.699 E.28726
G1 X121.553 Y97.02 E.01229
G1 X127.643 Y103.111 E.27286
G1 X127.105 Y103.111 E.01707
G1 X121.309 Y97.316 E.25963
G1 X121.064 Y97.609 E.01212
G1 X126.566 Y103.111 E.2465
G1 X126.027 Y103.111 E.01707
G1 X120.792 Y97.876 E.23452
G1 X120.518 Y98.14 E.01207
G1 X125.488 Y103.111 E.22269
G1 X124.95 Y103.111 E.01707
G1 X120.219 Y98.38 E.21195
G1 X119.915 Y98.615 E.01217
G1 X124.411 Y103.111 E.20141
G1 X123.872 Y103.111 E.01707
G1 X119.582 Y98.821 E.19219
G1 X119.249 Y99.027 E.0124
G1 X123.333 Y103.111 E.18298
G1 X122.794 Y103.111 E.01707
G1 X118.901 Y99.218 E.17441
G1 X118.526 Y99.381 E.01298
G1 X122.256 Y103.111 E.16711
G1 X121.717 Y103.111 E.01707
G1 X118.15 Y99.544 E.15981
G1 X117.744 Y99.677 E.01352
G1 X121.178 Y103.111 E.15383
G1 X120.639 Y103.111 E.01707
G1 X117.327 Y99.798 E.1484
G1 X116.877 Y99.888 E.01452
G1 X120.1 Y103.111 E.1444
G1 X119.562 Y103.111 E.01707
G1 X116.402 Y99.951 E.14157
G1 X115.904 Y99.992 E.01582
G1 X119.023 Y103.111 E.13973
G1 X118.484 Y103.111 E.01707
G1 X115.366 Y99.992 E.13971
G1 X114.827 Y99.993 E.01706
G1 X117.945 Y103.111 E.13969
G1 X117.407 Y103.111 E.01707
G1 X114.289 Y99.993 E.13968
G1 X113.75 Y99.994 E.01706
G1 X116.868 Y103.111 E.13966
G1 X116.329 Y103.111 E.01707
G1 X113.212 Y99.994 E.13964
G1 X112.674 Y99.994 E.01706
G1 X115.79 Y103.111 E.13963
G1 X115.251 Y103.111 E.01707
G1 X112.135 Y99.995 E.13961
G1 X111.597 Y99.995 E.01706
G1 X114.713 Y103.111 E.13959
G1 X114.174 Y103.111 E.01707
G1 X111.058 Y99.995 E.13958
G1 X110.52 Y99.996 E.01706
G1 X113.635 Y103.111 E.13956
G1 X113.096 Y103.111 E.01707
G1 X109.981 Y99.996 E.13954
G1 X109.443 Y99.997 E.01706
G1 X112.557 Y103.111 E.13953
G1 X112.019 Y103.111 E.01707
G1 X108.905 Y99.997 E.13951
G1 X108.366 Y99.997 E.01706
G1 X111.48 Y103.111 E.13949
G1 X110.941 Y103.111 E.01707
G1 X107.828 Y99.998 E.13948
G1 X107.289 Y99.998 E.01706
G1 X110.402 Y103.111 E.13946
G1 X109.864 Y103.111 E.01707
G1 X106.751 Y99.998 E.13944
G1 X106.213 Y99.999 E.01706
G1 X109.325 Y103.111 E.13943
G1 X108.786 Y103.111 E.01707
G1 X105.674 Y99.999 E.13941
G1 X105.136 Y100 E.01706
G1 X108.247 Y103.111 E.13939
G1 X107.708 Y103.111 E.01707
G1 X104.597 Y100 E.13938
G1 X104.059 Y100 E.01706
G1 X107.17 Y103.111 E.13936
G1 X106.631 Y103.111 E.01707
G1 X103.521 Y100.001 E.13934
G1 X102.982 Y100.001 E.01706
G1 X106.092 Y103.111 E.13933
G1 X105.553 Y103.111 E.01707
G1 X102.444 Y100.001 E.13931
G1 X101.905 Y100.002 E.01706
G1 X105.014 Y103.111 E.13929
G1 X104.476 Y103.111 E.01707
G1 X101.367 Y100.002 E.13928
G1 X100.828 Y100.002 E.01706
G1 X103.937 Y103.111 E.13926
G1 X103.398 Y103.111 E.01707
G1 X100.29 Y100.003 E.13924
G1 X99.752 Y100.003 E.01706
G1 X102.859 Y103.111 E.13923
G1 X102.321 Y103.111 E.01707
G1 X99.213 Y100.004 E.13921
G1 X98.675 Y100.004 E.01706
G1 X101.782 Y103.111 E.13919
G1 X101.243 Y103.111 E.01707
G1 X98.136 Y100.004 E.13918
G1 X97.598 Y100.005 E.01706
G1 X100.704 Y103.111 E.13916
G1 X100.165 Y103.111 E.01707
G1 X97.04 Y99.986 E.14
G1 X97.04 Y100.525 E.01707
G1 X99.627 Y103.111 E.11586
G1 X99.088 Y103.111 E.01707
G1 X97.04 Y101.064 E.09173
G1 X97.04 Y101.602 E.01707
G1 X98.549 Y103.111 E.06759
G1 X98.01 Y103.111 E.01707
G1 X97.04 Y102.141 E.04345
G1 X97.04 Y102.68 E.01707
G1 X97.641 Y103.281 E.02691
M204 S1000
; stop printing object webcam-raiser_v2.stl id:0 copy 0
M106 S84.15
;LAYER_CHANGE
;Z:0.4
;HEIGHT:0.2
;BEFORE_LAYER_CHANGE
G92 E0.0
;0.4


;WIPE_START
G1 F8640
G1 X97.04 Y102.68 E-.19618
G1 X97.04 Y102.141 E-.12441
G1 X98.01 Y103.111 E-.3167
G1 X98.542 Y103.111 E-.12271
;WIPE_END
G1 E-.04 F2100
G1 Z.6 F720
;AFTER_LAYER_CHANGE
;0.4
G1 X98.542 Y107.312 F10800
G1 Z.4 F720
G1 E.8 F2100
;TYPE:Skirt/Brim
;WIDTH:0.42
G1 F3000
G1 X96.593 Y107.312 E.06109
G1 X95.795 Y107.226 E.02518
G1 X95.051 Y106.98 E.02456
G1 X94.304 Y106.533 E.02732
G1 X93.735 Y105.991 E.02461
G1 X93.339 Y105.43 E.02155
G1 X93.1 Y104.932 E.01732
G1 X92.848 Y103.81 E.03604
G1 X92.839 Y93.558 E.32146
G1 X93.232 Y92.14 E.04612
G1 X94.439 Y91.057 E.05086
G1 X120.439 Y79.057 E.89785
G1 X121.593 Y78.804 E.03705
G1 X125.661 Y78.805 E.12754
G1 X127.235 Y78.96 E.04959
G1 X128.602 Y79.338 E.04446
G1 X129.779 Y79.87 E.04053
G1 X131.094 Y80.748 E.04958
G1 X132.033 Y81.629 E.04036
G1 X132.907 Y82.747 E.04449
G1 X133.535 Y83.876 E.04052
G1 X134.068 Y85.365 E.04959
G1 X134.262 Y86.338 E.03108
G1 X134.347 Y87.49 E.03624
G1 X134.339 Y103.809 E.51166
G1 X134.218 Y104.536 E.02309
G1 X133.936 Y105.267 E.02457
G1 X133.538 Y105.887 E.0231
G1 X133.027 Y106.416 E.02307
G1 X132.465 Y106.812 E.02156
G1 X131.922 Y107.069 E.01885
G1 X131.259 Y107.252 E.02154
G1 X130.662 Y107.311 E.01881
G1 X98.602 Y107.312 E1.00524
G1 X98.602 Y106.935 F10800
G1 F3000
G1 X96.593 Y106.935 E.06297
G1 X95.878 Y106.858 E.02258
G1 X95.204 Y106.636 E.02225
G1 X94.536 Y106.235 E.02442
G1 X94.021 Y105.745 E.02229
G1 X93.452 Y104.796 E.0347
G1 X93.224 Y103.783 E.03257
G1 X93.216 Y93.558 E.32059
G1 X93.608 Y92.251 E.04278
G1 X94.597 Y91.4 E.04092
G1 X120.597 Y79.4 E.89785
G1 X121.593 Y79.181 E.03198
G1 X125.652 Y79.182 E.12725
G1 X127.17 Y79.331 E.04785
G1 X128.466 Y79.689 E.04215
G1 X129.593 Y80.198 E.03878
G1 X130.862 Y81.046 E.04784
G1 X131.76 Y81.889 E.03863
G1 X132.588 Y82.949 E.04217
G1 X133.191 Y84.029 E.03878
G1 X133.705 Y85.466 E.04785
G1 X133.887 Y86.384 E.02934
G1 X133.97 Y87.5 E.03508
G1 X133.969 Y103.665 E.50686
G1 X133.883 Y104.322 E.02076
G1 X133.621 Y105.053 E.02436
G1 X133.271 Y105.616 E.02078
G1 X132.781 Y106.131 E.02228
G1 X131.786 Y106.717 E.03622
G1 X130.653 Y106.934 E.03617
G1 X98.662 Y106.935 E1.00306
; printing object webcam-raiser_v2.stl id:0 copy 0
;WIPE_START
G1 F8640
G1 X96.593 Y106.935 E-.47759
G1 X95.878 Y106.858 E-.16626
G1 X95.4 Y106.7 E-.11615
;WIPE_END
G1 E-.04 F2100
G1 Z.8 F720
G1 X96.894 Y99.273 F10800
G1 Z.4 F720
G1 E.8 F2100
M204 S800
;TYPE:Perimeter
;WIDTH:0.449999
G1 F2700
G1 X96.962 Y99.394 E.00468
G1 X97.572 Y99.597 E.02179
G1 X115.889 Y99.59 E.62001
G1 X116.675 Y99.512 E.02673
G1 X117.352 Y99.373 E.0234
G1 X118.034 Y99.158 E.0242
G1 X118.955 Y98.741 E.03422
G1 X119.565 Y98.367 E.02421
G1 X120.357 Y97.739 E.03421
G1 X120.842 Y97.247 E.02338
