; generated by PrusaSlicer 2.5.0+win64 on 2022-10-08 at 12:13:36 UTC


;
;
; 

; external perimeters extrusion width = 0.45mm
; perimeters extrusion width = 0.45mm
; infill extrusion width = 0.45mm
; solid infill extrusion width = 0.45mm
; top infill extrusion width = 0.40mm
; first layer extrusion width = 0.42mm

M73 P0 R226
M73 Q0 S227
M201 X1000 Y1000 Z200 E5000 ; sets maximum accelerations, mm/sec^2
M203 X200 Y200 Z12 E120 ; sets maximum feedrates, mm / sec
M204 P1250 R1250 T1250 ; sets acceleration (P, T) and retract acceleration (R), mm/sec^2
M205 X8.00 Y8.00 Z0.40 E4.50 ; sets the jerk limits, mm/sec
M205 S0 T0 ; sets the minimum extruding and travel feed rate, mm/sec
M107
;TYPE:Custom
M862.3 P "MK3S" ; printer model check
M862.1 P0.4 ; nozzle diameter check
M115 U3.11.0 ; tell printer latest fw version
G90 ; use absolute coordinates
M83 ; extruder relative mode
M104 S215 ; set extruder temp
M140 S60 ; set bed temp
M190 S60 ; wait for bed temp
M109 S215 ; wait for extruder temp
G28 W ; home all without mesh bed level
G80 ; mesh bed leveling

G1 Z0.2 F720
G1 Y-3 F1000 ; go outside print area
G92 E0
G1 X60 E9 F1000 ; intro line
G1 X100 E12.5 F1000 ; intro line

G92 E0
M221 S95

; Don't change E values below. Excessive value can damage the printer.

M907 E538 ; set extruder motor current
G21 ; set units to millimeters
G90 ; use absolute coordinates
M83 ; use relative distances for extrusion
M900 K0.05 ; Filament gcode LA 1.5
M900 K30 ; Filament gcode LA 1.0
M107
;LAYER_CHANGE
;Z:0.2
;HEIGHT:0.2
;BEFORE_LAYER_CHANGE
G92 E0.0
;0.2


G1 E-.8 F2100
G1 Z.4 F720
;AFTER_LAYER_CHANGE
;0.2
G1 X95.789 Y75.066 F10800
G1 Z.2 F720
G1 E.8 F2100
M204 S800
;TYPE:Skirt/Brim
;WIDTH:0.42
G1 F1200
G1 X96.139 Y74.639 E.01728
G1 X124.489 Y46.288 E1.25711
G1 X125.049 Y45.837 E.02257
G1 X125.639 Y45.534 E.02077
G1 X126.323 Y45.345 E.02228
G1 X126.984 Y45.301 E.02076
G1 X127.593 Y45.376 E.01924
G1 X128.223 Y45.579 E.02074
G1 X128.801 Y45.901 E.02075
G1 X129.223 Y46.247 E.01711
G1 X166.105 Y83.128 E1.63539
G1 X166.557 Y83.689 E.02258
G1 X166.858 Y84.278 E.02075
G1 X167.04 Y84.915 E.02077
G1 X167.093 Y85.574 E.02073
G1 X166.992 Y86.339 E.02418
G1 X155.171 Y133.37 E1.52051
G1 X154.849 Y134.188 E.02756
G1 X154.282 Y134.941 E.02954
G1 X127.346 Y161.876 E1.19437
G1 X126.827 Y162.287 E.02076
G1 X126.238 Y162.589 E.02075
G1 X125.601 Y162.77 E.02076
G1 X124.942 Y162.824 E.02076
G1 X124.399 Y162.77 E.01711
G1 X123.762 Y162.589 E.02075
G1 X123.214 Y162.313 E.01924
G1 X122.689 Y161.91 E.02075
G1 X113.379 Y152.601 E.4128
G1 X112.942 Y152.041 E.02228
G1 X112.609 Y151.337 E.0244
G1 X95.275 Y77.731 E2.371
G1 X95.192 Y76.901 E.02616
G1 X95.275 Y76.239 E.02094
G1 X95.466 Y75.65 E.01942
G1 X95.76 Y75.118 E.01904
M204 S1000
; printing object spongeholder-Body.stl id:0 copy 0
;WIPE_START
G1 F8640
G1 X96.139 Y74.639 E-.14092
G1 X98.034 Y72.743 E-.61908
;WIPE_END
G1 E-.04 F2100
G1 Z.6 F720
G1 X100.242 Y76.57 F10800
G1 Z.2 F720
G1 E.8 F2100
M204 S800
;TYPE:Perimeter
;WIDTH:0.537742
G1 F1200
G1 X100.224 Y76.677 E.00443
;WIDTH:0.498494
G1 X100.197 Y76.831 E.00592
;WIDTH:0.459247
G1 X100.171 Y76.985 E.00541
;WIDTH:0.419999
G1 X100.424 Y77.598 E.0208
G1 X151.666 Y132.549 E2.35583
G1 X150.378 Y133.838 E.05714
;WIDTH:0.46442
G1 X150.271 Y133.913 E.00458
;WIDTH:0.508841
G1 X150.164 Y133.988 E.00506
;WIDTH:0.553262
G1 X150.057 Y134.064 E.00554
;WIDTH:0.597683
G1 X149.951 Y134.139 E.00603
G1 X149.607 Y134.504 E.02311
;WIDTH:0.567301
G1 X126.951 Y157.16 E1.39706
;WIDTH:0.600744
G1 X126.554 Y157.534 E.0253
G1 X126.5 Y157.619 E.00466
;WIDTH:0.55595
G1 X126.447 Y157.704 E.00429
;WIDTH:0.511156
G1 X126.393 Y157.789 E.00392
;WIDTH:0.466362
G1 X126.34 Y157.874 E.00354
;WIDTH:0.421568
G1 X126.087 Y158.128 E.01129
;WIDTH:0.419999
G1 X125 Y159.215 E.04818
G1 X123.556 Y157.771 E.06401
;WIDTH:0.460799
G1 X123.486 Y157.672 E.00422
;WIDTH:0.501599
G1 X123.416 Y157.573 E.00463
;WIDTH:0.542398
G1 X123.346 Y157.474 E.00504
;WIDTH:0.570048
G1 X123.133 Y157.242 E.01383
G1 X116.331 Y150.441 E.4216
;WIDTH:0.566952
G1 X116.146 Y150.256 E.01137
G1 X116.515 Y149.884 E.02283
G1 X116.701 Y150.07 E.01145
;WIDTH:0.570048
G1 X123.506 Y156.869 E.4216
;WIDTH:0.579758
G1 X123.638 Y156.986 E.00787
G1 X123.74 Y157.025 E.0049
;WIDTH:0.539819
G1 X123.843 Y157.064 E.00453
;WIDTH:0.499879
G1 X123.945 Y157.103 E.00417
;WIDTH:0.459939
G1 X124.048 Y157.142 E.00381
;WIDTH:0.419999
G1 X124.651 Y157.335 E.01986
G1 X124.962 Y157.36 E.00979
G1 X125.556 Y157.29 E.01874
;WIDTH:0.465186
G1 X125.715 Y157.246 E.00578
;WIDTH:0.510372
G1 X125.873 Y157.201 E.0064
;WIDTH:0.555558
G1 X126.032 Y157.157 E.00702
;WIDTH:0.600744
G1 X126.19 Y157.112 E.00764
G1 X126.58 Y156.789 E.02348
;WIDTH:0.567301
G1 X149.236 Y134.133 E1.39706
;WIDTH:0.597683
G1 X149.531 Y133.778 E.02128
G1 X149.55 Y133.701 E.00366
;WIDTH:0.553262
G1 X149.57 Y133.624 E.00337
;WIDTH:0.508841
G1 X149.589 Y133.547 E.00307
;WIDTH:0.46442
G1 X149.608 Y133.47 E.00278
;WIDTH:0.419999
G1 X149.772 Y132.934 E.01757
G1 X149.808 Y132.591 E.01082
G1 X149.755 Y132.087 E.01589
G1 X149.589 Y131.594 E.01631
G1 X149.237 Y131.08 E.01953
G1 X98.796 Y76.989 E2.31897
G1 X99.189 Y76.596 E.01742
;WIDTH:0.4691
G1 X99.467 Y76.352 E.0131
;WIDTH:0.5182
G1 X99.745 Y76.109 E.01461
;WIDTH:0.567301
G1 X100.024 Y75.866 E.01612
G1 X125.787 Y50.102 E1.58867
G1 X126.019 Y49.835 E.01543
;WIDTH:0.518201
G1 X126.252 Y49.568 E.01399
;WIDTH:0.4691
G1 X126.484 Y49.301 E.01254
;WIDTH:0.419999
G1 X126.877 Y48.908 E.01741
G1 X127.269 Y49.301 E.01741
;WIDTH:0.4691
G1 X127.502 Y49.568 E.01254
;WIDTH:0.518201
G1 X127.734 Y49.835 E.01399
;WIDTH:0.567302
G1 X127.966 Y50.102 E.01543
G1 X163.193 Y85.328 E2.17219
;WIDTH:0.566791
G1 X163.377 Y85.512 E.01132
G1 X163.009 Y85.885 E.02282
G1 X162.823 Y85.699 E.0115
;WIDTH:0.567302
G1 X127.595 Y50.473 E2.17219
G1 X127.356 Y50.398 E.01094
;WIDTH:0.518201
G1 X127.116 Y50.323 E.00992
;WIDTH:0.4691
G1 X126.877 Y50.249 E.00889
G1 X126.637 Y50.323 E.00889
;WIDTH:0.518201
G1 X126.398 Y50.398 E.00992
;WIDTH:0.567301
G1 X126.158 Y50.473 E.01094
G1 X100.394 Y76.236 E1.58867
;WIDTH:0.576989
G1 X100.277 Y76.369 E.00785
G1 X100.252 Y76.511 E.00643
M204 S1000
G1 X100.681 Y76.593 F10800
M204 S800
;WIDTH:0.419999
G1 F1200
G1 X100.65 Y76.63 E.00151
G1 X100.548 Y76.973 E.01121
G1 X100.699 Y77.341 E.01248
G1 X151.972 Y132.324 E2.35721
G1 X152.096 Y132.528 E.0075
G1 X152.018 Y132.731 E.0068
G1 X125.192 Y159.556 E1.18949
G1 X125 Y159.649 E.00669
G1 X124.808 Y159.556 E.00669
G1 X115.704 Y150.451 E.4037
G1 X115.604 Y150.255 E.00692
G1 X115.661 Y150.105 E.00503
G1 X116.333 Y149.429 E.02989
G1 X116.545 Y149.345 E.00716
G1 X116.692 Y149.424 E.00524
G1 X123.825 Y156.549 E.3161
G1 X124.242 Y156.818 E.01556
G1 X124.743 Y156.969 E.01641
G1 X125.266 Y156.968 E.01641
G1 X125.766 Y156.814 E.01641
G1 X126.261 Y156.471 E.0189
G1 X148.918 Y133.814 E1.00462
G1 X149.257 Y133.332 E.01849
G1 X149.41 Y132.826 E.01657
G1 X149.432 Y132.621 E.00649
G1 X149.38 Y132.127 E.01557
G1 X149.242 Y131.742 E.01282
G1 X148.961 Y131.337 E.01545
G1 X98.466 Y77.187 E2.32148
G1 X98.367 Y76.986 E.00702
M73 P0 R225
M73 Q0 S226
G1 X98.459 Y76.792 E.00674
G1 X126.685 Y48.567 E1.25155
G1 X126.894 Y48.476 E.00714
G1 X127.064 Y48.563 E.006
G1 X163.511 Y85.01 E1.61612
G1 X163.88 Y85.405 E.01695
G1 X163.914 Y85.559 E.00494
G1 X163.882 Y85.641 E.00278
G1 X163.193 Y86.341 E.03078
G1 X163.025 Y86.424 E.00589
G1 X162.847 Y86.36 E.00592
G1 X127.277 Y50.791 E1.57721
G1 X126.877 Y50.626 E.01357
G1 X126.477 Y50.791 E.01357
G1 X100.72 Y76.548 E1.14209
M204 S1000
G1 X100.98 Y76.822 F10800
M204 S800
;TYPE:External perimeter
G1 F1200
G1 X100.925 Y76.961 E.0047
G1 X100.975 Y77.084 E.00416
G1 X152.307 Y132.131 E2.35995
G1 X152.472 Y132.491 E.01243
G1 X152.424 Y132.756 E.00842
G1 X152.301 Y132.981 E.00806
G1 X125.48 Y159.802 E1.18929
G1 X125.224 Y159.989 E.00992
G1 X125 Y160.033 E.00717
G1 X124.776 Y159.989 E.00717
G1 X124.567 Y159.849 E.00787
G1 X115.438 Y150.718 E.40485
G1 X115.255 Y150.451 E.01015
G1 X115.237 Y150.16 E.00913
G1 X115.358 Y149.875 E.00971
G1 X116.23 Y149.035 E.03798
G1 X116.407 Y148.991 E.00571
G1 X116.655 Y148.977 E.00779
G1 X116.943 Y149.141 E.01039
G1 X124.092 Y156.282 E.31681
G1 X124.436 Y156.495 E.01268
G1 X124.834 Y156.603 E.01296
G1 X125.248 Y156.591 E.01296
G1 X125.639 Y156.459 E.01296
G1 X125.995 Y156.204 E.01372
G1 X148.651 Y133.548 E1.00462
G1 X148.885 Y133.234 E.01228
G1 X149.049 Y132.719 E.01694
G1 X149.005 Y132.167 E.01736
G1 X148.895 Y131.89 E.00933
G1 X148.685 Y131.594 E.01138
G1 X98.198 Y77.452 E2.32113
G1 X98.029 Y77.216 E.00909
G1 X97.982 Y76.989 E.00728
G1 X98.026 Y76.763 E.00723
G1 X98.167 Y76.552 E.00795
G1 X126.397 Y48.321 E1.25179
G1 X126.65 Y48.136 E.00983
G1 X126.908 Y48.091 E.00819
G1 X127.129 Y48.147 E.00714
G1 X127.308 Y48.273 E.00689
G1 X163.778 Y84.743 E1.61713
G1 X164.193 Y85.195 E.01924
G1 X164.281 Y85.407 E.00719
G1 X164.285 Y85.623 E.00679
G1 X164.189 Y85.867 E.00822
G1 X163.435 Y86.632 E.03366
G1 X163.152 Y86.793 E.0102
G1 X162.856 Y86.781 E.00931
G1 X162.606 Y86.653 E.00878
G1 X127.01 Y51.058 E1.57837
G1 X126.877 Y51.003 E.00452
G1 X126.743 Y51.058 E.00452
G1 X101.022 Y76.779 E1.14052
M204 S1000
G1 X100.83 Y76.823 F10800
;WIPE_START
G1 F8640
G1 X100.925 Y76.961 E-.04761
G1 X100.975 Y77.084 E-.03064
G1 X102.989 Y79.243 E-.68175
;WIPE_END
G1 E-.04 F2100
G1 Z.6 F720
G1 X99.714 Y76.364 F10800
G1 Z.2 F720
G1 E.8 F2100
M204 S800
;TYPE:Solid infill
;WIDTH:0.420754
G1 F1200
G1 X99.928 Y76.578 E.00952
G1 X99.886 Y77.005 E.01346
G1 X99.932 Y77.117 E.00381
G1 X99.521 Y76.705 E.01828
G1 X99.383 Y76.802 E.00528
G1 X99.233 Y76.952 E.00667
G1 X102.216 Y79.934 E.13252
G1 X109.599 Y87.852 E.34013
G1 X105.365 Y83.618 E.18812
G1 X112.749 Y91.536 E.34013
G1 X116.983 Y95.77 E.18812
G1 X124.366 Y103.688 E.34013
G1 X120.132 Y99.454 E.18812
G1 X127.516 Y107.372 E.34013
G1 X131.75 Y111.606 E.18812
G1 X139.133 Y119.524 E.34013
G1 X134.899 Y115.29 E.18812
G1 X142.283 Y123.208 E.34013
G1 X146.517 Y127.442 E.18812
G1 X151.273 Y132.542 E.21909
G1 X151.178 Y132.637 E.00422
G1 X149.496 Y130.955 E.07474
G1 X149.718 Y131.25 E.0116
G1 X149.847 Y131.478 E.00824
G1 X149.947 Y131.712 E.00799
G1 X150.027 Y132.021 E.01003
G1 X150.911 Y132.904 E.03925
G1 X150.644 Y133.171 E.01187
G1 X150.087 Y132.614 E.02475
G1 X150.045 Y133.007 E.0124
G1 X150.022 Y133.084 E.00252
G1 X150.377 Y133.439 E.01577
G1 X150.102 Y133.699 E.01187
G1 X149.761 Y133.357 E.01519
M204 S1000
;WIPE_START
G1 F8640
G1 X150.102 Y133.699 E-.11166
G1 X150.377 Y133.439 E-.08727
G1 X150.022 Y133.084 E-.11592
G1 X150.045 Y133.007 E-.01855
G1 X150.087 Y132.614 E-.09112
G1 X150.644 Y133.171 E-.1819
G1 X150.911 Y132.904 E-.08724
G1 X150.708 Y132.701 E-.06634
;WIPE_END
G1 E-.04 F2100
G1 Z.6 F720
G1 X126.237 Y157.816 F10800
G1 Z.2 F720
G1 E.8 F2100
M204 S800
;WIDTH:0.436227
G1 F1200
G1 X125.893 Y157.471 E.01593
G1 X125.644 Y157.559 E.00861
G1 X125.46 Y157.596 E.00613
G1 X125.839 Y157.974 E.01752
G1 X125.561 Y158.253 E.01286
G1 X124.952 Y157.644 E.02816
G1 X124.589 Y157.611 E.01193
G1 X124.288 Y157.535 E.01017
G1 X125.284 Y158.531 E.04605
G1 X125.006 Y158.809 E.01286
G1 X123.398 Y157.202 E.07436
M204 S1000
;WIPE_START
G1 F8640
G1 X125.006 Y158.809 E-.52503
G1 X125.284 Y158.531 E-.09082
G1 X124.842 Y158.09 E-.14416
;WIPE_END
G1 E-.04 F2100
G1 Z.6 F720
G1 X127.68 Y50.165 F10800
G1 Z.2 F720
G1 E.8 F2100
M204 S800
;WIDTH:0.495415
G1 F1200
G1 X126.85 Y49.335 E.04415
G1 X126.689 Y49.496 E.00858
G1 X126.552 Y49.677 E.00852
G1 X126.846 Y49.971 E.01563
G1 X126.334 Y50.099 E.01984
G1 X126.155 Y49.92 E.00952
M204 S1000
; stop printing object spongeholder-Body.stl id:0 copy 0
M106 S84.15
;LAYER_CHANGE
;Z:0.4
;HEIGHT:0.2
;BEFORE_LAYER_CHANGE
G92 E0.0
;0.4


;WIPE_START
G1 F8640
G1 X126.334 Y50.099 E-.05844
G1 X126.846 Y49.971 E-.12176
G1 X126.552 Y49.677 E-.09593
G1 X126.689 Y49.496 E-.0523
G1 X126.85 Y49.335 E-.05268
G1 X127.68 Y50.165 E-.27095
;WIPE_END
G1 E-.14794 F2100
G1 Z.6 F720
;AFTER_LAYER_CHANGE
;0.4
G1 X130.41 Y47.434 F10800
G1 Z.4 F720
G1 E.8 F2100
;TYPE:Skirt/Brim
;WIDTH:0.42
G1 F3000
G1 X166.105 Y83.128 E1.58275
G1 X166.557 Y83.689 E.02258
G1 X166.858 Y84.278 E.02075
G1 X167.04 Y84.915 E.02077
G1 X167.093 Y85.574 E.02073
G1 X166.992 Y86.339 E.02418
G1 X155.171 Y133.37 E1.52051
G1 X154.849 Y134.188 E.02756
G1 X154.282 Y134.941 E.02954
G1 X127.346 Y161.876 E1.19437
G1 X126.827 Y162.287 E.02076
G1 X126.238 Y162.589 E.02075
G1 X125.601 Y162.77 E.02076
G1 X124.942 Y162.824 E.02076
G1 X124.399 Y162.77 E.01711
G1 X123.762 Y162.589 E.02075
G1 X123.214 Y162.313 E.01924
G1 X122.689 Y161.91 E.02075
G1 X113.379 Y152.601 E.4128
G1 X112.942 Y152.041 E.02228
G1 X112.609 Y151.337 E.0244
G1 X95.275 Y77.731 E2.371
G1 X95.192 Y76.901 E.02616
G1 X95.275 Y76.239 E.02094
G1 X95.466 Y75.65 E.01942
G1 X95.789 Y75.066 E.02092
G1 X96.139 Y74.639 E.01728
G1 X124.489 Y46.288 E1.25711
G1 X125.049 Y45.837 E.02257
G1 X125.639 Y45.534 E.02077
G1 X126.323 Y45.345 E.02228
G1 X126.984 Y45.301 E.02076
G1 X127.593 Y45.376 E.01924
G1 X128.223 Y45.579 E.02074
G1 X128.801 Y45.901 E.02075
G1 X129.223 Y46.247 E.01711
G1 X130.367 Y47.392 E.05076
; printing object spongeholder-Body.stl id:0 copy 0
;WIPE_START
G1 F8640
G1 X132.695 Y49.719 E-.76
;WIPE_END
G1 E-.04 F2100
G1 Z.8 F720
G1 X100.58 Y76.381 F10800
G1 Z.4 F720
G1 E.8 F2100
M204 S800
;TYPE:Perimeter
;WIDTH:0.449999
G1 F3600
G1 X100.44 Y76.599 E.00876
G1 X100.374 Y76.985 E.01328
G1 X100.647 Y77.654 E.02445
G1 X151.82 Y132.531 E2.53984
G1 X151.821 Y132.571 E.00134
G1 X125 Y159.377 E1.28356
G1 X116.191 Y150.582 E.42136
G1 X115.884 Y150.24 E.01555
G1 X116.532 Y149.621 E.03034
G1 X123.595 Y156.682 E.33806
G1 X123.998 Y156.974 E.01684
G1 X124.341 Y157.121 E.01263
G1 X125 Y157.244 E.0227
G1 X125.543 Y157.165 E.01856
G1 X126.066 Y156.939 E.0193
G1 X126.441 Y156.648 E.01606
G1 X149.095 Y133.994 E1.08442
G1 X149.362 Y133.66 E.01448
G1 X149.586 Y133.182 E.01786
G1 X149.685 Y132.588 E.02038
G1 X149.627 Y132.064 E.01787
G1 X149.506 Y131.734 E.01188
G1 X149.144 Y131.163 E.02289
G1 X99.105 Y77.503 E2.4835
G1 X98.655 Y77.019 E.02237
G1 X98.668 Y76.94 E.00271
G1 X126.877 Y48.746 E1.34998
G1 X163.648 Y85.517 E1.76022
G1 X162.996 Y86.152 E.0308
G1 X127.596 Y50.755 E1.69451
G1 X127.251 Y50.528 E.01397
G1 X126.877 Y50.457 E.01291
G1 X126.502 Y50.528 E.01291
G1 X126.157 Y50.755 E.01397
G1 X100.671 Y76.24 E1.21998
G1 X100.613 Y76.331 E.00365
M204 S1000
G1 X100.914 Y76.599 F10800
M204 S800
G1 F3600
G1 X100.82 Y76.743 E.00582
G1 X100.781 Y76.975 E.00797
G1 X100.944 Y77.376 E.01467
G1 X152.118 Y132.254 E2.53984
G1 X152.229 Y132.419 E.00672
G1 X152.248 Y132.631 E.00724
G1 X152.127 Y132.841 E.00818
G1 X125.336 Y159.631 E1.28244
G1 X125.136 Y159.776 E.00837
G1 X124.932 Y159.79 E.00692
G1 X124.697 Y159.664 E.00902
G1 X115.596 Y150.562 E.43567
G1 X115.476 Y150.392 E.00705
G1 X115.46 Y150.221 E.00581
G1 X115.542 Y150.007 E.00778
G1 X115.902 Y149.645 E.01727
G1 X116.367 Y149.217 E.0214
G1 X116.577 Y149.193 E.00717
G1 X116.802 Y149.315 E.00866
G1 X123.883 Y156.394 E.33891
G1 X123.976 Y156.47 E.00405
M73 Q0 S225
G1 X124.43 Y156.724 E.01762
G1 X124.867 Y156.822 E.01516
G1 X125.26 Y156.814 E.0133
G1 X125.687 Y156.681 E.01516
G1 X126.153 Y156.36 E.01914
G1 X148.807 Y133.706 E1.08442
G1 X149.094 Y133.308 E.01664
G1 X149.252 Y132.852 E.01631
G1 X149.272 Y132.385 E.01581
G1 X149.154 Y131.939 E.01562
G1 X148.846 Y131.441 E.01984
G1 X98.807 Y77.781 E2.4835
G1 X98.243 Y77.132 E.02911
G1 X98.226 Y76.919 E.00725
G1 X98.352 Y76.681 E.0091
G1 X126.084 Y48.949 E1.32752
G1 X126.668 Y48.396 E.02722
M73 P0 R224
G1 X126.91 Y48.321 E.00857
G1 X127.18 Y48.459 E.01027
G1 X163.901 Y85.181 E1.75783
G1 X164.046 Y85.38 E.00833
G1 X164.063 Y85.588 E.00705
G1 X164.005 Y85.734 E.00533
G1 X163.295 Y86.458 E.03433
G1 X163.01 Y86.586 E.01057
G1 X162.752 Y86.485 E.00937
G1 X127.308 Y51.042 E1.69664
G1 X127.101 Y50.906 E.00838
G1 X126.877 Y50.864 E.00774
G1 X126.652 Y50.906 E.00775
G1 X126.445 Y51.042 E.00838
G1 X100.946 Y76.548 E1.22078
M204 S1000
G1 X101.247 Y76.816 F10800
M204 S800
;TYPE:External perimeter
G1 F2100
G1 X101.187 Y76.965 E.00543
G1 X101.242 Y77.099 E.00489
G1 X151.843 Y131.361 E2.51139
