; generated by PrusaSlicer 2.5.0+win64 on 2022-10-06 at 19:29:01 UTC


;
;
; 

; external perimeters extrusion width = 0.45mm
; perimeters extrusion width = 0.45mm
; infill extrusion width = 0.45mm
; solid infill extrusion width = 0.45mm
; top infill extrusion width = 0.40mm
; first layer extrusion width = 0.42mm

; external perimeters extrusion width = 0.45mm
; perimeters extrusion width = 0.45mm
; infill extrusion width = 0.45mm
; solid infill extrusion width = 0.45mm
; top infill extrusion width = 0.40mm
; first layer extrusion width = 0.42mm

M73 P0 R32
M73 Q0 S32
M201 X1000 Y1000 Z200 E5000 ; sets maximum accelerations, mm/sec^2
M203 X200 Y200 Z12 E120 ; sets maximum feedrates, mm / sec
M204 P1250 R1250 T1250 ; sets acceleration (P, T) and retract acceleration (R), mm/sec^2
M205 X8.00 Y8.00 Z0.40 E4.50 ; sets the jerk limits, mm/sec
M205 S0 T0 ; sets the minimum extruding and travel feed rate, mm/sec
M107
;TYPE:Custom
M862.3 P "MK3S" ; printer model check
M862.1 P0.4 ; nozzle diameter check
M115 U3.11.0 ; tell printer latest fw version
G90 ; use absolute coordinates
M83 ; extruder relative mode
M104 S215 ; set extruder temp
M140 S60 ; set bed temp
M190 S60 ; wait for bed temp
M109 S215 ; wait for extruder temp
G28 W ; home all without mesh bed level
G80 ; mesh bed leveling

G1 Z0.2 F720
G1 Y-3 F1000 ; go outside print area
G92 E0
G1 X60 E9 F1000 ; intro line
G1 X100 E12.5 F1000 ; intro line

G92 E0
M221 S95

; Don't change E values below. Excessive value can damage the printer.
M907 E430 ; set extruder motor current
G21 ; set units to millimeters
G90 ; use absolute coordinates
M83 ; use relative distances for extrusion
M900 K0.05 ; Filament gcode LA 1.5
M900 K30 ; Filament gcode LA 1.0
M107
;LAYER_CHANGE
;Z:0.2
;HEIGHT:0.2
;BEFORE_LAYER_CHANGE
G92 E0.0
;0.2


G1 E-.8 F2100
G1 Z.4 F720
;AFTER_LAYER_CHANGE
;0.2
G1 X103.726 Y104.759 F10800
G1 Z.2 F720
G1 E.8 F2100
M204 S800
;TYPE:Skirt/Brim
;WIDTH:0.42
G1 F1200
G1 X104.772 Y103.882 E.04278
G1 X105.668 Y103.689 E.02873
G1 X130 Y103.238 E.76305
G1 X145 Y103.238 E.47031
G1 X146.307 Y103.63 E.04278
G1 X147.183 Y104.675 E.04278
G1 X147.377 Y105.615 E.03008
G1 X147.377 Y130 E.76457
G1 X146.985 Y131.307 E.04278
G1 X145.94 Y132.183 E.04278
G1 X145.044 Y132.377 E.02873
G1 X120.756 Y132.827 E.76167
G1 X105.712 Y132.828 E.4717
G1 X104.405 Y132.436 E.04278
G1 X103.528 Y131.39 E.04278
G1 X103.335 Y130.45 E.03008
G1 X103.335 Y106.066 E.76457
G1 X103.709 Y104.816 E.0409
M204 S1000
; printing object kb_replacement_feet-Compound.stl id:0 copy 0
;WIPE_START
G1 F8640
G1 X104.772 Y103.882 E-.32671
G1 X105.668 Y103.689 E-.21157
G1 X106.628 Y103.671 E-.22172
;WIPE_END
G1 E-.04 F2100
G1 Z.6 F720
G1 X116.325 Y116.571 F10800
G1 Z.2 F720
G1 E.8 F2100
M204 S800
;TYPE:Perimeter
;WIDTH:0.419999
G1 F1200
G1 X116.49 Y116.615 E.00536
G1 X118.933 Y116.615 E.0766
G1 X119.499 Y116.426 E.01869
G1 X119.548 Y116.347 E.00292
G1 X119.548 Y129.286 E.40571
G1 X114.449 Y129.286 E.15988
;WIDTH:0.461127
G1 X114.303 Y129.266 E.00511
;WIDTH:0.502254
G1 X114.157 Y129.245 E.00561
;WIDTH:0.543382
G1 X114.012 Y129.225 E.00612
;WIDTH:0.584509
G1 X113.866 Y129.204 E.00662
;WIDTH:0.625636
G1 X113.721 Y129.183 E.00712
G1 X113.786 Y129.151 E.00353
;WIDTH:0.588762
G1 X113.993 Y129.071 E.01009
;WIDTH:0.546572
G1 X114.201 Y128.991 E.00931
;WIDTH:0.504381
G1 X114.408 Y128.911 E.00853
;WIDTH:0.46219
G1 X114.616 Y128.831 E.00775
;WIDTH:0.419999
G1 X115.384 Y128.397 E.02767
G1 X116.026 Y127.792 E.02767
G1 X116.505 Y127.05 E.02767
G1 X116.792 Y126.216 E.02767
G1 X116.876 Y125.464 E.02372
G1 X116.869 Y120.323 E.16117
G1 X116.737 Y119.465 E.02725
G1 X116.399 Y118.649 E.02767
G1 X115.875 Y117.939 E.02767
G1 X115.197 Y117.375 E.02767
G1 X114.403 Y116.989 E.02767
G1 X113.54 Y116.805 E.02767
G1 X112.884 Y116.805 E.02058
G1 X112.429 Y116.888 E.0145
G1 X111.797 Y117.076 E.02067
G1 X111.01 Y117.53 E.02847
G1 X110.398 Y118.109 E.02643
G1 X109.919 Y118.851 E.02767
G1 X109.632 Y119.685 E.02767
G1 X109.548 Y120.437 E.02372
G1 X109.548 Y125.464 E.15761
G1 X109.687 Y126.436 E.0308
G1 X110.025 Y127.251 E.02767
G1 X110.549 Y127.962 E.02767
G1 X111.227 Y128.526 E.02767
G1 X112.021 Y128.912 E.02767
;WIDTH:0.464101
G1 X112.143 Y128.965 E.00466
;WIDTH:0.508203
G1 X112.265 Y129.018 E.00515
;WIDTH:0.552305
G1 X112.387 Y129.07 E.00564
;WIDTH:0.596407
G1 X112.509 Y129.123 E.00613
;WIDTH:0.640508
G1 X112.632 Y129.176 E.00662
G1 X112.5 Y129.198 E.00662
;WIDTH:0.596407
G1 X112.369 Y129.22 E.00613
;WIDTH:0.552305
G1 X112.238 Y129.242 E.00564
;WIDTH:0.508203
G1 X112.107 Y129.264 E.00515
;WIDTH:0.464101
G1 X111.975 Y129.286 E.00466
;WIDTH:0.419999
G1 X106.876 Y129.286 E.15988
G1 X106.876 Y116.347 E.40571
G1 X106.925 Y116.426 E.00292
G1 X107.49 Y116.615 E.01869
G1 X109.933 Y116.615 E.0766
G1 X110.341 Y116.522 E.01311
G1 X110.523 Y116.408 E.00672
G1 X110.777 Y116.092 E.01273
G1 X110.826 Y115.974 E.004
G1 X110.876 Y115.672 E.0096
G1 X110.876 Y107.515 E.25577
G1 X115.548 Y107.515 E.14648
G1 X115.548 Y115.672 E.25577
M73 Q1 S32
G1 X115.596 Y115.969 E.00942
M73 P1 R32
G1 X115.873 Y116.384 E.01566
G1 X116.029 Y116.494 E.00598
G1 X116.267 Y116.556 E.00771
M204 S1000
G1 X116.408 Y116.216 F10800
M204 S800
G1 F1200
G1 X116.49 Y116.238 E.00268
G1 X118.933 Y116.238 E.0766
G1 X119.273 Y116.124 E.01122
;WIDTH:0.450279
G1 X119.505 Y115.772 E.0143
G1 X119.511 Y115.672 E.0034
;WIDTH:0.444381
G1 X119.511 Y107.15 E.28448
G1 X119.913 Y107.15 E.0134
G1 X119.913 Y107.35 E.0067
G1 X119.913 Y115.672 E.27778
;WIDTH:0.450279
G1 X119.925 Y116.45 E.02637
;WIDTH:0.419999
G1 X119.925 Y129.663 E.41428
G1 X106.499 Y129.663 E.42096
G1 X106.499 Y116.45 E.41428
;WIDTH:0.444381
G1 X106.511 Y107.15 E.31047
G1 X106.913 Y107.15 E.0134
G1 X106.913 Y115.672 E.28448
;WIDTH:0.45028
G1 X106.918 Y115.772 E.0034
G1 X107.151 Y116.124 E.0143
;WIDTH:0.419999
G1 X107.49 Y116.238 E.01122
G1 X109.933 Y116.238 E.0766
G1 X110.204 Y116.169 E.00876
G1 X110.44 Y115.924 E.01066
G1 X110.499 Y115.672 E.00811
G1 X110.499 Y107.138 E.26759
G1 X115.925 Y107.138 E.17012
G1 X115.925 Y115.672 E.26759
G1 X115.981 Y115.917 E.00788
G1 X116.214 Y116.165 E.01067
G1 X116.35 Y116.201 E.00441
M204 S1000
G1 X116.49 Y115.86 F10800
M204 S800
;TYPE:External perimeter
G1 F1200
G1 X118.933 Y115.86 E.0766
G1 X119.046 Y115.823 E.00374
G1 X119.122 Y115.672 E.00529
G1 X119.122 Y106.76 E.27941
G1 X120.302 Y106.76 E.037
G1 X120.302 Y130.04 E.72993
G1 X106.122 Y130.04 E.4446
G1 X106.122 Y106.76 E.72993
G1 X107.302 Y106.76 E.037
G1 X107.302 Y115.672 E.27941
G1 X107.377 Y115.823 E.00529
G1 X107.49 Y115.86 E.00374
G1 X109.933 Y115.86 E.0766
G1 X110.051 Y115.819 E.00392
G1 X110.122 Y115.672 E.00512
G1 X110.122 Y106.76 E.27941
G1 X116.302 Y106.76 E.19377
G1 X116.302 Y115.672 E.27941
G1 X116.367 Y115.814 E.00491
G1 X116.434 Y115.839 E.00225
M204 S1000
G1 X116.594 Y116.247 F10800
;WIPE_START
G1 F8640
G1 X118.933 Y115.86 E-.57708
G1 X119.046 Y115.823 E-.02753
G1 X119.122 Y115.672 E-.03894
G1 X119.122 Y115.168 E-.11645
;WIPE_END
G1 E-.04 F2100
G1 Z.6 F720
G1 X111.347 Y128.145 F10800
G1 Z.2 F720
G1 E.8 F2100
M204 S800
;TYPE:Perimeter
G1 F1200
G1 X110.799 Y127.68 E.02255
G1 X110.335 Y127.037 E.02483
G1 X110.272 Y126.917 E.00428
G1 X110.039 Y126.303 E.02058
G1 X109.925 Y125.464 E.02654
G1 X109.925 Y120.437 E.15761
G1 X110.006 Y119.731 E.0223
G1 X110.272 Y118.984 E.02483
G1 X110.708 Y118.323 E.02483
G1 X111.26 Y117.812 E.02359
G1 X111.976 Y117.407 E.0258
G1 X112.519 Y117.255 E.01767
G1 X112.884 Y117.182 E.01166
G1 X113.54 Y117.182 E.02058
G1 X114.313 Y117.355 E.02483
G1 X115.022 Y117.709 E.02483
G1 X115.625 Y118.221 E.02483
G1 X116.089 Y118.864 E.02483
G1 X116.385 Y119.598 E.02483
G1 X116.499 Y120.437 E.02654
G1 X116.499 Y125.464 E.15761
G1 X116.417 Y126.17 E.0223
G1 X116.152 Y126.917 E.02483
G1 X115.716 Y127.578 E.02483
G1 X115.134 Y128.115 E.02483
G1 X114.44 Y128.497 E.02483
G1 X113.676 Y128.703 E.02483
G1 X112.884 Y128.719 E.02483
G1 X112.111 Y128.546 E.02483
G1 X111.392 Y128.184 E.02522
M204 S1000
G1 X111.598 Y127.869 F10800
M204 S800
;TYPE:External perimeter
G1 F1200
G1 X111.049 Y127.397 E.02271
G1 X110.646 Y126.823 E.022
G1 X110.392 Y126.169 E.022
G1 X110.302 Y125.464 E.02229
G1 X110.302 Y120.437 E.15761
G1 X110.381 Y119.776 E.02087
G1 X110.624 Y119.118 E.022
G1 X111.018 Y118.538 E.022
G1 X111.51 Y118.094 E.02076
G1 X112.156 Y117.739 E.02312
G1 X112.839 Y117.564 E.02208
G1 X113.54 Y117.559 E.022
G1 X114.223 Y117.721 E.022
G1 X114.846 Y118.042 E.022
G1 X115.375 Y118.504 E.022
G1 X115.778 Y119.078 E.022
G1 X116.032 Y119.732 E.022
G1 X116.122 Y120.437 E.02229
G1 X116.122 Y125.464 E.15761
G1 X116.043 Y126.125 E.02087
G1 X115.799 Y126.783 E.022
G1 X115.405 Y127.363 E.022
G1 X114.884 Y127.833 E.022
G1 X114.265 Y128.164 E.022
G1 X113.585 Y128.337 E.022
G1 X112.884 Y128.342 E.022
G1 X112.201 Y128.18 E.022
G1 X111.652 Y127.897 E.01938
M204 S1000
G1 X111.239 Y128.046 F10800
;WIPE_START
G1 F8640
G1 X111.049 Y127.397 E-.18076
G1 X110.646 Y126.823 E-.162
G1 X110.392 Y126.169 E-.162
G1 X110.302 Y125.464 E-.16413
G1 X110.302 Y125.069 E-.09111
;WIPE_END
G1 E-.04 F2100
G1 Z.6 F720
G1 X113.721 Y129.183 F10800
G1 Z.2 F720
G1 E.8 F2100
M204 S800
;TYPE:Perimeter
;WIDTH:0.625636
G1 F1200
G1 X112.884 Y129.191 E.04056
;WIDTH:0.640508
G1 X112.632 Y129.176 E.01254
M204 S1000
;WIPE_START
G1 F8640
G1 X112.884 Y129.191 E-.05829
G1 X113.721 Y129.183 E-.1933
;WIPE_END
G1 E-.54841 F2100
G1 Z.6 F720
G1 X115.435 Y108.395 F10800
G1 Z.2 F720
G1 E.8 F2100
M204 S800
;TYPE:Solid infill
;WIDTH:0.422565
G1 F1200
G1 X114.837 Y107.797 E.0267
G1 X114.3 Y107.797 E.01695
G1 X115.265 Y108.763 E.04309
G1 X115.265 Y109.3 E.01695
G1 X113.763 Y107.797 E.06706
G1 X113.226 Y107.797 E.01695
G1 X115.265 Y109.836 E.09103
G1 X115.265 Y110.373 E.01695
G1 X112.689 Y107.797 E.115
G1 X112.152 Y107.797 E.01695
G1 X115.265 Y110.91 E.13897
G1 X115.265 Y111.447 E.01695
G1 X111.615 Y107.797 E.16294
G1 X111.159 Y107.797 E.01441
G1 X111.159 Y107.878 E.00254
G1 X115.265 Y111.984 E.18331
G1 X115.265 Y112.521 E.01695
G1 X111.159 Y108.415 E.18331
G1 X111.159 Y108.952 E.01695
G1 X115.265 Y113.058 E.18331
G1 X115.265 Y113.595 E.01695
G1 X111.159 Y109.489 E.18331
G1 X111.159 Y110.026 E.01695
G1 X115.265 Y114.132 E.18331
G1 X115.265 Y114.669 E.01695
G1 X111.159 Y110.562 E.18331
G1 X111.159 Y111.099 E.01695
G1 X115.435 Y115.375 E.19088
M204 S1000
;WIPE_START
G1 F8640
M73 Q2 S32
G1 X113.107 Y113.048 E-.76
;WIPE_END
G1 E-.04 F2100
M73 P2 R32
G1 Z.6 F720
G1 X118.931 Y116.724 F10800
G1 Z.2 F720
G1 E.8 F2100
M204 S800
G1 F1200
G1 X119.265 Y117.058 E.01489
G1 X119.265 Y117.595 E.01695
G1 X118.567 Y116.897 E.03115
G1 X118.03 Y116.897 E.01696
G1 X119.265 Y118.132 E.05514
G1 X119.265 Y118.669 E.01695
G1 X117.492 Y116.896 E.07913
G1 X116.955 Y116.896 E.01696
G1 X119.265 Y119.205 E.10312
G1 X119.265 Y119.742 E.01695
G1 X116.418 Y116.895 E.12712
G1 X115.935 Y116.766 E.01576
G1 X115.684 Y116.596 E.00958
G1 X115.387 Y116.207 E.01546
G1 X115.291 Y115.924 E.00943
G1 X115.273 Y115.75 E.00552
G1 X111.159 Y111.636 E.18365
G1 X111.159 Y112.173 E.01695
G1 X119.265 Y120.279 E.36188
G1 X119.265 Y120.816 E.01695
G1 X111.159 Y112.71 E.36188
G1 X111.159 Y113.247 E.01695
G1 X114.72 Y116.808 E.15899
G1 X115.333 Y117.127 E.02178
G1 X115.533 Y117.259 E.00759
G1 X116.122 Y117.783 E.02489
G1 X116.256 Y117.945 E.00664
G1 X116.634 Y118.493 E.02101
G1 X116.752 Y118.707 E.00772
G1 X116.833 Y118.921 E.00723
G1 X119.265 Y121.353 E.10856
G1 X119.265 Y121.89 E.01695
G1 X117.079 Y119.704 E.0976
G1 X117.151 Y120.313 E.01935
G1 X119.265 Y122.427 E.09439
G1 X119.265 Y122.964 E.01695
G1 X117.152 Y120.85 E.09435
G1 X117.152 Y121.388 E.01698
G1 X119.265 Y123.501 E.09431
G1 X119.265 Y124.038 E.01695
G1 X117.153 Y121.926 E.09428
G1 X117.154 Y122.464 E.01698
G1 X119.265 Y124.574 E.09424
G1 X119.265 Y125.111 E.01695
G1 X117.155 Y123.001 E.0942
G1 X117.156 Y123.539 E.01698
G1 X119.265 Y125.648 E.09416
G1 X119.265 Y126.185 E.01695
G1 X117.157 Y124.077 E.09412
G1 X117.158 Y124.615 E.01698
G1 X119.265 Y126.722 E.09408
G1 X119.265 Y127.259 E.01695
G1 X117.158 Y125.152 E.09405
G1 X117.159 Y125.469 E.01
G1 X117.137 Y125.668 E.00631
G1 X119.265 Y127.796 E.095
G1 X119.265 Y128.333 E.01695
G1 X117.083 Y126.151 E.09739
G1 X116.983 Y126.587 E.01413
G1 X119.265 Y128.87 E.1019
G1 X119.265 Y129.003 E.00423
G1 X118.862 Y129.003 E.01273
G1 X116.835 Y126.976 E.0905
G1 X116.752 Y127.194 E.00734
G1 X116.668 Y127.347 E.00551
G1 X118.325 Y129.003 E.07396
G1 X117.788 Y129.003 E.01695
G1 X116.454 Y127.669 E.05954
G1 X116.232 Y127.984 E.01216
G1 X117.251 Y129.003 E.04549
G1 X116.714 Y129.003 E.01695
G1 X115.968 Y128.257 E.03328
G1 X115.683 Y128.51 E.01201
G1 X116.177 Y129.003 E.02201
G1 X115.639 Y129.002 E.01695
G1 X115.379 Y128.742 E.01161
G1 X115.032 Y128.932 E.01249
G1 X115.272 Y129.172 E.01071
M204 S1000
;WIPE_START
G1 F8640
G1 X115.032 Y128.932 E-.07835
G1 X115.379 Y128.742 E-.09135
G1 X115.639 Y129.002 E-.08495
G1 X116.177 Y129.003 E-.12401
G1 X115.683 Y128.51 E-.16099
G1 X115.968 Y128.257 E-.08782
G1 X116.374 Y128.663 E-.13252
;WIPE_END
G1 E-.04 F2100
G1 Z.6 F720
G1 X114.197 Y116.822 F10800
G1 Z.2 F720
G1 E.8 F2100
M204 S800
G1 F1200
G1 X111.159 Y113.784 E.13562
G1 X111.159 Y114.321 E.01695
G1 X113.36 Y116.522 E.09826
G1 X112.829 Y116.528 E.01676
G1 X111.159 Y114.858 E.07456
G1 X111.159 Y115.395 E.01695
G1 X112.375 Y116.61 E.05428
G1 X111.944 Y116.717 E.014
G1 X111.135 Y115.908 E.03613
G1 X111.03 Y116.222 E.01047
G1 X110.978 Y116.287 E.00263
G1 X111.568 Y116.878 E.02637
G1 X111.22 Y117.067 E.0125
G1 X110.738 Y116.584 E.02153
G1 X110.704 Y116.626 E.00171
G1 X110.46 Y116.779 E.00908
G1 X110.41 Y116.793 E.00166
G1 X110.885 Y117.268 E.02122
G1 X110.599 Y117.519 E.01201
G1 X109.975 Y116.895 E.02786
G1 X109.438 Y116.896 E.01693
G1 X110.315 Y117.772 E.03912
M73 P2 R31
G1 X110.079 Y118.073 E.01207
G1 X108.902 Y116.896 E.05255
G1 X108.366 Y116.897 E.01693
G1 X109.86 Y118.391 E.0667
G1 X109.664 Y118.732 E.01241
G1 X107.829 Y116.897 E.0819
G1 X107.475 Y116.897 E.01118
G1 X107.202 Y116.806 E.00911
G1 X109.515 Y119.12 E.10328
G1 X109.382 Y119.524 E.01343
G1 X107.159 Y117.3 E.09925
G1 X107.159 Y117.837 E.01695
G1 X109.314 Y119.992 E.0962
G1 X109.265 Y120.48 E.01549
G1 X107.159 Y118.374 E.09402
G1 X107.159 Y118.911 E.01695
G1 X109.265 Y121.017 E.09402
G1 X109.265 Y121.554 E.01695
G1 X107.159 Y119.448 E.09402
G1 X107.159 Y119.985 E.01695
G1 X109.265 Y122.091 E.09402
G1 X109.265 Y122.628 E.01695
G1 X107.159 Y120.522 E.09402
G1 X107.159 Y121.059 E.01695
G1 X109.265 Y123.165 E.09402
G1 X109.265 Y123.702 E.01695
G1 X107.159 Y121.596 E.09402
G1 X107.159 Y122.133 E.01695
G1 X109.265 Y124.239 E.09402
G1 X109.265 Y124.776 E.01695
G1 X107.159 Y122.669 E.09402
G1 X107.159 Y123.206 E.01695
G1 X109.265 Y125.312 E.09402
G1 X109.265 Y125.469 E.00495
G1 X109.314 Y125.898 E.01362
G1 X107.159 Y123.743 E.09619
G1 X107.159 Y124.28 E.01695
G1 X109.719 Y126.84 E.1143
M204 S1000
;WIPE_START
G1 F8640
G1 X107.392 Y124.513 E-.76
;WIPE_END
G1 E-.04 F2100
G1 Z.6 F720
G1 X111.514 Y129.172 F10800
G1 Z.2 F720
G1 E.8 F2100
M204 S800
G1 F1200
G1 X107.159 Y124.817 E.19442
G1 X107.159 Y125.354 E.01695
G1 X110.807 Y129.002 E.16288
G1 X110.271 Y129.003 E.01694
G1 X107.159 Y125.891 E.13892
G1 X107.159 Y126.428 E.01695
G1 X109.734 Y129.003 E.11496
G1 X109.197 Y129.003 E.01694
G1 X107.159 Y126.965 E.09099
G1 X107.159 Y127.502 E.01695
G1 X108.66 Y129.003 E.06703
G1 X108.124 Y129.003 E.01694
G1 X107.159 Y128.038 E.04307
G1 X107.159 Y128.575 E.01695
G1 X107.757 Y129.173 E.02668
M204 S1000
; stop printing object kb_replacement_feet-Compound.stl id:0 copy 0
; printing object kb_replacement_feet-Compound.stl id:1 copy 0
;WIPE_START
G1 F8640
G1 X107.159 Y128.575 E-.19517
G1 X107.159 Y128.038 E-.12397
G1 X108.124 Y129.003 E-.31504
G1 X108.66 Y129.003 E-.12394
G1 X108.655 Y128.997 E-.00188
;WIPE_END
M73 Q2 S31
G1 E-.04 F2100
G1 Z.6 F720
G1 X140.613 Y116.121 F10800
G1 Z.2 F720
G1 E.8 F2100
M204 S800
;TYPE:Perimeter
;WIDTH:0.419999
G1 F1200
G1 X140.779 Y116.164 E.00536
G1 X143.221 Y116.164 E.0766
G1 X143.787 Y115.976 E.01869
G1 X143.836 Y115.896 E.00292
G1 X143.836 Y128.836 E.40571
G1 X138.737 Y128.836 E.15988
;WIDTH:0.461127
