; generated by PrusaSlicer 2.5.0+win64 on 2022-11-12 at 16:06:30 UTC


;
;
; 

; external perimeters extrusion width = 0.45mm
; perimeters extrusion width = 0.45mm
; infill extrusion width = 0.45mm
; solid infill extrusion width = 0.45mm
; top infill extrusion width = 0.40mm
; first layer extrusion width = 0.42mm

M73 P0 R80
M73 Q0 S80
M201 X1000 Y1000 Z200 E5000 ; sets maximum accelerations, mm/sec^2
M203 X200 Y200 Z12 E120 ; sets maximum feedrates, mm / sec
M204 P1250 R1250 T1250 ; sets acceleration (P, T) and retract acceleration (R), mm/sec^2
M205 X8.00 Y8.00 Z0.40 E4.50 ; sets the jerk limits, mm/sec
M205 S0 T0 ; sets the minimum extruding and travel feed rate, mm/sec
M107
;TYPE:Custom
M862.3 P "MK3S" ; printer model check
M862.1 P0.4 ; nozzle diameter check
M115 U3.11.0 ; tell printer latest fw version
G90 ; use absolute coordinates
M83 ; extruder relative mode
M104 S240 ; set extruder temp
M140 S85 ; set bed temp
M190 S85 ; wait for bed temp
M109 S240 ; wait for extruder temp
G28 W ; home all without mesh bed level
G80 ; mesh bed leveling

G1 Z0.2 F720
G1 Y-3 F1000 ; go outside print area
G92 E0
G1 X60 E9 F1000 ; intro line
G1 X100 E12.5 F1000 ; intro line

G92 E0
M221 S95

; Don't change E values below. Excessive value can damage the printer.
M907 E430 ; set extruder motor current
G21 ; set units to millimeters
G90 ; use absolute coordinates
M83 ; use relative distances for extrusion
M900 K0.08 ; Filament gcode LA 1.5
M900 K45 ; Filament gcode LA 1.0
M107
;LAYER_CHANGE
;Z:0.2
;HEIGHT:0.2
;BEFORE_LAYER_CHANGE
G92 E0.0
;0.2


G1 E-1 F2100
G1 Z.2 F720
;AFTER_LAYER_CHANGE
;0.2
G1 Z.4
G1 X98.064 Y83.163 F10800
G1 Z.2 F720
G1 E1 F2100
M204 S800
;TYPE:Skirt/Brim
;WIDTH:0.42
G1 F1200
G1 X98.644 Y82.679 E.0237
G1 X99.382 Y82.315 E.02579
G1 X100.106 Y82.147 E.0233
G1 X112.602 Y82.125 E.3918
G1 X114.998 Y82.288 E.07531
G1 X117.412 Y82.671 E.07662
G1 X119.833 Y83.264 E.07817
G1 X123.335 Y84.491 E.11635
G1 X125.757 Y85.603 E.08354
G1 X128.003 Y86.848 E.08054
G1 X130.198 Y88.288 E.08231
G1 X132.264 Y89.885 E.08185
G1 X134.132 Y91.58 E.07911
G1 X164.049 Y120.286 E1.30001
G1 X164.604 Y121.172 E.03278
M73 P0 R79
G1 X164.868 Y122.253 E.03488
G1 X164.876 Y125.5 E.1018
G1 X164.484 Y126.807 E.04278
G1 X163.439 Y127.683 E.04278
G1 X162.499 Y127.877 E.03008
G1 X87.501 Y127.877 E2.35151
G1 X86.194 Y127.485 E.04278
G1 X85.318 Y126.44 E.04278
G1 X85.124 Y125.5 E.03008
G1 X85.124 Y122.452 E.09557
G1 X85.247 Y121.592 E.02723
G1 X97.282 Y84.477 E1.22339
G1 X97.596 Y83.779 E.02399
G1 X98.027 Y83.211 E.02237
M204 S1000
; printing object filament-wall-hook-hook.stl id:0 copy 0
;WIPE_START
G1 F8640
G1 X98.644 Y82.679 E-.18809
G1 X99.382 Y82.315 E-.18994
G1 X100.106 Y82.147 E-.17162
G1 X101.84 Y82.144 E-.40035
;WIPE_END
G1 E-.05 F2100
G1 Z.4 F720
G1 X147.137 Y122.952 F10800
G1 Z.2 F720
G1 E1 F2100
M204 S800
;TYPE:Perimeter
;WIDTH:0.419999
G1 F1200
G1 X147.435 Y123.041 E.00974
G1 X160.958 Y123.041 E.424
G1 X160.958 Y123.959 E.02877
G1 X89.042 Y123.959 E2.25486
G1 X89.042 Y123.051 E.02847
G1 X112.504 Y123.041 E.73563
G1 X113.43 Y123.018 E.02904
G1 X114.332 Y122.95 E.02836
G1 X115.22 Y122.835 E.02808
G1 X116.108 Y122.677 E.02828
G1 X116.982 Y122.475 E.02812
G1 X117.848 Y122.231 E.02823
G1 X118.7 Y121.943 E.02818
G1 X119.537 Y121.613 E.02821
G1 X120.358 Y121.242 E.02826
G1 X121.158 Y120.829 E.02822
G1 X121.933 Y120.378 E.02812
G1 X122.69 Y119.889 E.02825
G1 X123.42 Y119.362 E.02823
G1 X124.123 Y118.799 E.02824
G1 X124.796 Y118.203 E.02818
G1 X125.437 Y117.574 E.02817
G1 X126.049 Y116.912 E.02824
G1 X126.623 Y116.224 E.02811
G1 X127.166 Y115.507 E.0282
G1 X127.675 Y114.76 E.02835
G1 X128.282 Y113.732 E.03742
G1 X128.568 Y113.204 E.01884
G1 X128.96 Y112.388 E.02838
G1 X129.305 Y111.562 E.02809
G1 X129.612 Y110.715 E.02824
G1 X129.875 Y109.857 E.02814
G1 X130.097 Y108.981 E.02832
G1 X130.272 Y108.1 E.02818
G1 X130.404 Y107.215 E.02806
G1 X130.507 Y106.046 E.03678
G1 X130.536 Y105.417 E.01974
G1 X130.536 Y104.585 E.02611
G1 X130.511 Y104.043 E.01701
G1 X130.396 Y102.727 E.04142
G1 X130.261 Y101.838 E.02819
G1 X130.162 Y101.344 E.01578
G1 X130.023 Y100.726 E.01985
G1 X129.831 Y99.998 E.02361
G1 X129.569 Y99.162 E.02749
G1 X129.254 Y98.313 E.02837
G1 X128.887 Y97.459 E.02914
G1 X128.465 Y96.605 E.02989
G1 X127.987 Y95.754 E.03061
G1 X127.453 Y94.914 E.03119
G1 X127.128 Y94.442 E.01797
G1 X126.584 Y93.728 E.02816
G1 X126.005 Y93.04 E.02819
G1 X125.392 Y92.381 E.02823
G1 X124.749 Y91.756 E.02809
G1 X123.984 Y91.088 E.03187
G1 X123.132 Y90.431 E.03374
G1 X122.635 Y90.076 E.01915
G1 X121.88 Y89.591 E.02814
G1 X121.1 Y89.142 E.0282
G1 X120.297 Y88.731 E.02827
G1 X119.409 Y88.337 E.03047
G1 X118.415 Y87.962 E.03331
G1 X116.921 Y87.511 E.04894
G1 X116.041 Y87.311 E.0283
G1 X115.159 Y87.158 E.02806
G1 X114.261 Y87.045 E.02836
G1 X113.369 Y86.981 E.02804
G1 X112.504 Y86.959 E.02714
G1 X101.042 Y86.959 E.35937
G1 X101.042 Y86.041 E.02877
G1 X112.469 Y86.041 E.35829
G1 X113.482 Y86.084 E.03177
G1 X114.507 Y86.176 E.03227
G1 X115.546 Y86.317 E.03289
G1 X116.595 Y86.504 E.0334
G1 X117.651 Y86.738 E.03391
G1 X118.709 Y87.018 E.03431
G1 X119.767 Y87.344 E.03472
G1 X120.824 Y87.715 E.03514
G1 X121.876 Y88.128 E.03543
G1 X122.92 Y88.585 E.03572
G1 X123.951 Y89.08 E.03586
G1 X124.965 Y89.617 E.03598
G1 X125.962 Y90.192 E.03609
G1 X126.938 Y90.806 E.03616
G1 X127.892 Y91.457 E.0362
G1 X128.818 Y92.141 E.0361
G1 X129.714 Y92.861 E.03603
G1 X130.577 Y93.612 E.03588
G1 X131.404 Y94.393 E.03566
G1 X132.191 Y95.205 E.03545
G1 X132.94 Y96.048 E.03536
G1 X133.645 Y96.916 E.03507
G1 X134.304 Y97.813 E.0349
G1 X134.853 Y98.64 E.03112
G1 X135.312 Y99.399 E.02782
G1 X135.743 Y100.181 E.028
G1 X136.145 Y100.978 E.02797
G1 X136.523 Y101.797 E.02829
G1 X136.879 Y102.627 E.02831
G1 X137.321 Y103.758 E.0381
G1 X137.781 Y105.043 E.04277
G1 X140.382 Y113.392 E.2742
G1 X141.009 Y115.117 E.05752
G1 X141.507 Y116.31 E.04056
G1 X141.985 Y117.322 E.03508
G1 X142.449 Y118.189 E.03085
G1 X142.806 Y118.786 E.02181
G1 X143.223 Y119.422 E.02384
G1 X143.631 Y119.98 E.02167
G1 X144.031 Y120.478 E.02002
G1 X144.446 Y120.943 E.01955
G1 X144.866 Y121.37 E.01879
G1 X145.639 Y122.058 E.03244
G1 X146.292 Y122.547 E.02556
G1 X146.71 Y122.824 E.01573
G1 X147.08 Y122.935 E.01211
M204 S1000
G1 X147.237 Y122.605 F10800
M204 S800
G1 F1200
G1 X147.435 Y122.664 E.00648
G1 X161.335 Y122.664 E.43583
G1 X161.335 Y124.336 E.05241
G1 X88.665 Y124.336 E2.2785
G1 X88.665 Y122.674 E.05211
G1 X112.504 Y122.664 E.74745
G1 X113.403 Y122.641 E.02818
G1 X114.284 Y122.576 E.02772
G1 X115.155 Y122.464 E.02752
G1 X116.024 Y122.31 E.02766
G1 X116.88 Y122.112 E.02756
G1 X117.728 Y121.873 E.02763
G1 X118.562 Y121.592 E.0276
G1 X119.382 Y121.27 E.02762
G1 X120.186 Y120.906 E.02766
G1 X120.969 Y120.502 E.02763
G1 X121.729 Y120.061 E.02755
G1 X122.47 Y119.583 E.02765
G1 X123.185 Y119.067 E.02763
G1 X123.873 Y118.516 E.02766
G1 X124.532 Y117.933 E.02759
G1 X125.161 Y117.318 E.02758
G1 X125.76 Y116.67 E.02765
G1 X126.323 Y115.996 E.02754
G1 X126.855 Y115.294 E.02762
G1 X127.353 Y114.564 E.02771
G1 X127.951 Y113.552 E.03686
G1 X128.229 Y113.04 E.01826
G1 X128.613 Y112.243 E.02774
G1 X128.951 Y111.432 E.02754
G1 X129.252 Y110.604 E.02763
G1 X129.51 Y109.764 E.02756
G1 X129.727 Y108.907 E.02771
G1 X129.899 Y108.044 E.02759
G1 X130.029 Y107.176 E.02751
G1 X130.131 Y106.028 E.03614
G1 X130.159 Y105.417 E.01916
G1 X130.159 Y104.585 E.02611
G1 X130.135 Y104.061 E.01643
G1 X130.023 Y102.783 E.04024
G1 X129.891 Y101.912 E.02761
G1 X129.792 Y101.419 E.01578
G1 X129.471 Y100.109 E.04227
G1 X129.214 Y99.291 E.02689
G1 X128.906 Y98.46 E.02779
G1 X128.548 Y97.623 E.02853
G1 X128.134 Y96.785 E.02931
G1 X127.665 Y95.95 E.03003
G1 X127.142 Y95.127 E.03057
G1 X126.828 Y94.67 E.01738
G1 X126.295 Y93.97 E.02759
G1 X125.728 Y93.297 E.02759
G1 X125.128 Y92.651 E.02764
G1 X124.499 Y92.038 E.02753
G1 X123.749 Y91.383 E.03124
G1 X122.912 Y90.737 E.03316
G1 X122.43 Y90.393 E.01855
G1 X121.691 Y89.917 E.02757
G1 X120.928 Y89.477 E.02761
G1 X120.142 Y89.075 E.02766
G1 X119.272 Y88.688 E.02988
G1 X118.295 Y88.319 E.03273
G1 X117.683 Y88.115 E.02025
G1 X116.836 Y87.879 E.02754
G1 X115.976 Y87.682 E.02768
G1 X115.111 Y87.532 E.02751
G1 X114.234 Y87.421 E.02773
G1 X113.359 Y87.358 E.02749
G1 X112.504 Y87.336 E.02683
G1 X100.665 Y87.336 E.3712
G1 X100.665 Y85.664 E.05241
G1 X112.477 Y85.664 E.37036
G1 X113.506 Y85.708 E.0323
G1 X114.549 Y85.801 E.03281
G1 X115.605 Y85.944 E.03341
G1 X116.669 Y86.134 E.03389
G1 X117.74 Y86.371 E.0344
G1 X118.812 Y86.655 E.03479
G1 X119.885 Y86.986 E.03518
G1 X120.956 Y87.362 E.03558
G1 X122.021 Y87.779 E.03587
G1 X123.077 Y88.242 E.03616
G1 X124.12 Y88.744 E.03629
G1 X125.148 Y89.287 E.03643
G1 X126.156 Y89.869 E.03652
G1 X127.145 Y90.49 E.03661
G1 X128.111 Y91.149 E.03665
G1 X129.048 Y91.842 E.03656
G1 X129.956 Y92.571 E.03651
G1 X130.831 Y93.332 E.03635
G1 X131.669 Y94.125 E.03616
G1 X132.468 Y94.948 E.03597
G1 X133.227 Y95.804 E.03588
G1 X133.943 Y96.686 E.03562
G1 X134.613 Y97.597 E.03546
G1 X135.172 Y98.438 E.03165
G1 X135.639 Y99.21 E.02831
G1 X136.077 Y100.005 E.02846
M73 Q0 S79
G1 X136.484 Y100.814 E.02839
G1 X136.867 Y101.644 E.02865
G1 X137.228 Y102.484 E.02866
G1 X137.675 Y103.626 E.03847
G1 X138.139 Y104.923 E.04319
G1 X140.737 Y113.264 E.2739
G1 X141.357 Y114.971 E.05696
G1 X141.855 Y116.165 E.04056
G1 X142.326 Y117.16 E.03451
G1 X142.774 Y117.996 E.02975
G1 X143.122 Y118.58 E.02131
G1 X143.527 Y119.2 E.02322
G1 X143.926 Y119.744 E.02117
G1 X144.313 Y120.227 E.01939
G1 X144.717 Y120.68 E.01902
G1 X145.118 Y121.09 E.01799
G1 X145.866 Y121.756 E.03139
G1 X146.917 Y122.509 E.04055
G1 X147.179 Y122.588 E.00859
M204 S1000
G1 X147.337 Y122.258 F10800
M204 S800
G1 F1200
G1 X147.435 Y122.287 E.00321
G1 X161.477 Y122.289 E.44028
G1 X161.645 Y122.357 E.00568
G1 X161.712 Y122.565 E.00685
G1 X161.712 Y124.713 E.06734
G1 X88.288 Y124.713 E2.30215
G1 X88.288 Y122.575 E.06704
G1 X88.326 Y122.4 E.00562
M73 Q1 S79
G1 X88.461 Y122.297 E.00532
M73 P1 R79
G1 X112.504 Y122.287 E.75385
G1 X113.375 Y122.265 E.02732
G1 X114.237 Y122.202 E.02709
G1 X115.09 Y122.092 E.02697
G1 X115.939 Y121.942 E.02705
G1 X116.778 Y121.749 E.02699
G1 X117.608 Y121.516 E.02703
G1 X118.425 Y121.241 E.02702
G1 X119.227 Y120.926 E.02703
G1 X120.014 Y120.571 E.02705
G1 X120.78 Y120.176 E.02704
G1 X121.525 Y119.744 E.02698
G1 X122.25 Y119.276 E.02705
G1 X122.95 Y118.773 E.02704
G1 X123.624 Y118.234 E.02707
G1 X124.269 Y117.663 E.027
G1 X124.884 Y117.061 E.02699
G1 X125.471 Y116.428 E.02706
G1 X126.023 Y115.768 E.02697
G1 X126.543 Y115.081 E.02703
G1 X127.03 Y114.368 E.02707
G1 X127.62 Y113.371 E.03631
G1 X127.889 Y112.876 E.01768
G1 X128.265 Y112.097 E.0271
G1 X128.597 Y111.303 E.027
G1 X128.892 Y110.493 E.02702
G1 X129.144 Y109.67 E.02699
G1 X129.358 Y108.833 E.02709
G1 X129.527 Y107.988 E.02701
G1 X129.653 Y107.138 E.02696
G1 X129.754 Y106.01 E.03551
G1 X129.782 Y105.417 E.01859
G1 X129.782 Y104.585 E.02611
G1 X129.718 Y103.489 E.03442
G1 X129.65 Y102.838 E.0205
G1 X129.522 Y101.986 E.02702
G1 X129.293 Y100.913 E.0344
G1 X129.111 Y100.22 E.02247
G1 X128.86 Y99.42 E.02629
G1 X128.559 Y98.606 E.02722
G1 X128.208 Y97.787 E.02793
G1 X127.802 Y96.965 E.02873
G1 X127.343 Y96.146 E.02945
G1 X126.83 Y95.34 E.02994
G1 X126.527 Y94.898 E.0168
G1 X126.006 Y94.213 E.02702
G1 X125.452 Y93.553 E.027
G1 X124.865 Y92.921 E.02706
G1 X124.249 Y92.321 E.02696
G1 X123.514 Y91.678 E.0306
G1 X122.692 Y91.043 E.03259
G1 X122.226 Y90.709 E.01795
G1 X121.502 Y90.243 E.027
G1 X120.756 Y89.812 E.02702
G1 X119.988 Y89.419 E.02706
G1 X119.134 Y89.039 E.02929
G1 X118.175 Y88.676 E.03215
G1 X117.581 Y88.478 E.01965
G1 X116.752 Y88.246 E.02698
G1 X115.911 Y88.054 E.02707
G1 X115.064 Y87.906 E.02696
G1 X114.206 Y87.797 E.02709
G1 X113.349 Y87.735 E.02695
G1 X112.504 Y87.713 E.02651
G1 X100.575 Y87.713 E.37403
G1 X100.376 Y87.662 E.00643
G1 X100.288 Y87.465 E.00678
G1 X100.288 Y85.576 E.05921
G1 X100.36 Y85.348 E.00751
G1 X100.54 Y85.287 E.00598
G1 X112.485 Y85.287 E.37452
G1 X113.531 Y85.332 E.03282
G1 X114.591 Y85.426 E.03336
G1 X115.663 Y85.572 E.03392
G1 X116.743 Y85.764 E.03438
G1 X117.829 Y86.005 E.03489
G1 X118.916 Y86.293 E.03527
G1 X120.003 Y86.628 E.03565
G1 X121.087 Y87.008 E.03603
G1 X122.165 Y87.431 E.03632
G1 X123.235 Y87.899 E.0366
G1 X124.29 Y88.407 E.03673
G1 X125.33 Y88.957 E.03688
G1 X126.351 Y89.546 E.03696
G1 X127.352 Y90.175 E.03705
G1 X128.329 Y90.842 E.0371
G1 X129.278 Y91.544 E.03702
G1 X130.198 Y92.282 E.03698
G1 X131.084 Y93.053 E.03683
G1 X131.934 Y93.856 E.03666
G1 X132.744 Y94.692 E.03648
G1 X133.515 Y95.56 E.0364
G1 X134.242 Y96.455 E.03617
G1 X134.922 Y97.381 E.03602
G1 X135.49 Y98.236 E.03218
G1 X135.965 Y99.022 E.0288
G1 X136.411 Y99.829 E.02891
G1 X136.824 Y100.65 E.02882
G1 X137.212 Y101.49 E.02901
G1 X137.577 Y102.341 E.02901
G1 X138.028 Y103.494 E.03883
G1 X138.496 Y104.804 E.04361
G1 X141.091 Y113.135 E.27361
G1 X141.705 Y114.826 E.05639
G1 X142.203 Y116.02 E.04056
G1 X142.666 Y116.998 E.03395
G1 X143.098 Y117.804 E.02865
G1 X143.437 Y118.374 E.02081
G1 X143.832 Y118.977 E.0226
G1 X144.221 Y119.509 E.02066
G1 X144.595 Y119.977 E.01876
G1 X144.987 Y120.417 E.0185
G1 X145.37 Y120.809 E.01719
G1 X146.092 Y121.454 E.03035
G1 X147.124 Y122.194 E.03982
G1 X147.279 Y122.24 E.00508
M204 S1000
G1 X147.335 Y121.853 F10800
M204 S800
;TYPE:External perimeter
G1 F1200
G1 X147.435 Y121.91 E.00359
G1 X161.484 Y121.91 E.44051
G1 X161.804 Y121.997 E.0104
G1 X162.03 Y122.25 E.01063
G1 X162.089 Y122.565 E.01006
G1 X162.089 Y125.09 E.07917
G1 X87.911 Y125.09 E2.3258
G1 X87.911 Y122.575 E.07886
G1 X87.962 Y122.3 E.00876
G1 X88.08 Y122.091 E.00752
G1 X88.408 Y121.92 E.0116
G1 X112.504 Y121.91 E.7555
G1 X113.348 Y121.889 E.02647
G1 X114.189 Y121.827 E.02645
G1 X115.025 Y121.721 E.02642
G1 X115.855 Y121.575 E.02644
G1 X116.677 Y121.386 E.02643
G1 X117.488 Y121.158 E.02643
G1 X118.287 Y120.89 E.02644
G1 X119.072 Y120.582 E.02644
G1 X119.841 Y120.235 E.02645
G1 X120.592 Y119.85 E.02645
G1 X121.321 Y119.427 E.02642
G1 X122.03 Y118.97 E.02645
G1 X122.714 Y118.478 E.02644
G1 X123.374 Y117.951 E.02648
G1 X124.005 Y117.393 E.02641
G1 X124.608 Y116.805 E.02641
G1 X125.182 Y116.186 E.02647
G1 X125.722 Y115.54 E.0264
G1 X126.232 Y114.868 E.02645
G1 X126.708 Y114.172 E.02644
G1 X127.289 Y113.19 E.03576
G1 X127.55 Y112.711 E.0171
G1 X127.917 Y111.952 E.02645
G1 X128.242 Y111.173 E.02645
G1 X128.531 Y110.382 E.02641
G1 X128.779 Y109.577 E.02642
G1 X128.988 Y108.758 E.02648
G1 X129.154 Y107.932 E.02642
G1 X129.278 Y107.099 E.02642
G1 X129.377 Y105.991 E.03487
G1 X129.405 Y104.987 E.0315
G1 X129.382 Y104.098 E.02789
G1 X129.277 Y102.894 E.03787
G1 X129.152 Y102.061 E.02643
G1 X129.053 Y101.567 E.01578
G1 X128.75 Y100.331 E.0399
G1 X128.506 Y99.549 E.02569
G1 X128.211 Y98.752 E.02664
G1 X127.868 Y97.951 E.02732
G1 X127.471 Y97.146 E.02816
G1 X127.021 Y96.343 E.02887
G1 X126.519 Y95.553 E.02932
G1 X126.227 Y95.126 E.01622
G1 X125.717 Y94.455 E.02645
G1 X125.175 Y93.809 E.02641
G1 X124.601 Y93.19 E.02647
G1 X123.999 Y92.603 E.02639
G1 X123.28 Y91.973 E.02997
G1 X122.471 Y91.349 E.03201
G1 X122.022 Y91.026 E.01736
G1 X121.313 Y90.57 E.02644
G1 X120.583 Y90.148 E.02643
G1 X119.833 Y89.763 E.02646
G1 X118.997 Y89.39 E.02869
G1 X118.055 Y89.034 E.03157
G1 X117.479 Y88.841 E.01905
G1 X116.668 Y88.614 E.02641
G1 X115.845 Y88.425 E.02645
G1 X115.016 Y88.28 E.02641
G1 X114.179 Y88.174 E.02646
G1 X113.339 Y88.112 E.0264
G1 X112.504 Y88.09 E.02619
G1 X100.419 Y88.078 E.37891
G1 X100.13 Y87.956 E.00984
G1 X99.982 Y87.776 E.00729
G1 X99.911 Y87.515 E.00848
G1 X99.911 Y85.576 E.06079
G1 X99.984 Y85.222 E.01135
G1 X100.195 Y84.997 E.00966
G1 X100.518 Y84.91 E.01049
G1 X112.493 Y84.91 E.37549
G1 X113.556 Y84.955 E.03335
G1 X114.633 Y85.052 E.0339
G1 X115.722 Y85.199 E.03444
G1 X116.817 Y85.394 E.03488
G1 X117.918 Y85.638 E.03537
G1 X119.02 Y85.93 E.03574
G1 X120.121 Y86.269 E.03611
G1 X121.218 Y86.654 E.03647
G1 X122.31 Y87.083 E.03677
G1 X123.392 Y87.557 E.03704
G1 X124.46 Y88.07 E.03717
G1 X125.513 Y88.627 E.03733
G1 X126.545 Y89.223 E.0374
G1 X127.558 Y89.859 E.0375
