; generated by PrusaSlicer 2.5.0+win64 on 2022-10-09 at 13:55:22 UTC


;
;
; 

; external perimeters extrusion width = 0.60mm
; perimeters extrusion width = 0.50mm
; infill extrusion width = 0.50mm
; solid infill extrusion width = 0.50mm
; top infill extrusion width = 0.45mm
; first layer extrusion width = 0.42mm

; external perimeters extrusion width = 0.60mm
; perimeters extrusion width = 0.50mm
; infill extrusion width = 0.50mm
; solid infill extrusion width = 0.50mm
; top infill extrusion width = 0.45mm
; first layer extrusion width = 0.42mm

M73 P0 R177
M73 Q0 S178
M201 X1000 Y1000 Z200 E5000 ; sets maximum accelerations, mm/sec^2
M203 X200 Y200 Z12 E120 ; sets maximum feedrates, mm / sec
M204 P1250 R1250 T1250 ; sets acceleration (P, T) and retract acceleration (R), mm/sec^2
M205 X8.00 Y8.00 Z0.40 E4.50 ; sets the jerk limits, mm/sec
M205 S0 T0 ; sets the minimum extruding and travel feed rate, mm/sec
M107
;TYPE:Custom
M862.3 P "MK3S" ; printer model check
M862.1 P0.4 ; nozzle diameter check
M115 U3.11.0 ; tell printer latest fw version
G90 ; use absolute coordinates
M83 ; extruder relative mode
M104 S215 ; set extruder temp
M140 S60 ; set bed temp
M190 S60 ; wait for bed temp
M109 S215 ; wait for extruder temp
G28 W ; home all without mesh bed level
G80 ; mesh bed leveling

G1 Z0.2 F720
G1 Y-3 F1000 ; go outside print area
G92 E0
G1 X60 E9 F1000 ; intro line
G1 X100 E12.5 F1000 ; intro line

G92 E0
M221 S95

; Don't change E values below. Excessive value can damage the printer.

M907 E538 ; set extruder motor current
G21 ; set units to millimeters
G90 ; use absolute coordinates
M83 ; use relative distances for extrusion
M900 K0.05 ; Filament gcode LA 1.5
M900 K30 ; Filament gcode LA 1.0
M107
;LAYER_CHANGE
;Z:0.2
;HEIGHT:0.2
;BEFORE_LAYER_CHANGE
G92 E0.0
;0.2


G1 E-.8 F2100
G1 Z.4 F720
;AFTER_LAYER_CHANGE
;0.2
G1 X84.131 Y68.046 F10800
G1 Z.2 F720
G1 E.8 F2100
M204 S800
;TYPE:Skirt/Brim
;WIDTH:0.42
G1 F1200
G1 X94.652 Y55.039 E.52456
G1 X95.778 Y54.269 E.04278
G1 X96.5 Y54.156 E.0229
G1 X153.5 Y54.156 E1.7872
G1 X154.807 Y54.548 E.04278
M73 P0 R176
G1 X155.348 Y55.039 E.0229
G1 X170.148 Y73.337 E.7379
G1 X170.677 Y74.832 E.04972
G1 X170.677 Y135.168 E1.89181
G1 X169.981 Y136.849 E.05704
G1 X156.849 Y149.981 E.58228
G1 X155.168 Y150.677 E.05704
G1 X94.832 Y150.677 E1.89181
G1 X93.151 Y149.981 E.05704
G1 X80.019 Y136.849 E.58228
G1 X79.323 Y135.168 E.05704
G1 X79.323 Y74.832 E1.89181
G1 X79.852 Y73.337 E.04972
G1 X84.093 Y68.093 E.21146
M204 S1000
; printing object cockpit_clock-all.stl id:0 copy 0
;WIPE_START
G1 F8640
G1 X86.163 Y65.534 E-.76
;WIPE_END
G1 E-.04 F2100
G1 Z.6 F720
G1 X95.158 Y62.487 F10800
G1 Z.2 F720
G1 E.8 F2100
M204 S800
;TYPE:Perimeter
;WIDTH:0.419999
G1 F1200
G1 X96.833 Y62.476 E.05253
G1 X97.025 Y62.399 E.00647
G1 X97.216 Y62.197 E.00872
G1 X97.287 Y61.921 E.00892
G1 X97.287 Y57.461 E.13984
G1 X152.713 Y57.461 E1.73784
G1 X152.713 Y61.921 E.13984
M73 Q0 S177
G1 X152.72 Y62.012 E.00285
G1 X152.811 Y62.24 E.0077
G1 X153.019 Y62.424 E.00868
G1 X153.279 Y62.487 E.00839
G1 X154.842 Y62.487 E.04903
G1 X167.513 Y75.158 E.56184
G1 X167.513 Y134.842 E1.87136
G1 X154.842 Y147.513 E.56184
G1 X95.158 Y147.513 E1.87136
G1 X82.487 Y134.842 E.56184
G1 X82.487 Y75.158 E1.87136
G1 X95.115 Y62.529 E.55996
M204 S1000
G1 X95.002 Y62.11 F10800
M204 S800
;TYPE:External perimeter
G1 F1200
G1 X96.721 Y62.11 E.05393
G1 X96.839 Y62.069 E.00391
G1 X96.91 Y61.921 E.00513
G1 X96.91 Y57.084 E.15166
G1 X153.09 Y57.084 E1.76148
G1 X153.09 Y61.921 E.15166
G1 X153.134 Y62.042 E.00402
G1 X153.279 Y62.11 E.00502
G1 X154.998 Y62.11 E.05393
G1 X167.89 Y75.002 E.57163
G1 X167.89 Y134.998 E1.88116
G1 X154.998 Y147.89 E.57163
G1 X95.002 Y147.89 E1.88116
G1 X82.11 Y134.998 E.57163
G1 X82.11 Y75.002 E1.88116
G1 X94.959 Y62.152 E.56975
M204 S1000
G1 X95.336 Y62.33 F10800
;WIPE_START
G1 F8640
G1 X96.721 Y62.11 E-.40704
G1 X96.839 Y62.069 E-.02877
G1 X96.91 Y61.921 E-.03777
G1 X96.91 Y60.681 E-.28642
;WIPE_END
G1 E-.04 F2100
G1 Z.6 F720
G1 X114.379 Y75.913 F10800
G1 Z.2 F720
G1 E.8 F2100
M204 S800
;TYPE:Perimeter
G1 F1200
G1 X114.558 Y75.414 E.01663
G1 X114.771 Y74.93 E.01657
G1 X115.018 Y74.432 E.01744
G1 X115.289 Y73.947 E.01743
G1 X115.585 Y73.475 E.01743
G1 X115.903 Y73.019 E.01744
G1 X116.243 Y72.579 E.01743
G1 X116.604 Y72.157 E.01744
G1 X116.986 Y71.752 E.01743
G1 X117.404 Y71.352 E.01817
G1 X117.806 Y71.002 E.0167
G1 X118.244 Y70.659 E.01744
G1 X118.697 Y70.337 E.01744
G1 X119.166 Y70.038 E.01743
G1 X119.649 Y69.762 E.01743
G1 X120.145 Y69.511 E.01743
G1 X120.653 Y69.284 E.01744
G1 X121.171 Y69.082 E.01743
G1 X121.698 Y68.907 E.01744
G1 X122.234 Y68.757 E.01744
G1 X122.776 Y68.634 E.01743
G1 X123.324 Y68.538 E.01743
G1 X123.876 Y68.469 E.01744
G1 X124.712 Y68.42 E.02627
G1 X125.533 Y68.426 E.02572
G1 X126.097 Y68.466 E.01772
G1 X126.649 Y68.534 E.01744
G1 X127.196 Y68.629 E.01743
G1 X127.739 Y68.75 E.01743
G1 X128.275 Y68.899 E.01744
G1 X128.803 Y69.073 E.01744
G1 X129.322 Y69.273 E.01744
G1 X129.851 Y69.509 E.01816
G1 X130.327 Y69.749 E.0167
G1 X130.81 Y70.023 E.01744
G1 X131.28 Y70.321 E.01743
G1 X131.734 Y70.642 E.01743
G1 X132.172 Y70.985 E.01744
G1 X132.593 Y71.348 E.01743
G1 X132.995 Y71.733 E.01744
G1 X133.393 Y72.154 E.01816
G1 X133.74 Y72.558 E.0167
G1 X134.081 Y72.997 E.01744
G1 X134.546 Y73.684 E.02599
G1 X134.964 Y74.399 E.02599
G1 X135.218 Y74.905 E.01773
G1 X135.442 Y75.414 E.01744
G1 X135.621 Y75.913 E.01663
G1 X149.047 Y75.913 E.42095
G1 X149.303 Y75.974 E.00825
G1 X149.447 Y76.079 E.00558
G1 X153.921 Y80.553 E.19841
G1 X154.062 Y80.788 E.00859
G1 X154.087 Y80.953 E.00523
G1 X154.087 Y129.047 E1.50794
G1 X154.021 Y129.313 E.00859
G1 X153.921 Y129.447 E.00523
G1 X149.447 Y133.921 E.19841
G1 X149.212 Y134.062 E.00859
G1 X149.047 Y134.087 E.00523
G1 X100.953 Y134.087 E1.50794
G1 X100.687 Y134.021 E.00859
G1 X100.553 Y133.921 E.00523
G1 X96.079 Y129.447 E.19841
G1 X95.938 Y129.212 E.00859
G1 X95.913 Y129.047 E.00523
G1 X95.913 Y80.953 E1.50794
G1 X95.979 Y80.687 E.00859
G1 X96.079 Y80.553 E.00523
G1 X100.553 Y76.079 E.19841
G1 X100.8 Y75.934 E.00898
G1 X101.818 Y75.913 E.0319
G1 X114.319 Y75.913 E.39197
M204 S1000
G1 X114.644 Y76.29 F10800
M204 S800
;TYPE:External perimeter
M73 P0 R175
G1 F1200
G1 X114.899 Y75.577 E.02372
G1 X115.116 Y75.081 E.01698
G1 X115.355 Y74.6 E.01685
G1 X115.618 Y74.131 E.01685
G1 X115.904 Y73.676 E.01685
G1 X116.212 Y73.235 E.01685
G1 X116.541 Y72.81 E.01685
G1 X116.89 Y72.402 E.01685
G1 X117.26 Y72.011 E.01685
G1 X117.665 Y71.625 E.01756
G1 X118.054 Y71.287 E.01614
G1 X118.476 Y70.955 E.01685
G1 X118.915 Y70.645 E.01685
G1 X119.368 Y70.356 E.01685
G1 X119.835 Y70.09 E.01685
G1 X120.315 Y69.847 E.01685
G1 X120.806 Y69.628 E.01685
G1 X121.307 Y69.434 E.01685
G1 X121.817 Y69.265 E.01685
G1 X122.335 Y69.121 E.01685
G1 X122.859 Y69.002 E.01685
G1 X123.389 Y68.91 E.01685
G1 X123.922 Y68.843 E.01686
G1 X124.734 Y68.797 E.02549
G1 X125.53 Y68.803 E.02495
G1 X126.069 Y68.842 E.01695
G1 X126.602 Y68.908 E.01685
G1 X127.132 Y69 E.01685
G1 X127.656 Y69.118 E.01685
G1 X128.174 Y69.262 E.01685
G1 X128.684 Y69.431 E.01685
G1 X129.186 Y69.625 E.01685
G1 X129.697 Y69.853 E.01756
G1 X130.156 Y70.085 E.01614
G1 X130.624 Y70.351 E.01685
G1 X131.077 Y70.639 E.01685
G1 X131.516 Y70.95 E.01685
G1 X131.939 Y71.281 E.01685
G1 X132.345 Y71.633 E.01685
G1 X132.734 Y72.005 E.01686
G1 X133.118 Y72.412 E.01756
G1 X133.453 Y72.803 E.01615
G1 X133.783 Y73.228 E.01686
G1 X134.233 Y73.894 E.02522
G1 X134.639 Y74.589 E.02522
G1 X134.88 Y75.073 E.01696
G1 X135.096 Y75.565 E.01686
G1 X135.356 Y76.29 E.02414
G1 X149.047 Y76.29 E.42928
G1 X149.18 Y76.345 E.00452
G1 X153.655 Y80.82 E.19841
G1 X153.71 Y80.953 E.00452
G1 X153.71 Y129.047 E1.50794
G1 X153.655 Y129.18 E.00452
G1 X149.18 Y133.655 E.19841
G1 X149.047 Y133.71 E.00452
G1 X100.953 Y133.71 E1.50794
G1 X100.82 Y133.655 E.00452
G1 X96.345 Y129.18 E.19841
G1 X96.29 Y129.047 E.00452
G1 X96.29 Y80.953 E1.50794
G1 X96.345 Y80.82 E.00452
G1 X100.82 Y76.345 E.19841
G1 X100.953 Y76.29 E.00452
G1 X114.584 Y76.29 E.4274
M204 S1000
G1 X114.528 Y75.907 F10800
;WIPE_START
G1 F8640
G1 X114.899 Y75.577 E-.17984
G1 X115.116 Y75.081 E-.12505
G1 X115.355 Y74.6 E-.12411
G1 X115.618 Y74.131 E-.12411
G1 X115.904 Y73.676 E-.12411
G1 X116.109 Y73.382 E-.08279
;WIPE_END
G1 E-.04 F2100
G1 Z.6 F720
G1 X151.837 Y57.575 F10800
G1 Z.2 F720
G1 E.8 F2100
M204 S800
;TYPE:Solid infill
;WIDTH:0.420261
G1 F1200
G1 X152.43 Y58.168 E.02632
G1 X152.43 Y58.701 E.01674
G1 X151.473 Y57.744 E.04247
G1 X150.939 Y57.744 E.01674
G1 X152.43 Y59.235 E.06615
G1 X152.43 Y59.769 E.01674
G1 X150.406 Y57.744 E.08983
G1 X149.872 Y57.744 E.01674
G1 X152.43 Y60.302 E.11351
G1 X152.43 Y60.836 E.01674
G1 X149.338 Y57.744 E.13718
G1 X148.805 Y57.744 E.01674
G1 X152.6 Y61.539 E.16839
M204 S1000
;WIPE_START
G1 F8640
G1 X150.272 Y59.212 E-.76
;WIPE_END
G1 E-.04 F2100
G1 Z.6 F720
G1 X154.194 Y62.6 F10800
G1 Z.2 F720
G1 E.8 F2100
M204 S800
G1 F1200
G1 X167.23 Y75.636 E.57843
G1 X167.23 Y76.17 E.01674
G1 X153.661 Y62.6 E.60211
M204 S1000
;WIPE_START
G1 F8640
G1 X155.988 Y64.928 E-.76
;WIPE_END
G1 E-.04 F2100
G1 Z.6 F720
G1 X167.4 Y76.873 F10800
G1 Z.2 F720
G1 E.8 F2100
M204 S800
G1 F1200
G1 X153.297 Y62.77 E.62578
G1 X153.111 Y62.754 E.00585
G1 X152.959 Y62.708 E.00497
G1 X152.821 Y62.637 E.00489
G1 X152.628 Y62.467 E.00806
G1 X152.537 Y62.334 E.00505
G1 X152.466 Y62.168 E.00568
G1 X152.43 Y61.903 E.00837
G1 X148.271 Y57.744 E.18454
G1 X147.738 Y57.744 E.01674
G1 X167.23 Y77.237 E.86493
G1 X167.23 Y77.77 E.01674
M73 Q0 S176
G1 X147.204 Y57.744 E.88861
G1 X146.67 Y57.744 E.01674
G1 X167.23 Y78.304 E.91229
G1 X167.23 Y78.838 E.01674
G1 X146.137 Y57.744 E.93597
G1 X145.603 Y57.744 E.01674
G1 X167.23 Y79.371 E.95965
G1 X167.23 Y79.905 E.01674
G1 X145.069 Y57.744 E.98333
G1 X144.536 Y57.744 E.01674
G1 X167.23 Y80.439 E1.00701
G1 X167.23 Y80.972 E.01674
G1 X144.002 Y57.744 E1.03069
G1 X143.468 Y57.744 E.01674
G1 X167.23 Y81.506 E1.05436
G1 X167.23 Y82.04 E.01674
G1 X142.935 Y57.744 E1.07804
G1 X142.401 Y57.744 E.01674
G1 X167.23 Y82.573 E1.10172
G1 X167.23 Y83.107 E.01674
G1 X141.868 Y57.744 E1.1254
G1 X141.334 Y57.744 E.01674
G1 X167.23 Y83.64 E1.14908
G1 X167.23 Y84.174 E.01674
M73 P1 R175
M73 Q1 S176
G1 X140.8 Y57.744 E1.17276
G1 X140.267 Y57.744 E.01674
G1 X167.23 Y84.708 E1.19644
G1 X167.23 Y85.241 E.01674
G1 X139.733 Y57.744 E1.22012
G1 X139.199 Y57.744 E.01674
G1 X167.23 Y85.775 E1.2438
G1 X167.23 Y86.309 E.01674
G1 X138.666 Y57.744 E1.26747
G1 X138.132 Y57.744 E.01674
G1 X167.23 Y86.842 E1.29115
G1 X167.23 Y87.376 E.01674
G1 X137.598 Y57.744 E1.31483
G1 X137.065 Y57.744 E.01674
G1 X167.23 Y87.91 E1.33851
G1 X167.23 Y88.443 E.01674
G1 X136.531 Y57.744 E1.36219
G1 X135.997 Y57.744 E.01674
G1 X167.23 Y88.977 E1.38587
G1 X167.23 Y89.511 E.01674
M73 P1 R174
G1 X135.464 Y57.744 E1.40955
G1 X134.93 Y57.744 E.01674
G1 X167.23 Y90.044 E1.43323
G1 X167.23 Y90.578 E.01674
G1 X134.397 Y57.744 E1.45691
G1 X133.863 Y57.744 E.01674
G1 X167.23 Y91.111 E1.48058
G1 X167.23 Y91.645 E.01674
G1 X133.329 Y57.744 E1.50426
G1 X132.796 Y57.744 E.01674
G1 X167.23 Y92.179 E1.52794
G1 X167.23 Y92.712 E.01674
G1 X132.262 Y57.744 E1.55162
G1 X131.728 Y57.744 E.01674
G1 X167.23 Y93.246 E1.5753
G1 X167.23 Y93.78 E.01674
M73 Q1 S175
G1 X154.367 Y80.916 E.57078
G1 X154.354 Y80.786 E.0041
G1 X154.306 Y80.628 E.00517
G1 X154.228 Y80.483 E.00517
G1 X154.125 Y80.357 E.00512
G1 X149.643 Y75.875 E.19885
G1 X149.506 Y75.764 E.00553
G1 X149.277 Y75.661 E.00789
G1 X149.085 Y75.635 E.00607
G1 X131.195 Y57.744 E.79383
G1 X130.661 Y57.744 E.01674
G1 X148.547 Y75.63 E.79364
G1 X148.013 Y75.63 E.01674
G1 X130.127 Y57.744 E.79364
G1 X129.594 Y57.744 E.01674
G1 X147.48 Y75.63 E.79364
G1 X146.946 Y75.63 E.01674
G1 X129.06 Y57.744 E.79364
G1 X128.526 Y57.744 E.01674
G1 X146.412 Y75.63 E.79364
G1 X145.879 Y75.63 E.01674
G1 X127.993 Y57.744 E.79364
G1 X127.459 Y57.744 E.01674
G1 X145.345 Y75.63 E.79364
G1 X144.811 Y75.63 E.01674
G1 X126.926 Y57.744 E.79364
G1 X126.392 Y57.744 E.01674
G1 X144.278 Y75.63 E.79364
G1 X143.744 Y75.63 E.01674
G1 X125.858 Y57.744 E.79364
G1 X125.325 Y57.744 E.01674
G1 X143.211 Y75.63 E.79364
G1 X142.677 Y75.63 E.01674
G1 X124.791 Y57.744 E.79364
G1 X124.257 Y57.744 E.01674
G1 X142.143 Y75.63 E.79364
G1 X141.61 Y75.63 E.01674
G1 X123.724 Y57.744 E.79364
G1 X123.19 Y57.744 E.01674
G1 X141.076 Y75.63 E.79364
G1 X140.542 Y75.63 E.01674
G1 X122.656 Y57.744 E.79364
G1 X122.123 Y57.744 E.01674
G1 X140.009 Y75.63 E.79364
G1 X139.475 Y75.63 E.01674
G1 X121.589 Y57.744 E.79364
G1 X121.056 Y57.744 E.01674
G1 X138.941 Y75.63 E.79364
G1 X138.408 Y75.63 E.01674
G1 X120.522 Y57.744 E.79364
G1 X119.988 Y57.744 E.01674
G1 X137.874 Y75.63 E.79364
G1 X137.341 Y75.63 E.01674
G1 X119.455 Y57.744 E.79364
G1 X118.921 Y57.744 E.01674
G1 X130.961 Y69.785 E.53426
G1 X131.464 Y70.105 E.01871
G1 X131.899 Y70.412 E.01672
G1 X132.348 Y70.764 E.01789
G1 X132.807 Y71.161 E.01905
G1 X133.219 Y71.557 E.01794
G1 X133.624 Y71.988 E.01853
G1 X133.98 Y72.404 E.01719
G1 X134.336 Y72.866 E.0183
G1 X134.891 Y73.714 E.03181
G1 X136.807 Y75.63 E.08501
G1 X136.273 Y75.63 E.01674
G1 X135.139 Y74.495 E.05035
M204 S1000
;WIPE_START
G1 F8640
G1 X136.273 Y75.63 E-.37052
G1 X136.807 Y75.63 E-.12322
G1 X135.991 Y74.815 E-.26626
;WIPE_END
G1 E-.04 F2100
G1 Z.6 F720
G1 X130.203 Y69.56 F10800
G1 Z.2 F720
G1 E.8 F2100
M204 S800
G1 F1200
G1 X118.387 Y57.744 E.52431
G1 X117.854 Y57.744 E.01674
G1 X128.926 Y68.817 E.49132
G1 X128.145 Y68.569 E.02571
G1 X117.32 Y57.744 E.48034
G1 X116.786 Y57.744 E.01674
G1 X127.434 Y68.392 E.47246
G1 X126.778 Y68.27 E.02092
G1 X116.253 Y57.744 E.46705
G1 X115.719 Y57.744 E.01674
G1 X126.165 Y68.19 E.46351
G1 X125.586 Y68.145 E.01821
G1 X115.185 Y57.744 E.46151
G1 X114.652 Y57.744 E.01674
G1 X125.048 Y68.141 E.46131
G1 X124.522 Y68.148 E.01651
G1 X114.118 Y57.744 E.46164
G1 X113.585 Y57.744 E.01674
G1 X124.018 Y68.178 E.46296
G1 X123.534 Y68.227 E.01528
M73 P1 R173
G1 X113.051 Y57.744 E.46515
G1 X112.517 Y57.744 E.01674
G1 X123.069 Y68.296 E.46819
G1 X122.62 Y68.381 E.01433
G1 X111.984 Y57.744 E.47196
G1 X111.45 Y57.744 E.01674
G1 X122.184 Y68.479 E.47631
G1 X121.766 Y68.594 E.01361
G1 X110.916 Y57.744 E.48144
G1 X110.383 Y57.744 E.01674
G1 X121.36 Y68.721 E.48707
G1 X120.965 Y68.86 E.01313
G1 X109.849 Y57.744 E.49323
G1 X109.315 Y57.744 E.01674
G1 X120.58 Y69.009 E.49984
G1 X120.21 Y69.172 E.0127
G1 X108.782 Y57.744 E.50708
G1 X108.248 Y57.744 E.01674
G1 X119.848 Y69.344 E.51471
G1 X119.495 Y69.525 E.01243
G1 X107.715 Y57.744 E.52275
G1 X107.181 Y57.744 E.01674
G1 X119.155 Y69.719 E.53134
G1 X118.824 Y69.921 E.01218
G1 X106.647 Y57.744 E.5403
G1 X106.114 Y57.744 E.01674
G1 X118.5 Y70.13 E.54959
G1 X118.187 Y70.351 E.01201
G1 X105.58 Y57.744 E.55941
G1 X105.046 Y57.744 E.01674
G1 X117.884 Y70.582 E.56965
G1 X117.588 Y70.819 E.01191
G1 X104.513 Y57.744 E.58017
G1 X103.979 Y57.744 E.01674
G1 X117.308 Y71.074 E.59146
G1 X117.029 Y71.328 E.01185
G1 X103.445 Y57.744 E.60275
G1 X102.912 Y57.744 E.01674
G1 X116.754 Y71.587 E.61423
G1 X116.495 Y71.861 E.01184
G1 X102.378 Y57.744 E.62639
G1 X101.844 Y57.744 E.01674
M73 Q1 S174
G1 X116.243 Y72.143 E.63891
G1 X115.999 Y72.432 E.01188
G1 X101.311 Y57.744 E.65175
G1 X100.777 Y57.744 E.01674
G1 X115.766 Y72.733 E.66509
G1 X115.542 Y73.043 E.01199
G1 X100.244 Y57.744 E.67884
G1 X99.71 Y57.744 E.01674
G1 X115.324 Y73.358 E.69284
G1 X115.118 Y73.686 E.01214
M73 P2 R173
G1 X99.176 Y57.744 E.70738
G1 X98.643 Y57.744 E.01674
M73 Q2 S174
G1 X114.922 Y74.024 E.72237
G1 X114.734 Y74.369 E.01234
G1 X98.109 Y57.744 E.7377
G1 X97.575 Y57.744 E.01674
G1 X114.557 Y74.726 E.7535
G1 X114.39 Y75.093 E.01265
G1 X97.57 Y58.272 E.74637
G1 X97.57 Y58.806 E.01674
G1 X114.237 Y75.473 E.73955
G1 X114.18 Y75.63 E.00525
G1 X113.86 Y75.63 E.01002
G1 X97.57 Y59.34 E.72285
G1 X97.57 Y59.873 E.01674
G1 X113.327 Y75.63 E.69917
G1 X112.793 Y75.63 E.01674
G1 X97.57 Y60.407 E.67549
G1 X97.57 Y60.941 E.01674
G1 X112.259 Y75.63 E.65181
G1 X111.726 Y75.63 E.01674
G1 X97.57 Y61.474 E.62813
G1 X97.56 Y61.998 E.01642
G1 X111.192 Y75.63 E.60491
