; generated by PrusaSlicer 2.5.0+win64 on 2022-10-09 at 10:43:41 UTC


;
;
; 

; external perimeters extrusion width = 0.60mm
; perimeters extrusion width = 0.50mm
; infill extrusion width = 0.50mm
; solid infill extrusion width = 0.50mm
; top infill extrusion width = 0.45mm
; first layer extrusion width = 0.42mm

; external perimeters extrusion width = 0.60mm
; perimeters extrusion width = 0.50mm
; infill extrusion width = 0.50mm
; solid infill extrusion width = 0.50mm
; top infill extrusion width = 0.45mm
; first layer extrusion width = 0.42mm

M73 P0 R182
M73 C54
M73 Q0 S183
M73 D54
M201 X1000 Y1000 Z200 E5000 ; sets maximum accelerations, mm/sec^2
M203 X200 Y200 Z12 E120 ; sets maximum feedrates, mm / sec
M204 P1250 R1250 T1250 ; sets acceleration (P, T) and retract acceleration (R), mm/sec^2
M205 X8.00 Y8.00 Z0.40 E4.50 ; sets the jerk limits, mm/sec
M205 S0 T0 ; sets the minimum extruding and travel feed rate, mm/sec
M107
;TYPE:Custom
M862.3 P "MK3S" ; printer model check
M862.1 P0.4 ; nozzle diameter check
M115 U3.11.0 ; tell printer latest fw version
G90 ; use absolute coordinates
M83 ; extruder relative mode
M104 S215 ; set extruder temp
M140 S60 ; set bed temp
M190 S60 ; wait for bed temp
M109 S215 ; wait for extruder temp
G28 W ; home all without mesh bed level
G80 ; mesh bed leveling

G1 Z0.2 F720
G1 Y-3 F1000 ; go outside print area
G92 E0
G1 X60 E9 F1000 ; intro line
G1 X100 E12.5 F1000 ; intro line

G92 E0
M221 S95

; Don't change E values below. Excessive value can damage the printer.

M907 E538 ; set extruder motor current
G21 ; set units to millimeters
G90 ; use absolute coordinates
M83 ; use relative distances for extrusion
M900 K0.05 ; Filament gcode LA 1.5
M900 K30 ; Filament gcode LA 1.0
M107
;LAYER_CHANGE
;Z:0.2
;HEIGHT:0.2
;BEFORE_LAYER_CHANGE
G92 E0.0
;0.2


M73 P0 R181
M73 C53
G1 E-.8 F2100
G1 Z.4 F720
;AFTER_LAYER_CHANGE
;0.2
G1 X83.852 Y65.495 F10800
G1 Z.2 F720
G1 E.8 F2100
M204 S800
;TYPE:Skirt/Brim
;WIDTH:0.42
G1 F1200
G1 X93.127 Y53.62 E.47244
G1 X94.24 Y52.831 E.04278
G1 X95 Y52.706 E.02415
G1 X155 Y52.706 E1.88126
G1 X156.307 Y53.098 E.04278
G1 X156.873 Y53.62 E.02415
G1 X171.623 Y72.504 E.75131
G1 X172.127 Y73.968 E.04852
G1 X172.127 Y136.032 E1.946
G1 X171.431 Y137.713 E.05704
G1 X157.713 Y151.431 E.60826
G1 X156.032 Y152.127 E.05704
G1 X93.968 Y152.127 E1.946
G1 X92.287 Y151.431 E.05704
G1 X78.569 Y137.713 E.60826
G1 X77.873 Y136.032 E.05704
M73 D53
G1 X77.873 Y73.968 E1.946
G1 X78.377 Y72.504 E.04852
G1 X83.815 Y65.542 E.27699
M204 S1000
; printing object cockpit_clock-all.stl id:0 copy 0
;WIPE_START
G1 F8640
G1 X85.841 Y62.948 E-.76
;WIPE_END
G1 E-.04 F2100
G1 Z.6 F720
G1 X95.248 Y61.027 F10800
G1 Z.2 F720
G1 E.8 F2100
M204 S800
;TYPE:Perimeter
;WIDTH:0.419999
G1 F1200
G1 X95.333 Y61.026 E.00266
G1 X95.525 Y60.948 E.00651
G1 X95.716 Y60.747 E.00869
G1 X95.787 Y60.471 E.00892
G1 X95.787 Y56.011 E.13984
G1 X154.213 Y56.011 E1.8319
G1 X154.213 Y60.471 E.13984
M73 Q0 S182
G1 X154.22 Y60.562 E.00285
G1 X154.307 Y60.784 E.00747
G1 X154.514 Y60.972 E.00876
G1 X154.779 Y61.037 E.00854
G1 X155.706 Y61.037 E.02909
G1 X168.963 Y74.294 E.58781
G1 X168.963 Y135.706 E1.92556
G1 X155.706 Y148.963 E.58781
G1 X94.294 Y148.963 E1.92556
G1 X81.037 Y135.706 E.58781
G1 X81.037 Y74.294 E1.92556
G1 X94.294 Y61.037 E.58781
G1 X95.188 Y61.028 E.02805
M204 S1000
G1 X95.221 Y60.66 F10800
M204 S800
;TYPE:External perimeter
G1 F1200
G1 X95.348 Y60.611 E.00425
G1 X95.41 Y60.471 E.0048
G1 X95.41 Y55.634 E.15166
G1 X154.59 Y55.634 E1.85554
G1 X154.59 Y60.471 E.15166
G1 X154.64 Y60.6 E.00433
G1 X154.779 Y60.66 E.00472
G1 X155.863 Y60.66 E.03399
G1 X169.34 Y74.137 E.59761
G1 X169.34 Y135.863 E1.93535
G1 X155.863 Y149.34 E.59761
G1 X94.137 Y149.34 E1.93535
G1 X80.66 Y135.863 E.59761
G1 X80.66 Y74.137 E1.93535
G1 X94.137 Y60.66 E.59761
G1 X95.161 Y60.66 E.03211
M204 S1000
G1 X95.337 Y60.731 F10800
;WIPE_START
G1 F8640
G1 X95.348 Y60.611 E-.04449
G1 X95.41 Y60.471 E-.03533
G1 X95.41 Y57.526 E-.68017
;WIPE_END
G1 E-.04 F2100
G1 Z.6 F720
G1 X94.592 Y79.738 F10800
G1 Z.2 F720
G1 E.8 F2100
M204 S800
;TYPE:Perimeter
G1 F1200
G1 X99.689 Y74.629 E.2263
G1 X99.907 Y74.493 E.00806
G1 X100.089 Y74.463 E.00577
G1 X115.113 Y74.463 E.47106
G1 X115.324 Y73.982 E.01648
G1 X115.559 Y73.533 E.01588
G1 X115.828 Y73.072 E.01675
G1 X116.121 Y72.625 E.01675
G1 X116.435 Y72.193 E.01675
G1 X116.785 Y71.76 E.01746
G1 X117.49 Y71.007 E.03234
G1 X118.275 Y70.317 E.03278
G1 X118.729 Y69.973 E.01784
G1 X119.172 Y69.673 E.01678
G1 X119.628 Y69.396 E.01675
G1 X120.098 Y69.141 E.01675
G1 X120.58 Y68.91 E.01675
G1 X121.072 Y68.704 E.01675
G1 X121.574 Y68.521 E.01675
G1 X122.085 Y68.364 E.01675
G1 X122.602 Y68.233 E.01675
G1 X123.168 Y68.12 E.01807
G1 X124.171 Y67.995 E.03171
G1 X124.719 Y67.967 E.01719
G1 X125.253 Y67.966 E.01675
G1 X125.787 Y67.992 E.01675
G1 X126.318 Y68.044 E.01675
G1 X126.846 Y68.122 E.01675
G1 X127.37 Y68.227 E.01675
M73 P0 R180
G1 X127.888 Y68.357 E.01675
G1 X128.399 Y68.513 E.01675
G1 X128.902 Y68.693 E.01675
G1 X129.395 Y68.899 E.01675
G1 X129.897 Y69.139 E.01746
G1 X130.792 Y69.651 E.03233
G1 X131.247 Y69.956 E.01718
G1 X131.675 Y70.276 E.01675
G1 X132.086 Y70.617 E.01675
G1 X132.48 Y70.978 E.01675
G1 X132.856 Y71.358 E.01675
G1 X133.212 Y71.756 E.01675
G1 X133.548 Y72.171 E.01675
G1 X133.863 Y72.602 E.01675
G1 X134.157 Y73.048 E.01675
G1 X134.428 Y73.508 E.01675
G1 X134.676 Y73.982 E.01675
G1 X134.887 Y74.463 E.01648
G1 X149.911 Y74.463 E.47106
G1 X150.151 Y74.517 E.00772
G1 X150.311 Y74.629 E.00611
G1 X155.371 Y79.689 E.22439
G1 X155.512 Y79.924 E.00859
G1 X155.537 Y80.089 E.00523
G1 X155.537 Y129.911 E1.56213
G1 X155.471 Y130.177 E.00859
M73 C52
G1 X155.371 Y130.311 E.00523
G1 X150.311 Y135.371 E.22439
G1 X150.076 Y135.512 E.00859
G1 X149.911 Y135.537 E.00523
G1 X100.089 Y135.537 E1.56213
G1 X99.823 Y135.471 E.00859
G1 X99.689 Y135.371 E.00523
G1 X94.629 Y130.311 E.22439
G1 X94.488 Y130.076 E.00859
G1 X94.463 Y129.911 E.00523
G1 X94.463 Y80.089 E1.56213
G1 X94.529 Y79.823 E.00859
G1 X94.556 Y79.787 E.00142
M204 S1000
G1 X94.908 Y79.943 F10800
M204 S800
;TYPE:External perimeter
G1 F1200
G1 X99.956 Y74.895 E.22382
G1 X100.089 Y74.84 E.00452
G1 X115.36 Y74.84 E.47881
G1 X115.653 Y74.168 E.02298
G1 X115.893 Y73.707 E.01629
G1 X116.154 Y73.263 E.01616
G1 X116.436 Y72.832 E.01616
G1 X116.74 Y72.415 E.01616
G1 X117.078 Y71.997 E.01685
G1 X117.765 Y71.265 E.03148
G1 X118.524 Y70.601 E.03162
G1 X118.956 Y70.274 E.01698
G1 X119.383 Y69.985 E.01617
G1 X119.824 Y69.718 E.01616
G1 X120.277 Y69.473 E.01616
G1 X120.742 Y69.251 E.01616
G1 X121.218 Y69.051 E.01616
G1 X121.702 Y68.876 E.01616
G1 X122.195 Y68.725 E.01616
G1 X122.695 Y68.598 E.01616
G1 X123.214 Y68.494 E.01661
G1 X124.218 Y68.37 E.03171
G1 X124.738 Y68.343 E.01632
G1 X125.253 Y68.343 E.01616
G1 X125.768 Y68.368 E.01616
G1 X126.281 Y68.419 E.01616
G1 X126.791 Y68.495 E.01616
G1 X127.296 Y68.596 E.01616
G1 X127.796 Y68.722 E.01616
G1 X128.289 Y68.873 E.01616
G1 X128.774 Y69.048 E.01616
G1 X129.249 Y69.247 E.01616
G1 X129.734 Y69.479 E.01685
G1 X130.605 Y69.978 E.03147
G1 X131.036 Y70.269 E.01631
G1 X131.449 Y70.578 E.01616
G1 X131.845 Y70.907 E.01616
G1 X132.225 Y71.256 E.01616
G1 X132.587 Y71.622 E.01616
G1 X132.931 Y72.007 E.01616
G1 X133.255 Y72.408 E.01616
G1 X133.559 Y72.824 E.01616
G1 X133.841 Y73.255 E.01616
G1 X134.103 Y73.699 E.01616
G1 X134.342 Y74.156 E.01617
G1 X134.64 Y74.84 E.0234
G1 X149.911 Y74.84 E.47881
G1 X150.044 Y74.895 E.00452
G1 X155.105 Y79.956 E.22439
G1 X155.16 Y80.089 E.00452
G1 X155.16 Y129.911 E1.56213
G1 X155.105 Y130.044 E.00452
G1 X150.044 Y135.105 E.22439
G1 X149.911 Y135.16 E.00452
G1 X100.089 Y135.16 E1.56213
G1 X99.956 Y135.105 E.00452
G1 X94.895 Y130.044 E.22439
G1 X94.84 Y129.911 E.00452
M73 D52
G1 X94.84 Y80.089 E1.56213
G1 X94.879 Y79.994 E.00321
M204 S1000
G1 X94.708 Y79.596 F10800
;WIPE_START
G1 F8640
G1 X97.201 Y77.662 E-.76
;WIPE_END
G1 E-.04 F2100
G1 Z.6 F720
G1 X168.85 Y74.837 F10800
G1 Z.2 F720
G1 E.8 F2100
M204 S800
;TYPE:Solid infill
;WIDTH:0.420082
G1 F1200
G1 X155.163 Y61.15 E.60704
M204 S1000
;WIPE_START
G1 F8640
G1 X157.49 Y63.478 E-.76
;WIPE_END
G1 E-.04 F2100
G1 Z.6 F720
G1 X154.1 Y56.887 F10800
G1 Z.2 F720
G1 E.8 F2100
M204 S800
G1 F1200
G1 X153.507 Y56.294 E.02629
G1 X152.974 Y56.294 E.01673
G1 X153.93 Y57.251 E.04242
G1 X153.93 Y57.784 E.01673
G1 X152.44 Y56.294 E.06608
G1 X151.907 Y56.294 E.01673
G1 X153.93 Y58.317 E.08973
G1 X153.93 Y58.851 E.01673
M73 Q0 S181
G1 X151.374 Y56.294 E.11339
G1 X150.84 Y56.294 E.01673
G1 X153.93 Y59.384 E.13705
G1 X153.93 Y59.918 E.01673
G1 X150.307 Y56.294 E.1607
G1 X149.773 Y56.294 E.01673
G1 X153.93 Y60.451 E.18436
G1 X153.966 Y60.718 E.00843
G1 X154.036 Y60.883 E.00565
G1 X154.113 Y60.999 E.00436
G1 X154.319 Y61.185 E.00869
G1 X154.447 Y61.253 E.00453
G1 X154.611 Y61.304 E.0054
G1 X154.799 Y61.32 E.00592
G1 X168.68 Y75.201 E.61565
G1 X168.68 Y75.734 E.01673
G1 X149.24 Y56.294 E.8622
G1 X148.707 Y56.294 E.01673
G1 X168.68 Y76.268 E.88585
G1 X168.68 Y76.801 E.01673
G1 X148.173 Y56.294 E.90951
G1 X147.64 Y56.294 E.01673
G1 X168.68 Y77.335 E.93317
G1 X168.68 Y77.868 E.01673
G1 X147.106 Y56.294 E.95682
G1 X146.573 Y56.294 E.01673
G1 X168.68 Y78.401 E.98048
G1 X168.68 Y78.935 E.01673
G1 X146.04 Y56.294 E1.00414
G1 X145.506 Y56.294 E.01673
G1 X168.68 Y79.468 E1.02779
G1 X168.68 Y80.002 E.01673
G1 X144.973 Y56.294 E1.05145
G1 X144.439 Y56.294 E.01673
G1 X168.68 Y80.535 E1.07511
G1 X168.68 Y81.068 E.01673
G1 X143.906 Y56.294 E1.09876
G1 X143.373 Y56.294 E.01673
G1 X168.68 Y81.602 E1.12242
G1 X168.68 Y82.135 E.01673
G1 X142.839 Y56.294 E1.14608
G1 X142.306 Y56.294 E.01673
G1 X168.68 Y82.668 E1.16973
G1 X168.68 Y83.202 E.01673
M73 P1 R180
M73 Q1 S181
G1 X141.773 Y56.294 E1.19339
G1 X141.239 Y56.294 E.01673
G1 X168.68 Y83.735 E1.21705
G1 X168.68 Y84.269 E.01673
G1 X140.706 Y56.294 E1.2407
G1 X140.172 Y56.294 E.01673
G1 X168.68 Y84.802 E1.26436
G1 X168.68 Y85.335 E.01673
G1 X139.639 Y56.294 E1.28801
G1 X139.106 Y56.294 E.01673
M73 P1 R179
G1 X168.68 Y85.869 E1.31167
G1 X168.68 Y86.402 E.01673
M73 C51
G1 X138.572 Y56.294 E1.33533
G1 X138.039 Y56.294 E.01673
G1 X168.68 Y86.936 E1.35898
G1 X168.68 Y87.469 E.01673
G1 X137.505 Y56.294 E1.38264
G1 X136.972 Y56.294 E.01673
G1 X168.68 Y88.002 E1.4063
G1 X168.68 Y88.536 E.01673
G1 X136.439 Y56.294 E1.42995
G1 X135.905 Y56.294 E.01673
G1 X168.68 Y89.069 E1.45361
G1 X168.68 Y89.602 E.01673
G1 X135.372 Y56.294 E1.47727
G1 X134.839 Y56.294 E.01673
G1 X168.68 Y90.136 E1.50092
G1 X168.68 Y90.669 E.01673
M73 D51
G1 X134.305 Y56.294 E1.52458
G1 X133.772 Y56.294 E.01673
G1 X168.68 Y91.203 E1.54824
G1 X168.68 Y91.736 E.01673
M73 Q1 S180
G1 X133.238 Y56.294 E1.57189
G1 X132.705 Y56.294 E.01673
G1 X168.68 Y92.269 E1.59555
G1 X168.68 Y92.803 E.01673
G1 X132.172 Y56.294 E1.61921
G1 X131.638 Y56.294 E.01673
G1 X149.524 Y74.18 E.79326
G1 X148.991 Y74.18 E.01673
G1 X131.105 Y56.294 E.79326
G1 X130.571 Y56.294 E.01673
G1 X148.457 Y74.18 E.79326
G1 X147.924 Y74.18 E.01673
G1 X130.038 Y56.294 E.79326
G1 X129.505 Y56.294 E.01673
G1 X147.391 Y74.18 E.79326
G1 X146.857 Y74.18 E.01673
G1 X128.971 Y56.294 E.79326
G1 X128.438 Y56.294 E.01673
G1 X146.324 Y74.18 E.79326
G1 X145.79 Y74.18 E.01673
G1 X127.904 Y56.294 E.79326
G1 X127.371 Y56.294 E.01673
G1 X145.257 Y74.18 E.79326
G1 X144.724 Y74.18 E.01673
G1 X126.838 Y56.294 E.79326
G1 X126.304 Y56.294 E.01673
G1 X144.19 Y74.18 E.79326
G1 X143.657 Y74.18 E.01673
G1 X125.771 Y56.294 E.79326
G1 X125.238 Y56.294 E.01673
G1 X143.123 Y74.18 E.79326
G1 X142.59 Y74.18 E.01673
G1 X124.704 Y56.294 E.79326
G1 X124.171 Y56.294 E.01673
G1 X142.057 Y74.18 E.79326
G1 X141.523 Y74.18 E.01673
G1 X123.637 Y56.294 E.79326
G1 X123.104 Y56.294 E.01673
G1 X140.99 Y74.18 E.79326
G1 X140.456 Y74.18 E.01673
G1 X122.571 Y56.294 E.79326
G1 X122.037 Y56.294 E.01673
G1 X139.923 Y74.18 E.79326
G1 X139.39 Y74.18 E.01673
G1 X121.504 Y56.294 E.79326
G1 X120.97 Y56.294 E.01673
G1 X138.856 Y74.18 E.79326
G1 X138.323 Y74.18 E.01673
M73 P1 R178
G1 X120.437 Y56.294 E.79326
G1 X119.904 Y56.294 E.01673
M73 C50
G1 X137.79 Y74.18 E.79326
G1 X137.256 Y74.18 E.01673
G1 X119.37 Y56.294 E.79326
G1 X118.837 Y56.294 E.01673
G1 X136.723 Y74.18 E.79326
G1 X136.189 Y74.18 E.01673
G1 X118.303 Y56.294 E.79326
G1 X117.77 Y56.294 E.01673
G1 X130.816 Y69.34 E.57861
G1 X131.438 Y69.745 E.02327
G1 X131.847 Y70.051 E.01602
G1 X132.269 Y70.401 E.01719
G1 X132.7 Y70.797 E.01836
G1 X133.059 Y71.161 E.01602
G1 X133.424 Y71.569 E.01719
G1 X133.792 Y72.024 E.01836
G1 X134.093 Y72.437 E.01602
G1 X134.428 Y72.952 E.01928
G1 X135.656 Y74.18 E.05445
G1 X135.123 Y74.18 E.01673
G1 X134.671 Y73.729 E.02001
M204 S1000
;WIPE_START
G1 F8640
G1 X135.123 Y74.18 E-.14733
G1 X135.656 Y74.18 E-.12316
G1 X134.428 Y72.952 E-.40091
G1 X134.219 Y72.631 E-.0886
;WIPE_END
G1 E-.04 F2100
G1 Z.6 F720
G1 X130.02 Y69.078 F10800
G1 Z.2 F720
G1 E.8 F2100
M204 S800
G1 F1200
G1 X117.237 Y56.294 E.56697
G1 X116.703 Y56.294 E.01673
G1 X128.746 Y68.337 E.53411
G1 X127.96 Y68.084 E.02589
G1 X116.17 Y56.294 E.52291
G1 X115.637 Y56.294 E.01673
G1 X127.258 Y67.916 E.51544
G1 X126.61 Y67.801 E.02066
G1 X115.103 Y56.294 E.51034
G1 X114.57 Y56.294 E.01673
G1 X126.005 Y67.73 E.50717
G1 X125.433 Y67.691 E.01797
G1 X114.036 Y56.294 E.50547
G1 X113.503 Y56.294 E.01673
G1 X124.892 Y67.683 E.50513
G1 X124.377 Y67.702 E.01615
G1 X112.97 Y56.294 E.50595
G1 X112.436 Y56.294 E.01673
G1 X123.888 Y67.746 E.50789
G1 X123.413 Y67.805 E.01499
G1 X111.903 Y56.294 E.51051
G1 X111.369 Y56.294 E.01673
G1 X122.951 Y67.875 E.51364
G1 X122.508 Y67.966 E.01417
M73 D50
G1 X110.836 Y56.294 E.51766
G1 X110.303 Y56.294 E.01673
G1 X122.082 Y68.074 E.52243
G1 X121.671 Y68.196 E.01346
G1 X109.769 Y56.294 E.52784
G1 X109.236 Y56.294 E.01673
G1 X121.272 Y68.33 E.53382
G1 X120.885 Y68.476 E.01298
G1 X108.703 Y56.294 E.5403
G1 X108.169 Y56.294 E.01673
G1 X120.509 Y68.634 E.54727
G1 X120.146 Y68.805 E.01257
M73 Q1 S179
G1 X107.636 Y56.294 E.55485
G1 X107.102 Y56.294 E.01673
G1 X119.793 Y68.985 E.56284
G1 X119.449 Y69.175 E.01231
G1 X106.569 Y56.294 E.57126
G1 X106.036 Y56.294 E.01673
G1 X119.117 Y69.376 E.58019
G1 X118.795 Y69.587 E.01208
G1 X105.502 Y56.294 E.58955
G1 X104.969 Y56.294 E.01673
G1 X118.481 Y69.806 E.59927
G1 X118.177 Y70.035 E.01194
G1 X104.435 Y56.294 E.60944
G1 X103.902 Y56.294 E.01673
G1 X117.889 Y70.281 E.62034
G1 X117.604 Y70.529 E.01186
G1 X103.369 Y56.294 E.63135
G1 X102.835 Y56.294 E.01673
G1 X117.321 Y70.78 E.64245
G1 X117.062 Y71.054 E.01183
G1 X102.302 Y56.294 E.65463
G1 X101.768 Y56.294 E.01673
G1 X116.803 Y71.329 E.66681
G1 X116.546 Y71.605 E.01184
G1 X101.235 Y56.294 E.67907
G1 X100.702 Y56.294 E.01673
M73 P2 R178
G1 X116.308 Y71.9 E.69215
G1 X116.078 Y72.203 E.01194
M73 Q2 S179
G1 X100.168 Y56.294 E.7056
G1 X99.635 Y56.294 E.01673
G1 X115.855 Y72.514 E.71938
G1 X115.644 Y72.836 E.01208
G1 X99.102 Y56.294 E.73367
G1 X98.568 Y56.294 E.01673
G1 X115.444 Y73.17 E.74846
G1 X115.251 Y73.511 E.01227
G1 X98.035 Y56.294 E.76357
G1 X97.501 Y56.294 E.01673
G1 X115.069 Y73.861 E.77913
G1 X114.928 Y74.18 E.01093
G1 X114.854 Y74.18 E.00232
G1 X96.968 Y56.294 E.79326
G1 X96.435 Y56.294 E.01673
G1 X114.321 Y74.18 E.79326
G1 X113.787 Y74.18 E.01673
G1 X96.07 Y56.463 E.78578
G1 X96.07 Y56.996 E.01673
G1 X113.254 Y74.18 E.76213
G1 X112.72 Y74.18 E.01673
G1 X96.07 Y57.53 E.73847
G1 X96.07 Y58.063 E.01673
G1 X112.187 Y74.18 E.71482
G1 X111.654 Y74.18 E.01673
G1 X96.07 Y58.596 E.69116
G1 X96.07 Y59.13 E.01673
G1 X111.12 Y74.18 E.6675
G1 X110.587 Y74.18 E.01673
G1 X96.07 Y59.663 E.64385
G1 X96.07 Y60.197 E.01673
G1 X110.053 Y74.18 E.62019
G1 X109.52 Y74.18 E.01673
G1 X96.037 Y60.697 E.59798
G1 X95.964 Y60.883 E.00628
G1 X95.844 Y61.038 E.00612
G1 X108.987 Y74.18 E.58289
G1 X108.453 Y74.18 E.01673
M73 P2 R177
G1 X95.532 Y61.259 E.57306
G1 X95.389 Y61.304 E.00471
G1 X95.06 Y61.32 E.01034
G1 X107.92 Y74.18 E.57037
G1 X107.386 Y74.18 E.01673
M73 C49
G1 X94.526 Y61.32 E.57037
G1 X94.411 Y61.32 E.00362
G1 X94.202 Y61.529 E.00927
G1 X106.853 Y74.18 E.5611
G1 X106.32 Y74.18 E.01673
G1 X93.935 Y61.795 E.54928
G1 X93.668 Y62.062 E.01183
