; generated by PrusaSlicer 2.5.0+win64 on 2022-10-09 at 08:17:29 UTC


;
;
; 

; external perimeters extrusion width = 0.60mm
; perimeters extrusion width = 0.50mm
; infill extrusion width = 0.50mm
; solid infill extrusion width = 0.50mm
; top infill extrusion width = 0.45mm
; first layer extrusion width = 0.42mm

; external perimeters extrusion width = 0.60mm
; perimeters extrusion width = 0.50mm
; infill extrusion width = 0.50mm
; solid infill extrusion width = 0.50mm
; top infill extrusion width = 0.45mm
; first layer extrusion width = 0.42mm

M73 P0 R175
M73 Q0 S176
M201 X1000 Y1000 Z200 E5000 ; sets maximum accelerations, mm/sec^2
M203 X200 Y200 Z12 E120 ; sets maximum feedrates, mm / sec
M204 P1250 R1250 T1250 ; sets acceleration (P, T) and retract acceleration (R), mm/sec^2
M205 X8.00 Y8.00 Z0.40 E4.50 ; sets the jerk limits, mm/sec
M205 S0 T0 ; sets the minimum extruding and travel feed rate, mm/sec
M107
;TYPE:Custom
M862.3 P "MK3S" ; printer model check
M862.1 P0.4 ; nozzle diameter check
M115 U3.11.0 ; tell printer latest fw version
G90 ; use absolute coordinates
M83 ; extruder relative mode
M104 S215 ; set extruder temp
M140 S60 ; set bed temp
M190 S60 ; wait for bed temp
M109 S215 ; wait for extruder temp
G28 W ; home all without mesh bed level
G80 ; mesh bed leveling

G1 Z0.2 F720
G1 Y-3 F1000 ; go outside print area
G92 E0
G1 X60 E9 F1000 ; intro line
G1 X100 E12.5 F1000 ; intro line

G92 E0
M221 S95

; Don't change E values below. Excessive value can damage the printer.

M907 E538 ; set extruder motor current
G21 ; set units to millimeters
G90 ; use absolute coordinates
M83 ; use relative distances for extrusion
M900 K0.05 ; Filament gcode LA 1.5
M900 K30 ; Filament gcode LA 1.0
M107
;LAYER_CHANGE
;Z:0.2
;HEIGHT:0.2
;BEFORE_LAYER_CHANGE
G92 E0.0
;0.2


G1 E-.8 F2100
G1 Z.4 F720
;AFTER_LAYER_CHANGE
;0.2
G1 X83.522 Y70.521 F10800
G1 Z.2 F720
G1 E.8 F2100
M204 S800
;TYPE:Skirt/Brim
;WIDTH:0.42
G1 F1200
G1 X97.184 Y54.34 E.66398
G1 X99 Y53.497 E.06279
G1 X151 Y53.497 E1.63042
G1 X152.816 Y54.34 E.06279
G1 X170.816 Y75.659 E.87482
G1 X171.377 Y77.192 E.0512
G1 X171.377 Y132.808 E1.74378
G1 X170.681 Y134.488 E.05704
G1 X154.488 Y150.681 E.718
G1 X152.808 Y151.377 E.05704
G1 X97.192 Y151.377 E1.74378
G1 X95.512 Y150.681 E.05704
G1 X79.319 Y134.488 E.718
G1 X78.623 Y132.808 E.05704
G1 X78.623 Y77.192 E1.74378
G1 X79.184 Y75.659 E.0512
G1 X83.483 Y70.567 E.20896
M204 S1000
; printing object cockpit_clock-all.stl id:0 copy 0
;WIPE_START
G1 F8640
G1 X85.607 Y68.052 E-.76
;WIPE_END
G1 E-.04 F2100
G1 Z.6 F720
G1 X150.699 Y61.768 F10800
G1 Z.2 F720
G1 E.8 F2100
M204 S800
;TYPE:Perimeter
;WIDTH:0.419999
G1 F1200
G1 X150.779 Y61.787 E.00257
G1 X152.482 Y61.787 E.0534
G1 X168.213 Y77.518 E.69755
G1 X168.213 Y132.482 E1.72333
M73 Q0 S175
G1 X152.482 Y148.213 E.69755
G1 X97.518 Y148.213 E1.72333
M73 P0 R174
G1 X81.787 Y132.482 E.69755
G1 X81.787 Y77.518 E1.72333
G1 X97.518 Y61.787 E.69755
G1 X99.32 Y61.778 E.05649
G1 X99.516 Y61.704 E.00657
G1 X99.715 Y61.497 E.00901
G1 X99.787 Y61.221 E.00893
G1 X99.787 Y56.768 E.13964
G1 X150.213 Y56.768 E1.58106
G1 X150.22 Y61.312 E.14249
G1 X150.334 Y61.572 E.00888
G1 X150.528 Y61.729 E.00783
G1 X150.64 Y61.755 E.0036
M204 S1000
G1 X150.779 Y61.41 F10800
M204 S800
;TYPE:External perimeter
G1 F1200
G1 X152.638 Y61.41 E.0583
G1 X168.59 Y77.362 E.70735
G1 X168.59 Y132.638 E1.73312
G1 X152.638 Y148.59 E.70735
G1 X97.362 Y148.59 E1.73312
G1 X81.41 Y132.638 E.70735
G1 X81.41 Y77.362 E1.73312
G1 X97.362 Y61.41 E.70735
G1 X99.221 Y61.41 E.0583
G1 X99.347 Y61.362 E.00423
G1 X99.41 Y61.221 E.00482
G1 X99.41 Y56.391 E.15147
G1 X150.59 Y56.391 E1.60471
G1 X150.59 Y61.221 E.15147
G1 X150.641 Y61.35 E.00434
G1 X150.724 Y61.386 E.00283
M204 S1000
G1 X150.882 Y61.796 F10800
;WIPE_START
G1 F8640
G1 X152.638 Y61.41 E-.44205
G1 X153.611 Y62.384 E-.31795
;WIPE_END
G1 E-.04 F2100
G1 Z.6 F720
G1 X103.285 Y75.232 F10800
G1 Z.2 F720
G1 E.8 F2100
M204 S800
;TYPE:Perimeter
G1 F1200
G1 X104.056 Y75.213 E.02419
G1 X115.113 Y75.213 E.34666
G1 X115.324 Y74.732 E.01648
G1 X115.559 Y74.283 E.01588
G1 X115.828 Y73.822 E.01675
G1 X116.121 Y73.375 E.01675
G1 X116.435 Y72.943 E.01675
G1 X116.77 Y72.527 E.01675
G1 X117.12 Y72.134 E.01652
G1 X117.5 Y71.747 E.01699
G1 X118.275 Y71.067 E.03234
G1 X118.729 Y70.723 E.01784
G1 X119.172 Y70.423 E.01678
G1 X119.628 Y70.146 E.01675
G1 X120.098 Y69.891 E.01675
G1 X120.58 Y69.66 E.01675
G1 X121.072 Y69.454 E.01675
G1 X121.574 Y69.271 E.01675
G1 X122.107 Y69.109 E.01746
G1 X123.167 Y68.87 E.03408
G1 X124.171 Y68.745 E.03172
G1 X124.719 Y68.717 E.01719
G1 X125.253 Y68.716 E.01675
G1 X125.787 Y68.742 E.01675
G1 X126.318 Y68.794 E.01675
G1 X126.846 Y68.872 E.01675
G1 X127.37 Y68.977 E.01675
G1 X127.888 Y69.107 E.01675
G1 X128.399 Y69.263 E.01675
G1 X128.902 Y69.443 E.01675
G1 X129.395 Y69.649 E.01675
G1 X129.877 Y69.878 E.01675
G1 X130.347 Y70.132 E.01675
G1 X130.804 Y70.408 E.01675
G1 X131.247 Y70.706 E.01675
G1 X131.675 Y71.026 E.01675
G1 X132.086 Y71.367 E.01675
G1 X132.48 Y71.728 E.01675
G1 X132.856 Y72.108 E.01675
G1 X133.212 Y72.506 E.01675
G1 X133.548 Y72.921 E.01675
G1 X133.863 Y73.352 E.01675
G1 X134.157 Y73.798 E.01675
G1 X134.428 Y74.258 E.01675
G1 X134.676 Y74.732 E.01675
G1 X134.887 Y75.213 E.01648
G1 X146.686 Y75.213 E.36995
G1 X146.944 Y75.275 E.00833
G1 X147.086 Y75.379 E.0055
G1 X154.621 Y82.914 E.33413
G1 X154.762 Y83.149 E.00859
G1 X154.787 Y83.314 E.00523
G1 X154.787 Y126.686 E1.3599
G1 X154.721 Y126.952 E.00859
G1 X154.621 Y127.086 E.00523
G1 X147.086 Y134.621 E.33413
G1 X146.851 Y134.762 E.00859
G1 X146.686 Y134.787 E.00523
G1 X103.314 Y134.787 E1.3599
G1 X103.048 Y134.721 E.00859
G1 X102.914 Y134.621 E.00523
G1 X95.379 Y127.086 E.33413
G1 X95.238 Y126.851 E.00859
G1 X95.213 Y126.686 E.00523
G1 X95.213 Y83.314 E1.3599
G1 X95.279 Y83.048 E.00859
G1 X95.379 Y82.914 E.00523
G1 X102.914 Y75.379 E.33413
G1 X103.159 Y75.235 E.0089
G1 X103.225 Y75.233 E.00208
M204 S1000
G1 X103.331 Y75.59 F10800
M204 S800
;TYPE:External perimeter
G1 F1200
G1 X115.36 Y75.59 E.37715
G1 X115.653 Y74.918 E.02298
G1 X115.893 Y74.457 E.01629
G1 X116.154 Y74.013 E.01616
G1 X116.436 Y73.582 E.01616
G1 X116.74 Y73.165 E.01616
G1 X117.063 Y72.764 E.01616
G1 X117.402 Y72.385 E.01593
G1 X117.768 Y72.012 E.0164
G1 X118.524 Y71.351 E.03147
G1 X118.956 Y71.024 E.01698
G1 X119.383 Y70.735 E.01617
G1 X119.824 Y70.468 E.01616
G1 X120.277 Y70.223 E.01616
G1 X120.742 Y70.001 E.01616
G1 X121.218 Y69.801 E.01616
G1 X121.702 Y69.626 E.01616
G1 X122.217 Y69.47 E.01685
G1 X123.196 Y69.248 E.03148
G1 X124.218 Y69.12 E.0323
G1 X124.738 Y69.093 E.01632
G1 X125.253 Y69.093 E.01616
G1 X125.768 Y69.118 E.01616
G1 X126.281 Y69.169 E.01616
G1 X126.791 Y69.245 E.01616
G1 X127.296 Y69.346 E.01616
G1 X127.796 Y69.472 E.01616
G1 X128.289 Y69.623 E.01616
G1 X128.774 Y69.798 E.01616
G1 X129.249 Y69.997 E.01616
G1 X129.714 Y70.219 E.01616
G1 X130.168 Y70.463 E.01616
G1 X130.609 Y70.73 E.01616
G1 X131.036 Y71.019 E.01616
G1 X131.449 Y71.328 E.01616
G1 X131.845 Y71.657 E.01616
G1 X132.225 Y72.006 E.01616
G1 X132.587 Y72.372 E.01616
G1 X132.931 Y72.757 E.01616
G1 X133.255 Y73.158 E.01616
G1 X133.559 Y73.574 E.01616
G1 X133.841 Y74.005 E.01616
G1 X134.103 Y74.449 E.01616
G1 X134.342 Y74.906 E.01617
G1 X134.64 Y75.59 E.0234
G1 X146.686 Y75.59 E.37769
G1 X146.819 Y75.645 E.00452
G1 X154.355 Y83.181 E.33413
G1 X154.41 Y83.314 E.00452
G1 X154.41 Y126.686 E1.3599
G1 X154.355 Y126.819 E.00452
G1 X146.819 Y134.355 E.33413
G1 X146.686 Y134.41 E.00452
G1 X103.314 Y134.41 E1.3599
G1 X103.181 Y134.355 E.00452
G1 X95.645 Y126.819 E.33413
G1 X95.59 Y126.686 E.00452
G1 X95.59 Y83.314 E1.3599
G1 X95.645 Y83.181 E.00452
G1 X103.181 Y75.645 E.33413
G1 X103.274 Y75.606 E.00319
M204 S1000
G1 X103.435 Y75.204 F10800
;WIPE_START
G1 F8640
G1 X106.566 Y75.602 E-.76
;WIPE_END
G1 E-.04 F2100
G1 Z.6 F720
G1 X151.677 Y61.895 F10800
G1 Z.2 F720
G1 E.8 F2100
M204 S800
;TYPE:Solid infill
;WIDTH:0.420967
G1 F1200
G1 X167.93 Y78.149 E.72254
G1 X167.93 Y78.683 E.01681
G1 X151.139 Y61.892 E.74647
M204 S1000
;WIPE_START
G1 F8640
G1 X153.466 Y64.219 E-.76
;WIPE_END
G1 E-.04 F2100
G1 Z.6 F720
G1 X150.1 Y57.645 F10800
G1 Z.2 F720
G1 E.8 F2100
M204 S800
G1 F1200
G1 X149.505 Y57.05 E.02643
G1 X148.971 Y57.05 E.01681
G1 X149.93 Y58.01 E.04266
G1 X149.93 Y58.545 E.01681
G1 X148.436 Y57.05 E.06643
G1 X147.901 Y57.05 E.01681
G1 X149.93 Y59.079 E.09019
G1 X149.93 Y59.614 E.01681
G1 X147.367 Y57.05 E.11396
G1 X146.832 Y57.05 E.01681
G1 X149.93 Y60.149 E.13773
G1 X149.93 Y60.683 E.01681
G1 X146.297 Y57.05 E.1615
G1 X145.763 Y57.05 E.01681
G1 X149.93 Y61.218 E.18526
G1 X149.941 Y61.36 E.00447
M73 Q0 S174
G1 X150.001 Y61.563 E.00666
G1 X150.158 Y61.802 E.00899
G1 X150.401 Y61.983 E.00952
G1 X150.632 Y62.058 E.00762
G1 X150.771 Y62.059 E.0044
G1 X167.93 Y79.218 E.7628
G1 X167.93 Y79.753 E.01681
G1 X145.228 Y57.05 E1.00923
G1 X144.693 Y57.05 E.01681
G1 X167.93 Y80.287 E1.033
G1 X167.93 Y80.822 E.01681
M73 P0 R173
G1 X144.159 Y57.05 E1.05677
G1 X143.624 Y57.05 E.01681
G1 X167.93 Y81.356 E1.08053
G1 X167.93 Y81.891 E.01681
G1 X143.09 Y57.05 E1.1043
G1 X142.555 Y57.05 E.01681
G1 X167.93 Y82.426 E1.12807
G1 X167.93 Y82.96 E.01681
G1 X142.02 Y57.05 E1.15184
G1 X141.486 Y57.05 E.01681
G1 X167.93 Y83.495 E1.1756
G1 X167.93 Y84.03 E.01681
G1 X140.951 Y57.05 E1.19937
G1 X140.416 Y57.05 E.01681
G1 X167.93 Y84.564 E1.22314
G1 X167.93 Y85.099 E.01681
G1 X139.882 Y57.05 E1.24691
G1 X139.347 Y57.05 E.01681
M73 P1 R173
M73 Q1 S174
G1 X167.93 Y85.634 E1.27067
G1 X167.93 Y86.168 E.01681
G1 X138.812 Y57.05 E1.29444
G1 X138.278 Y57.05 E.01681
G1 X167.93 Y86.703 E1.31821
G1 X167.93 Y87.237 E.01681
G1 X137.743 Y57.05 E1.34198
G1 X137.208 Y57.05 E.01681
G1 X167.93 Y87.772 E1.36574
G1 X167.93 Y88.307 E.01681
G1 X136.674 Y57.05 E1.38951
G1 X136.139 Y57.05 E.01681
G1 X167.93 Y88.841 E1.41328
G1 X167.93 Y89.376 E.01681
G1 X135.605 Y57.05 E1.43705
G1 X135.07 Y57.05 E.01681
G1 X167.93 Y89.911 E1.46081
G1 X167.93 Y90.445 E.01681
G1 X134.535 Y57.05 E1.48458
G1 X134.001 Y57.05 E.01681
G1 X167.93 Y90.98 E1.50835
G1 X167.93 Y91.515 E.01681
G1 X133.466 Y57.05 E1.53212
G1 X132.931 Y57.05 E.01681
G1 X167.93 Y92.049 E1.55589
G1 X167.93 Y92.584 E.01681
G1 X132.397 Y57.05 E1.57965
G1 X131.862 Y57.05 E.01681
G1 X167.93 Y93.119 E1.60342
G1 X167.93 Y93.653 E.01681
G1 X131.327 Y57.05 E1.62719
G1 X130.793 Y57.05 E.01681
G1 X167.93 Y94.188 E1.65096
G1 X167.93 Y94.722 E.01681
M73 Q1 S173
G1 X130.258 Y57.05 E1.67472
G1 X129.724 Y57.05 E.01681
M73 P1 R172
G1 X167.93 Y95.257 E1.69849
G1 X167.93 Y95.792 E.01681
G1 X129.189 Y57.05 E1.72226
G1 X128.654 Y57.05 E.01681
G1 X146.534 Y74.93 E.79485
G1 X146.693 Y74.93 E.00499
G1 X146.917 Y74.962 E.00713
G1 X147.076 Y75.024 E.00537
G1 X147.281 Y75.173 E.00796
G1 X154.825 Y82.717 E.33536
G1 X154.93 Y82.845 E.0052
G1 X155.034 Y83.066 E.00768
G1 X155.07 Y83.307 E.00765
G1 X155.07 Y83.466 E.005
G1 X167.93 Y96.326 E.57171
G1 X167.93 Y96.861 E.01681
G1 X155.07 Y84.001 E.57172
G1 X155.07 Y84.535 E.0168
G1 X167.93 Y97.396 E.57172
G1 X167.93 Y97.93 E.01681
G1 X155.069 Y85.07 E.57173
G1 X155.069 Y85.604 E.0168
G1 X167.93 Y98.465 E.57174
G1 X167.93 Y99 E.01681
G1 X155.069 Y86.139 E.57174
G1 X155.069 Y86.673 E.0168
G1 X167.93 Y99.534 E.57175
G1 X167.93 Y100.069 E.01681
G1 X155.069 Y87.208 E.57175
G1 X155.069 Y87.742 E.0168
G1 X167.93 Y100.603 E.57176
G1 X167.93 Y101.138 E.01681
G1 X155.069 Y88.277 E.57177
G1 X155.068 Y88.811 E.0168
G1 X167.93 Y101.673 E.57177
G1 X167.93 Y102.207 E.01681
G1 X155.068 Y89.346 E.57178
G1 X155.068 Y89.88 E.0168
G1 X167.93 Y102.742 E.57179
G1 X167.93 Y103.277 E.01681
G1 X155.068 Y90.415 E.57179
G1 X155.068 Y90.949 E.0168
G1 X167.93 Y103.811 E.5718
G1 X167.93 Y104.346 E.01681
G1 X155.068 Y91.484 E.5718
G1 X155.068 Y92.018 E.0168
G1 X167.93 Y104.881 E.57181
G1 X167.93 Y105.415 E.01681
G1 X155.067 Y92.553 E.57182
G1 X155.067 Y93.087 E.0168
G1 X167.93 Y105.95 E.57182
G1 X167.93 Y106.484 E.01681
G1 X155.067 Y93.622 E.57183
G1 X155.067 Y94.156 E.0168
G1 X167.93 Y107.019 E.57184
G1 X167.93 Y107.554 E.01681
G1 X155.067 Y94.691 E.57184
G1 X155.067 Y95.225 E.0168
G1 X167.93 Y108.088 E.57185
G1 X167.93 Y108.623 E.01681
G1 X155.067 Y95.76 E.57185
G1 X155.066 Y96.294 E.0168
G1 X167.93 Y109.158 E.57186
G1 X167.93 Y109.692 E.01681
G1 X155.066 Y96.829 E.57187
G1 X155.066 Y97.363 E.0168
G1 X167.93 Y110.227 E.57187
G1 X167.93 Y110.762 E.01681
G1 X155.066 Y97.898 E.57188
G1 X155.066 Y98.432 E.0168
G1 X167.93 Y111.296 E.57188
G1 X167.93 Y111.831 E.01681
G1 X155.066 Y98.967 E.57189
G1 X155.066 Y99.501 E.0168
G1 X167.93 Y112.366 E.5719
G1 X167.93 Y112.9 E.01681
G1 X155.065 Y100.036 E.5719
G1 X155.065 Y100.57 E.0168
G1 X167.93 Y113.435 E.57191
G1 X167.93 Y113.969 E.01681
G1 X155.065 Y101.105 E.57192
G1 X155.065 Y101.639 E.0168
G1 X167.93 Y114.504 E.57192
G1 X167.93 Y115.039 E.01681
G1 X155.065 Y102.174 E.57193
G1 X155.065 Y102.708 E.0168
G1 X167.93 Y115.573 E.57193
G1 X167.93 Y116.108 E.01681
G1 X155.065 Y103.243 E.57194
G1 X155.065 Y103.777 E.0168
G1 X167.93 Y116.643 E.57195
G1 X167.93 Y117.177 E.01681
G1 X155.064 Y104.312 E.57195
G1 X155.064 Y104.846 E.0168
G1 X167.93 Y117.712 E.57196
G1 X167.93 Y118.247 E.01681
G1 X155.064 Y105.381 E.57197
G1 X155.064 Y105.915 E.0168
G1 X167.93 Y118.781 E.57197
G1 X167.93 Y119.316 E.01681
G1 X155.064 Y106.45 E.57198
G1 X155.064 Y106.984 E.0168
G1 X167.93 Y119.85 E.57198
G1 X167.93 Y120.385 E.01681
G1 X155.064 Y107.519 E.57199
G1 X155.063 Y108.053 E.0168
G1 X167.93 Y120.92 E.572
G1 X167.93 Y121.454 E.01681
G1 X155.063 Y108.588 E.572
G1 X155.063 Y109.122 E.0168
G1 X167.93 Y121.989 E.57201
G1 X167.93 Y122.524 E.01681
G1 X155.063 Y109.657 E.57201
G1 X155.063 Y110.191 E.0168
G1 X167.93 Y123.058 E.57202
G1 X167.93 Y123.593 E.01681
M73 Q1 S172
G1 X155.063 Y110.726 E.57203
G1 X155.063 Y111.26 E.0168
G1 X167.93 Y124.128 E.57203
G1 X167.93 Y124.662 E.01681
G1 X155.062 Y111.795 E.57204
G1 X155.062 Y112.329 E.0168
G1 X167.93 Y125.197 E.57205
G1 X167.93 Y125.731 E.01681
M73 P1 R171
G1 X155.062 Y112.864 E.57205
G1 X155.062 Y113.398 E.0168
G1 X167.93 Y126.266 E.57206
G1 X167.93 Y126.801 E.01681
M73 P2 R171
M73 Q2 S172
G1 X155.062 Y113.933 E.57206
G1 X155.062 Y114.467 E.0168
G1 X167.93 Y127.335 E.57207
G1 X167.93 Y127.87 E.01681
G1 X155.062 Y115.002 E.57208
G1 X155.061 Y115.536 E.0168
G1 X167.93 Y128.405 E.57208
G1 X167.93 Y128.939 E.01681
G1 X155.061 Y116.071 E.57209
G1 X155.061 Y116.605 E.0168
G1 X167.93 Y129.474 E.5721
G1 X167.93 Y130.009 E.01681
G1 X155.061 Y117.14 E.5721
G1 X155.061 Y117.674 E.0168
G1 X167.93 Y130.543 E.57211
G1 X167.93 Y131.078 E.01681
G1 X155.061 Y118.209 E.57211
G1 X155.061 Y118.743 E.0168
G1 X167.93 Y131.613 E.57212
G1 X167.93 Y132.147 E.01681
G1 X155.06 Y119.278 E.57213
G1 X155.06 Y119.812 E.0168
G1 X167.771 Y132.523 E.56508
G1 X167.504 Y132.79 E.01188
G1 X155.06 Y120.347 E.5532
G1 X155.06 Y120.881 E.0168
G1 X167.237 Y133.058 E.54132
G1 X166.97 Y133.325 E.01188
G1 X155.06 Y121.416 E.52945
G1 X155.06 Y121.95 E.0168
G1 X166.702 Y133.592 E.51757
G1 X166.435 Y133.86 E.01188
G1 X155.06 Y122.485 E.50569
G1 X155.06 Y123.019 E.0168
G1 X166.168 Y134.127 E.49381
G1 X165.9 Y134.394 E.01188
G1 X155.059 Y123.554 E.48194
G1 X155.059 Y124.088 E.0168
G1 X165.633 Y134.662 E.47006
G1 X165.366 Y134.929 E.01188
G1 X155.059 Y124.623 E.45818
G1 X155.059 Y125.157 E.0168
G1 X165.098 Y135.196 E.4463
G1 X164.831 Y135.464 E.01188
G1 X155.059 Y125.692 E.43442
G1 X155.059 Y126.226 E.0168
G1 X164.564 Y135.731 E.42255
G1 X164.296 Y135.998 E.01188
G1 X155.059 Y126.761 E.41067
G1 X155.059 Y126.832 E.00225
G1 X154.972 Y127.085 E.0084
G1 X154.919 Y127.156 E.00277
G1 X164.029 Y136.266 E.40498
G1 X163.762 Y136.533 E.01188
G1 X154.668 Y127.439 E.40426
G1 X154.401 Y127.707 E.01188
G1 X163.494 Y136.8 E.40426
G1 X163.227 Y137.068 E.01188
G1 X154.133 Y127.974 E.40426
G1 X153.866 Y128.241 E.01188
G1 X162.96 Y137.335 E.40426
G1 X162.692 Y137.602 E.01188
G1 X153.599 Y128.509 E.40426
G1 X153.331 Y128.776 E.01188
G1 X162.425 Y137.87 E.40426
G1 X162.158 Y138.137 E.01188
G1 X153.064 Y129.043 E.40426
G1 X152.797 Y129.311 E.01188
G1 X161.89 Y138.404 E.40426
