; generated by PrusaSlicer 2.5.0+win64 on 2022-10-09 at 10:24:25 UTC


;
;
; 

; external perimeters extrusion width = 0.60mm
; perimeters extrusion width = 0.50mm
; infill extrusion width = 0.50mm
; solid infill extrusion width = 0.50mm
; top infill extrusion width = 0.45mm
; first layer extrusion width = 0.42mm

; external perimeters extrusion width = 0.60mm
; perimeters extrusion width = 0.50mm
; infill extrusion width = 0.50mm
; solid infill extrusion width = 0.50mm
; top infill extrusion width = 0.45mm
; first layer extrusion width = 0.42mm

M73 P0 R166
M73 C52
M73 Q0 S167
M73 D52
M201 X1000 Y1000 Z200 E5000 ; sets maximum accelerations, mm/sec^2
M203 X200 Y200 Z12 E120 ; sets maximum feedrates, mm / sec
M204 P1250 R1250 T1250 ; sets acceleration (P, T) and retract acceleration (R), mm/sec^2
M205 X8.00 Y8.00 Z0.40 E4.50 ; sets the jerk limits, mm/sec
M205 S0 T0 ; sets the minimum extruding and travel feed rate, mm/sec
M107
;TYPE:Custom
M862.3 P "MK3S" ; printer model check
M862.1 P0.4 ; nozzle diameter check
M115 U3.11.0 ; tell printer latest fw version
G90 ; use absolute coordinates
M83 ; extruder relative mode
M104 S215 ; set extruder temp
M140 S60 ; set bed temp
M190 S60 ; wait for bed temp
M109 S215 ; wait for extruder temp
G28 W ; home all without mesh bed level
G80 ; mesh bed leveling

G1 Z0.2 F720
G1 Y-3 F1000 ; go outside print area
G92 E0
G1 X60 E9 F1000 ; intro line
G1 X100 E12.5 F1000 ; intro line

G92 E0
M221 S95

; Don't change E values below. Excessive value can damage the printer.

M907 E538 ; set extruder motor current
G21 ; set units to millimeters
G90 ; use absolute coordinates
M83 ; use relative distances for extrusion
M900 K0.05 ; Filament gcode LA 1.5
M900 K30 ; Filament gcode LA 1.0
M107
;LAYER_CHANGE
;Z:0.2
;HEIGHT:0.2
;BEFORE_LAYER_CHANGE
G92 E0.0
;0.2


M73 C51
G1 E-.8 F2100
G1 Z.4 F720
;AFTER_LAYER_CHANGE
;0.2
G1 X83.791 Y65.588 F10800
G1 Z.2 F720
G1 E.8 F2100
M204 S800
;TYPE:Skirt/Brim
;WIDTH:0.42
G1 F1200
G1 X93.128 Y53.659 E.47499
G1 X94.242 Y52.871 E.04278
G1 X95 Y52.747 E.02408
G1 X155 Y52.747 E1.88126
G1 X156.307 Y53.138 E.04278
G1 X156.872 Y53.659 E.02408
G1 X171.622 Y72.502 E.75031
G1 X172.127 Y73.968 E.04859
G1 X172.127 Y136.032 E1.946
G1 X171.431 Y137.713 E.05704
G1 X157.713 Y151.431 E.60826
G1 X156.032 Y152.127 E.05704
G1 X93.968 Y152.127 E1.946
G1 X92.287 Y151.431 E.05704
G1 X78.569 Y137.713 E.60826
G1 X77.873 Y136.032 E.05704
M73 D51
G1 X77.873 Y73.968 E1.946
G1 X78.378 Y72.502 E.04859
G1 X83.754 Y65.635 E.27344
M204 S1000
; printing object cockpit_clock-all.stl id:0 copy 0
;WIPE_START
G1 F8640
G1 X85.782 Y63.043 E-.76
;WIPE_END
G1 E-.04 F2100
G1 Z.6 F720
G1 X94.472 Y129.972 F10800
G1 Z.2 F720
G1 E.8 F2100
M204 S800
;TYPE:Perimeter
;WIDTH:0.419999
G1 F1200
G1 X94.463 Y80.089 E1.56404
G1 X94.529 Y79.823 E.00859
G1 X94.629 Y79.689 E.00523
G1 X99.689 Y74.629 E.22439
G1 X99.907 Y74.493 E.00806
G1 X100.089 Y74.463 E.00577
G1 X115.113 Y74.463 E.47106
G1 X115.324 Y73.982 E.01648
G1 X115.559 Y73.533 E.01588
G1 X115.828 Y73.072 E.01675
G1 X116.121 Y72.625 E.01675
G1 X116.435 Y72.193 E.01675
G1 X116.785 Y71.76 E.01746
G1 X117.49 Y71.007 E.03234
G1 X118.275 Y70.317 E.03278
G1 X118.729 Y69.973 E.01784
G1 X119.172 Y69.673 E.01678
G1 X119.628 Y69.396 E.01675
G1 X120.098 Y69.141 E.01675
G1 X120.58 Y68.91 E.01675
G1 X121.072 Y68.704 E.01675
G1 X121.574 Y68.521 E.01675
G1 X122.085 Y68.364 E.01675
G1 X122.602 Y68.233 E.01675
G1 X123.168 Y68.12 E.01807
G1 X124.171 Y67.995 E.03171
G1 X124.719 Y67.967 E.01719
G1 X125.253 Y67.966 E.01675
G1 X125.787 Y67.992 E.01675
G1 X126.318 Y68.044 E.01675
G1 X126.846 Y68.122 E.01675
G1 X127.37 Y68.227 E.01675
G1 X127.888 Y68.357 E.01675
G1 X128.399 Y68.513 E.01675
G1 X128.902 Y68.693 E.01675
G1 X129.395 Y68.899 E.01675
G1 X129.897 Y69.139 E.01746
G1 X130.792 Y69.651 E.03233
G1 X131.247 Y69.956 E.01718
G1 X131.675 Y70.276 E.01675
G1 X132.086 Y70.617 E.01675
G1 X132.48 Y70.978 E.01675
G1 X132.856 Y71.358 E.01675
G1 X133.212 Y71.756 E.01675
G1 X133.548 Y72.171 E.01675
G1 X133.863 Y72.602 E.01675
G1 X134.157 Y73.048 E.01675
G1 X134.428 Y73.508 E.01675
G1 X134.676 Y73.982 E.01675
G1 X134.887 Y74.463 E.01648
G1 X149.911 Y74.463 E.47106
G1 X150.151 Y74.517 E.00772
G1 X150.311 Y74.629 E.00611
G1 X155.371 Y79.689 E.22439
G1 X155.512 Y79.924 E.00859
G1 X155.537 Y80.089 E.00523
G1 X155.537 Y129.911 E1.56213
G1 X155.471 Y130.177 E.00859
G1 X155.371 Y130.311 E.00523
G1 X150.311 Y135.371 E.22439
G1 X150.076 Y135.512 E.00859
G1 X149.911 Y135.537 E.00523
G1 X100.089 Y135.537 E1.56213
G1 X99.823 Y135.471 E.00859
G1 X99.689 Y135.371 E.00523
G1 X94.629 Y130.311 E.22439
G1 X94.488 Y130.076 E.00859
G1 X94.481 Y130.031 E.00142
M204 S1000
G1 X94.84 Y129.894 F10800
M204 S800
;TYPE:External perimeter
G1 F1200
G1 X94.84 Y80.089 E1.56161
G1 X94.895 Y79.956 E.00452
M73 P0 R165
G1 X99.956 Y74.895 E.22439
G1 X100.089 Y74.84 E.00452
G1 X115.36 Y74.84 E.47881
G1 X115.653 Y74.168 E.02298
G1 X115.893 Y73.707 E.01629
G1 X116.154 Y73.263 E.01616
G1 X116.436 Y72.832 E.01616
G1 X116.74 Y72.415 E.01616
G1 X117.078 Y71.997 E.01685
G1 X117.765 Y71.265 E.03148
G1 X118.524 Y70.601 E.03162
G1 X118.956 Y70.274 E.01698
G1 X119.383 Y69.985 E.01617
G1 X119.824 Y69.718 E.01616
G1 X120.277 Y69.473 E.01616
G1 X120.742 Y69.251 E.01616
G1 X121.218 Y69.051 E.01616
G1 X121.702 Y68.876 E.01616
G1 X122.195 Y68.725 E.01616
G1 X122.695 Y68.598 E.01616
G1 X123.214 Y68.494 E.01661
G1 X124.218 Y68.37 E.03171
G1 X124.738 Y68.343 E.01632
G1 X125.253 Y68.343 E.01616
G1 X125.768 Y68.368 E.01616
G1 X126.281 Y68.419 E.01616
G1 X126.791 Y68.495 E.01616
G1 X127.296 Y68.596 E.01616
G1 X127.796 Y68.722 E.01616
G1 X128.289 Y68.873 E.01616
G1 X128.774 Y69.048 E.01616
G1 X129.249 Y69.247 E.01616
G1 X129.734 Y69.479 E.01685
G1 X130.605 Y69.978 E.03147
G1 X131.036 Y70.269 E.01631
G1 X131.449 Y70.578 E.01616
G1 X131.845 Y70.907 E.01616
G1 X132.225 Y71.256 E.01616
G1 X132.587 Y71.622 E.01616
G1 X132.931 Y72.007 E.01616
G1 X133.255 Y72.408 E.01616
G1 X133.559 Y72.824 E.01616
G1 X133.841 Y73.255 E.01616
G1 X134.103 Y73.699 E.01616
G1 X134.342 Y74.156 E.01617
G1 X134.64 Y74.84 E.0234
G1 X149.911 Y74.84 E.47881
G1 X150.044 Y74.895 E.00452
G1 X155.105 Y79.956 E.22439
G1 X155.16 Y80.089 E.00452
G1 X155.16 Y129.911 E1.56213
G1 X155.105 Y130.044 E.00452
G1 X150.044 Y135.105 E.22439
G1 X149.911 Y135.16 E.00452
G1 X100.089 Y135.16 E1.56213
G1 X99.956 Y135.105 E.00452
G1 X94.895 Y130.044 E.22439
G1 X94.857 Y129.951 E.00316
M204 S1000
G1 X94.454 Y129.79 F10800
;WIPE_START
G1 F8640
G1 X94.856 Y126.66 E-.76
;WIPE_END
G1 E-.04 F2100
G1 Z.6 F720
G1 X95.248 Y61.027 F10800
G1 Z.2 F720
G1 E.8 F2100
M204 S800
;TYPE:Perimeter
M73 Q0 S166
G1 F1200
G1 X95.333 Y61.026 E.00266
G1 X95.525 Y60.948 E.00651
G1 X95.715 Y60.747 E.00868
G1 X95.787 Y60.471 E.00893
G1 X95.787 Y56.018 E.13964
G1 X154.213 Y56.018 E1.8319
G1 X154.213 Y60.471 E.13964
G1 X154.22 Y60.562 E.00286
G1 X154.307 Y60.784 E.00747
G1 X154.514 Y60.972 E.00875
G1 X154.779 Y61.037 E.00854
G1 X155.706 Y61.037 E.02909
G1 X168.963 Y74.294 E.58781
G1 X168.963 Y135.706 E1.92556
G1 X155.706 Y148.963 E.58781
G1 X94.294 Y148.963 E1.92556
G1 X81.037 Y135.706 E.58781
G1 X81.037 Y74.294 E1.92556
G1 X94.294 Y61.037 E.58781
M73 C50
G1 X95.188 Y61.028 E.02805
M204 S1000
G1 X95.221 Y60.66 F10800
M204 S800
;TYPE:External perimeter
G1 F1200
G1 X95.348 Y60.611 E.00425
G1 X95.41 Y60.471 E.0048
G1 X95.41 Y55.641 E.15147
G1 X154.59 Y55.641 E1.85554
G1 X154.59 Y60.471 E.15147
G1 X154.641 Y60.6 E.00433
G1 X154.779 Y60.66 E.00472
G1 X155.863 Y60.66 E.03399
G1 X169.34 Y74.137 E.59761
G1 X169.34 Y135.863 E1.93535
G1 X155.863 Y149.34 E.59761
G1 X94.137 Y149.34 E1.93535
G1 X80.66 Y135.863 E.59761
G1 X80.66 Y74.137 E1.93535
G1 X94.137 Y60.66 E.59761
M73 D50
G1 X95.161 Y60.66 E.03211
M204 S1000
G1 X95.337 Y60.731 F10800
;WIPE_START
G1 F8640
G1 X95.348 Y60.611 E-.04449
G1 X95.41 Y60.471 E-.03534
G1 X95.41 Y57.526 E-.68017
;WIPE_END
G1 E-.04 F2100
G1 Z.6 F720
G1 X168.85 Y74.843 F10800
G1 Z.2 F720
G1 E.8 F2100
M204 S800
;TYPE:Solid infill
;WIDTH:0.420067
G1 F1200
G1 X155.157 Y61.15 E.60729
M204 S1000
;WIPE_START
G1 F8640
G1 X157.484 Y63.478 E-.76
;WIPE_END
G1 E-.04 F2100
G1 Z.6 F720
G1 X154.1 Y56.893 F10800
G1 Z.2 F720
G1 E.8 F2100
M204 S800
G1 F1200
G1 X153.507 Y56.3 E.02629
G1 X152.974 Y56.3 E.01673
G1 X153.93 Y57.257 E.04242
G1 X153.93 Y57.79 E.01673
G1 X152.44 Y56.3 E.06607
G1 X151.907 Y56.3 E.01673
G1 X153.93 Y58.324 E.08973
G1 X153.93 Y58.857 E.01673
G1 X151.374 Y56.3 E.11338
G1 X150.84 Y56.3 E.01673
G1 X153.93 Y59.39 E.13703
G1 X153.93 Y59.924 E.01673
G1 X150.307 Y56.3 E.16069
G1 X149.774 Y56.3 E.01673
G1 X153.93 Y60.457 E.18434
G1 X153.966 Y60.718 E.00825
G1 X154.037 Y60.884 E.00566
G1 X154.114 Y60.999 E.00435
G1 X154.319 Y61.185 E.00868
G1 X154.447 Y61.253 E.00453
G1 X154.611 Y61.304 E.0054
G1 X154.793 Y61.32 E.00573
G1 X168.68 Y75.207 E.61589
G1 X168.68 Y75.74 E.01673
G1 X149.24 Y56.3 E.86216
G1 X148.707 Y56.3 E.01673
G1 X168.68 Y76.274 E.88581
G1 X168.68 Y76.807 E.01673
G1 X148.173 Y56.3 E.90946
G1 X147.64 Y56.3 E.01673
G1 X168.68 Y77.341 E.93312
G1 X168.68 Y77.874 E.01673
G1 X147.107 Y56.3 E.95677
G1 X146.573 Y56.3 E.01673
G1 X168.68 Y78.407 E.98043
G1 X168.68 Y78.941 E.01673
G1 X146.04 Y56.3 E1.00408
G1 X145.507 Y56.3 E.01673
M73 P0 R164
G1 X168.68 Y79.474 E1.02774
G1 X168.68 Y80.007 E.01673
M73 P1 R164
M73 Q1 S166
G1 X144.973 Y56.3 E1.05139
G1 X144.44 Y56.3 E.01673
G1 X168.68 Y80.541 E1.07505
G1 X168.68 Y81.074 E.01673
G1 X143.907 Y56.3 E1.0987
G1 X143.373 Y56.3 E.01673
G1 X168.68 Y81.607 E1.12236
G1 X168.68 Y82.141 E.01673
G1 X142.84 Y56.3 E1.14601
G1 X142.306 Y56.3 E.01673
G1 X168.68 Y82.674 E1.16966
M73 Q1 S165
G1 X168.68 Y83.208 E.01673
G1 X141.773 Y56.3 E1.19332
G1 X141.24 Y56.3 E.01673
G1 X168.68 Y83.741 E1.21697
G1 X168.68 Y84.274 E.01673
G1 X140.706 Y56.3 E1.24063
G1 X140.173 Y56.3 E.01673
G1 X168.68 Y84.808 E1.26428
G1 X168.68 Y85.341 E.01673
G1 X139.64 Y56.3 E1.28794
G1 X139.106 Y56.3 E.01673
G1 X168.68 Y85.874 E1.31159
G1 X168.68 Y86.408 E.01673
M73 C49
G1 X138.573 Y56.3 E1.33525
G1 X138.039 Y56.3 E.01673
G1 X168.68 Y86.941 E1.3589
G1 X168.68 Y87.474 E.01673
G1 X137.506 Y56.3 E1.38256
G1 X136.973 Y56.3 E.01673
G1 X168.68 Y88.008 E1.40621
G1 X168.68 Y88.541 E.01673
G1 X136.439 Y56.3 E1.42987
G1 X135.906 Y56.3 E.01673
G1 X168.68 Y89.075 E1.45352
G1 X168.68 Y89.608 E.01673
G1 X135.373 Y56.3 E1.47717
G1 X134.839 Y56.3 E.01673
M73 D49
G1 X168.68 Y90.141 E1.50083
G1 X168.68 Y90.675 E.01673
G1 X134.306 Y56.3 E1.52448
G1 X133.773 Y56.3 E.01673
G1 X168.68 Y91.208 E1.54814
G1 X168.68 Y91.741 E.01673
G1 X133.239 Y56.3 E1.57179
G1 X132.706 Y56.3 E.01673
G1 X168.68 Y92.275 E1.59545
G1 X168.68 Y92.808 E.01673
G1 X132.172 Y56.3 E1.6191
G1 X131.639 Y56.3 E.01673
G1 X149.519 Y74.18 E.79296
G1 X148.985 Y74.18 E.01673
G1 X131.106 Y56.3 E.79296
G1 X130.572 Y56.3 E.01673
G1 X148.452 Y74.18 E.79296
G1 X147.919 Y74.18 E.01673
M73 P1 R163
G1 X130.039 Y56.3 E.79296
G1 X129.506 Y56.3 E.01673
G1 X147.385 Y74.18 E.79296
G1 X146.852 Y74.18 E.01673
G1 X128.972 Y56.3 E.79296
G1 X128.439 Y56.3 E.01673
G1 X146.319 Y74.18 E.79296
G1 X145.785 Y74.18 E.01673
G1 X127.906 Y56.3 E.79296
G1 X127.372 Y56.3 E.01673
G1 X145.252 Y74.18 E.79296
G1 X144.718 Y74.18 E.01673
G1 X126.839 Y56.3 E.79296
G1 X126.305 Y56.3 E.01673
G1 X144.185 Y74.18 E.79296
G1 X143.652 Y74.18 E.01673
G1 X125.772 Y56.3 E.79296
G1 X125.239 Y56.3 E.01673
M73 Q1 S164
G1 X143.118 Y74.18 E.79296
G1 X142.585 Y74.18 E.01673
G1 X124.705 Y56.3 E.79296
G1 X124.172 Y56.3 E.01673
G1 X142.052 Y74.18 E.79296
G1 X141.518 Y74.18 E.01673
G1 X123.639 Y56.3 E.79296
G1 X123.105 Y56.3 E.01673
G1 X140.985 Y74.18 E.79296
G1 X140.452 Y74.18 E.01673
G1 X122.572 Y56.3 E.79296
G1 X122.038 Y56.3 E.01673
G1 X139.918 Y74.18 E.79296
G1 X139.385 Y74.18 E.01673
G1 X121.505 Y56.3 E.79296
G1 X120.972 Y56.3 E.01673
G1 X138.851 Y74.18 E.79296
G1 X138.318 Y74.18 E.01673
G1 X120.438 Y56.3 E.79296
G1 X119.905 Y56.3 E.01673
M73 C48
G1 X137.785 Y74.18 E.79296
G1 X137.251 Y74.18 E.01673
G1 X119.372 Y56.3 E.79296
G1 X118.838 Y56.3 E.01673
G1 X136.718 Y74.18 E.79296
G1 X136.185 Y74.18 E.01673
G1 X118.305 Y56.3 E.79296
G1 X117.772 Y56.3 E.01673
G1 X130.805 Y69.334 E.57803
G1 X131.438 Y69.745 E.02367
G1 X131.847 Y70.051 E.01601
G1 X132.269 Y70.401 E.01719
G1 X132.7 Y70.797 E.01836
G1 X133.059 Y71.161 E.01602
G1 X133.424 Y71.569 E.01719
G1 X133.792 Y72.024 E.01836
G1 X134.093 Y72.437 E.01601
G1 X134.435 Y72.964 E.0197
G1 X135.651 Y74.18 E.05394
G1 X135.118 Y74.18 E.01673
G1 X134.677 Y73.739 E.01957
M204 S1000
;WIPE_START
G1 F8640
G1 X135.118 Y74.18 E-.14408
G1 X135.651 Y74.18 E-.12316
G1 X134.435 Y72.964 E-.39713
G1 X134.21 Y72.617 E-.09563
;WIPE_END
G1 E-.04 F2100
G1 Z.6 F720
G1 X130.009 Y69.071 F10800
G1 Z.2 F720
G1 E.8 F2100
M204 S800
G1 F1200
G1 X117.238 Y56.3 E.56639
G1 X116.705 Y56.3 E.01673
G1 X128.739 Y68.334 E.5337
G1 X127.954 Y68.083 E.02585
G1 X116.171 Y56.3 E.52254
G1 X115.638 Y56.3 E.01673
G1 X127.253 Y67.915 E.5151
G1 X126.604 Y67.8 E.02064
G1 X115.105 Y56.3 E.51
G1 X114.571 Y56.3 E.01673
G1 X126 Y67.729 E.50685
G1 X125.428 Y67.691 E.01796
G1 X114.038 Y56.3 E.50516
G1 X113.505 Y56.3 E.01673
G1 X124.888 Y67.683 E.50483
G1 X124.373 Y67.702 E.01614
G1 X112.971 Y56.3 E.50567
G1 X112.438 Y56.3 E.01673
G1 X123.884 Y67.746 E.50761
G1 X123.409 Y67.805 E.01499
G1 X111.905 Y56.3 E.51023
G1 X111.371 Y56.3 E.01673
M73 D48
G1 X122.947 Y67.876 E.51337
G1 X122.504 Y67.967 E.01417
M73 P2 R163
M73 Q2 S164
G1 X110.838 Y56.3 E.5174
G1 X110.304 Y56.3 E.01673
G1 X122.079 Y68.075 E.52218
G1 X121.668 Y68.197 E.01345
G1 X109.771 Y56.3 E.52761
G1 X109.238 Y56.3 E.01673
G1 X121.268 Y68.331 E.53356
G1 X120.882 Y68.478 E.01297
G1 X108.704 Y56.3 E.54006
G1 X108.171 Y56.3 E.01673
G1 X120.506 Y68.635 E.54703
G1 X120.143 Y68.806 E.01256
G1 X107.638 Y56.3 E.55462
G1 X107.104 Y56.3 E.01673
G1 X119.79 Y68.986 E.56261
G1 X119.447 Y69.176 E.01231
G1 X106.571 Y56.3 E.57103
G1 X106.037 Y56.3 E.01673
G1 X119.114 Y69.377 E.57996
G1 X118.792 Y69.589 E.01208
G1 X105.504 Y56.3 E.58933
G1 X104.971 Y56.3 E.01673
G1 X118.478 Y69.808 E.59905
G1 X118.174 Y70.037 E.01194
G1 X104.437 Y56.3 E.60922
G1 X103.904 Y56.3 E.01673
G1 X117.887 Y70.283 E.62012
G1 X117.602 Y70.531 E.01186
G1 X103.371 Y56.3 E.63113
G1 X102.837 Y56.3 E.01673
G1 X117.319 Y70.782 E.64225
G1 X117.06 Y71.056 E.01183
G1 X102.304 Y56.3 E.65442
G1 X101.771 Y56.3 E.01673
G1 X116.801 Y71.331 E.6666
G1 X116.544 Y71.608 E.01184
M73 P2 R162
G1 X101.237 Y56.3 E.67887
G1 X100.704 Y56.3 E.01673
G1 X116.306 Y71.903 E.69195
G1 X116.076 Y72.206 E.01194
G1 X100.17 Y56.3 E.7054
G1 X99.637 Y56.3 E.01673
G1 X115.853 Y72.517 E.71919
G1 X115.642 Y72.839 E.01208
G1 X99.104 Y56.3 E.73347
G1 X98.57 Y56.3 E.01673
G1 X115.442 Y73.173 E.74827
G1 X115.25 Y73.513 E.01227
G1 X98.037 Y56.3 E.76338
G1 X97.504 Y56.3 E.01673
G1 X115.067 Y73.864 E.77894
G1 X114.928 Y74.18 E.01083
G1 X114.85 Y74.18 E.00245
G1 X96.97 Y56.3 E.79296
G1 X96.437 Y56.3 E.01673
G1 X114.317 Y74.18 E.79296
G1 X113.783 Y74.18 E.01673
M73 Q2 S163
G1 X96.07 Y56.467 E.78558
G1 X96.07 Y57 E.01673
G1 X113.25 Y74.18 E.76193
G1 X112.716 Y74.18 E.01673
G1 X96.07 Y57.534 E.73827
G1 X96.07 Y58.067 E.01673
G1 X112.183 Y74.18 E.71462
G1 X111.65 Y74.18 E.01673
G1 X96.07 Y58.6 E.69096
G1 X96.07 Y59.134 E.01673
G1 X111.116 Y74.18 E.66731
G1 X110.583 Y74.18 E.01673
G1 X96.07 Y59.667 E.64365
G1 X96.07 Y60.2 E.01673
G1 X110.05 Y74.18 E.62
G1 X109.516 Y74.18 E.01673
G1 X96.037 Y60.701 E.59782
G1 X95.963 Y60.884 E.00619
G1 X95.842 Y61.039 E.00618
G1 X108.983 Y74.18 E.58279
G1 X108.45 Y74.18 E.01673
G1 X95.529 Y61.26 E.573
G1 X95.389 Y61.304 E.00461
M73 C47
G1 X95.056 Y61.32 E.01046
G1 X107.916 Y74.18 E.57035
G1 X107.383 Y74.18 E.01673
G1 X94.523 Y61.32 E.57035
G1 X94.411 Y61.32 E.00351
G1 X94.2 Y61.531 E.00935
G1 X106.849 Y74.18 E.561
G1 X106.316 Y74.18 E.01673
G1 X93.933 Y61.797 E.54917
G1 X93.667 Y62.064 E.01183
G1 X105.783 Y74.18 E.53735
G1 X105.249 Y74.18 E.01673
G1 X93.4 Y62.331 E.52552
G1 X93.133 Y62.597 E.01183
G1 X104.716 Y74.18 E.51369
G1 X104.183 Y74.18 E.01673
G1 X92.866 Y62.864 E.50187
G1 X92.6 Y63.131 E.01183
G1 X103.649 Y74.18 E.49004
