; generated by PrusaSlicer 2.5.0+win64 on 2022-10-09 at 14:54:21 UTC


;
;
; 

; external perimeters extrusion width = 0.60mm
; perimeters extrusion width = 0.50mm
; infill extrusion width = 0.50mm
; solid infill extrusion width = 0.50mm
; top infill extrusion width = 0.45mm
; first layer extrusion width = 0.42mm

; external perimeters extrusion width = 0.60mm
; perimeters extrusion width = 0.50mm
; infill extrusion width = 0.50mm
; solid infill extrusion width = 0.50mm
; top infill extrusion width = 0.45mm
; first layer extrusion width = 0.42mm

M73 P0 R80
M73 Q0 S81
M201 X1000 Y1000 Z200 E5000 ; sets maximum accelerations, mm/sec^2
M203 X200 Y200 Z12 E120 ; sets maximum feedrates, mm / sec
M204 P1250 R1250 T1250 ; sets acceleration (P, T) and retract acceleration (R), mm/sec^2
M205 X8.00 Y8.00 Z0.40 E4.50 ; sets the jerk limits, mm/sec
M205 S0 T0 ; sets the minimum extruding and travel feed rate, mm/sec
M107
;TYPE:Custom
M862.3 P "MK3S" ; printer model check
M862.1 P0.4 ; nozzle diameter check
M115 U3.11.0 ; tell printer latest fw version
G90 ; use absolute coordinates
M83 ; extruder relative mode
M104 S215 ; set extruder temp
M140 S60 ; set bed temp
M190 S60 ; wait for bed temp
M109 S215 ; wait for extruder temp
G28 W ; home all without mesh bed level
G80 ; mesh bed leveling

G1 Z0.2 F720
G1 Y-3 F1000 ; go outside print area
G92 E0
G1 X60 E9 F1000 ; intro line
G1 X100 E12.5 F1000 ; intro line

G92 E0
M221 S95

; Don't change E values below. Excessive value can damage the printer.

M907 E538 ; set extruder motor current
G21 ; set units to millimeters
G90 ; use absolute coordinates
M83 ; use relative distances for extrusion
M900 K0.05 ; Filament gcode LA 1.5
M900 K30 ; Filament gcode LA 1.0
M107
;LAYER_CHANGE
;Z:0.2
;HEIGHT:0.2
;BEFORE_LAYER_CHANGE
G92 E0.0
;0.2


G1 E-.8 F2100
G1 Z.4 F720
;AFTER_LAYER_CHANGE
;0.2
G1 X133.019 Y55.226 F10800
G1 Z.2 F720
G1 E.8 F2100
M204 S800
;TYPE:Skirt/Brim
;WIDTH:0.42
G1 F1200
G1 X134.065 Y54.35 E.04278
G1 X135.004 Y54.156 E.03008
G1 X153.5 Y54.156 E.57992
G1 X154.807 Y54.548 E.04278
G1 X155.348 Y55.039 E.0229
G1 X170.148 Y73.337 E.7379
G1 X170.677 Y74.832 E.04972
G1 X170.677 Y135.168 E1.89181
G1 X169.981 Y136.849 E.05704
G1 X156.849 Y149.981 E.58228
G1 X155.168 Y150.677 E.05704
G1 X135.004 Y150.677 E.63223
G1 X133.697 Y150.286 E.04278
G1 X132.821 Y149.24 E.04278
G1 X132.627 Y148.3 E.03008
G1 X132.627 Y56.533 E2.87728
G1 X133.002 Y55.284 E.0409
M204 S1000
; printing object cockpit_clock-all.stl id:0 copy 0
;WIPE_START
G1 F8640
G1 X134.065 Y54.35 E-.32671
G1 X135.004 Y54.156 E-.22155
G1 X135.921 Y54.156 E-.21174
;WIPE_END
G1 E-.04 F2100
G1 Z.6 F720
G1 X149.128 Y75.932 F10800
G1 Z.2 F720
G1 E.8 F2100
M204 S800
;TYPE:Perimeter
;WIDTH:0.419999
G1 F1200
G1 X149.047 Y75.913 E.0026
G1 X135.795 Y75.913 E.41551
G1 X135.791 Y57.461 E.57853
G1 X152.713 Y57.461 E.53056
G1 X152.713 Y61.921 E.13984
G1 X152.72 Y62.01 E.00277
G1 X152.817 Y62.248 E.00806
G1 X153.019 Y62.424 E.00841
G1 X153.279 Y62.487 E.00839
G1 X154.842 Y62.487 E.04903
G1 X167.513 Y75.158 E.56184
G1 X167.513 Y134.842 E1.87136
G1 X154.842 Y147.513 E.56184
M73 P0 R79
G1 X135.791 Y147.513 E.59733
G1 X135.791 Y134.087 E.42096
G1 X149.047 Y134.087 E.41561
G1 X149.212 Y134.062 E.00523
G1 X149.447 Y133.921 E.00859
G1 X153.921 Y129.447 E.19841
G1 X154.021 Y129.313 E.00523
G1 X154.087 Y129.047 E.00859
G1 X154.087 Y80.953 E1.50794
G1 X154.062 Y80.788 E.00523
M73 Q0 S80
G1 X153.921 Y80.553 E.00859
G1 X149.447 Y76.079 E.19841
G1 X149.303 Y75.974 E.00558
G1 X149.186 Y75.946 E.00377
M204 S1000
G1 X149.022 Y76.29 F10800
M204 S800
;TYPE:External perimeter
G1 F1200
G1 X135.418 Y76.29 E.42655
G1 X135.414 Y57.084 E.60218
G1 X153.09 Y57.084 E.55421
G1 X153.09 Y61.921 E.15166
G1 X153.135 Y62.044 E.00409
G1 X153.279 Y62.11 E.00495
G1 X154.998 Y62.11 E.05393
G1 X167.89 Y75.002 E.57163
G1 X167.89 Y134.998 E1.88116
G1 X154.998 Y147.89 E.57163
G1 X135.414 Y147.89 E.61405
G1 X135.414 Y133.71 E.4446
G1 X149.047 Y133.71 E.42744
G1 X149.18 Y133.655 E.00452
G1 X153.655 Y129.18 E.19841
G1 X153.71 Y129.047 E.00452
G1 X153.71 Y80.953 E1.50794
G1 X153.655 Y80.82 E.00452
G1 X149.18 Y76.345 E.19841
G1 X149.079 Y76.303 E.00343
M204 S1000
G1 X148.917 Y75.904 F10800
;WIPE_START
G1 F8640
G1 X145.788 Y76.3 E-.76
;WIPE_END
G1 E-.04 F2100
G1 Z.6 F720
G1 X152.6 Y58.34 F10800
G1 Z.2 F720
G1 E.8 F2100
M204 S800
;TYPE:Solid infill
;WIDTH:0.421687
G1 F1200
G1 X152.004 Y57.744 E.02655
G1 X151.468 Y57.744 E.01687
G1 X152.43 Y58.706 E.04285
G1 X152.43 Y59.242 E.01687
G1 X150.932 Y57.744 E.06671
G1 X150.397 Y57.744 E.01687
G1 X152.43 Y59.778 E.09057
G1 X152.43 Y60.313 E.01687
G1 X149.861 Y57.744 E.11443
G1 X149.325 Y57.744 E.01687
G1 X152.43 Y60.849 E.13829
G1 X152.43 Y61.385 E.01687
G1 X148.62 Y57.575 E.1697
M204 S1000
;WIPE_START
G1 F8640
G1 X150.947 Y59.902 E-.76
;WIPE_END
G1 E-.04 F2100
G1 Z.6 F720
G1 X154.181 Y62.6 F10800
M73 P1 R79
G1 Z.2 F720
G1 E.8 F2100
M204 S800
G1 F1200
G1 X167.23 Y75.649 E.5812
G1 X167.23 Y76.185 E.01687
M73 Q1 S80
G1 X153.646 Y62.6 E.60505
M204 S1000
;WIPE_START
G1 F8640
G1 X155.973 Y64.928 E-.76
;WIPE_END
G1 E-.04 F2100
G1 Z.6 F720
G1 X167.4 Y76.89 F10800
G1 Z.2 F720
G1 E.8 F2100
M204 S800
G1 F1200
G1 X153.28 Y62.77 E.62891
G1 X153.036 Y62.735 E.00774
G1 X152.888 Y62.675 E.00502
G1 X152.75 Y62.586 E.00518
G1 X152.584 Y62.411 E.00761
G1 X152.464 Y62.164 E.00863
G1 X152.43 Y61.92 E.00776
G1 X148.254 Y57.744 E.186
G1 X147.718 Y57.744 E.01687
G1 X167.23 Y77.256 E.86905
G1 X167.23 Y77.792 E.01687
G1 X147.183 Y57.744 E.89291
G1 X146.647 Y57.744 E.01687
G1 X167.23 Y78.327 E.91677
G1 X167.23 Y78.863 E.01687
G1 X146.111 Y57.744 E.94063
G1 X145.576 Y57.744 E.01687
G1 X167.23 Y79.399 E.96449
G1 X167.23 Y79.934 E.01687
G1 X145.04 Y57.744 E.98835
G1 X144.504 Y57.744 E.01687
G1 X167.23 Y80.47 E1.0122
G1 X167.23 Y81.006 E.01687
G1 X143.969 Y57.744 E1.03606
G1 X143.433 Y57.744 E.01687
G1 X167.23 Y81.541 E1.05992
G1 X167.23 Y82.077 E.01687
G1 X142.897 Y57.744 E1.08378
G1 X142.362 Y57.744 E.01687
G1 X167.23 Y82.613 E1.10764
G1 X167.23 Y83.148 E.01687
G1 X141.826 Y57.744 E1.1315
G1 X141.291 Y57.744 E.01687
G1 X167.23 Y83.684 E1.15535
G1 X167.23 Y84.22 E.01687
G1 X140.755 Y57.744 E1.17921
G1 X140.219 Y57.744 E.01687
G1 X167.23 Y84.755 E1.20307
G1 X167.23 Y85.291 E.01687
G1 X139.684 Y57.744 E1.22693
G1 X139.148 Y57.744 E.01687
G1 X167.23 Y85.826 E1.25079
G1 X167.23 Y86.362 E.01687
G1 X138.612 Y57.744 E1.27464
G1 X138.077 Y57.744 E.01687
G1 X167.23 Y86.898 E1.2985
G1 X167.23 Y87.433 E.01687
M73 P1 R78
G1 X137.541 Y57.744 E1.32236
G1 X137.005 Y57.744 E.01687
G1 X167.23 Y87.969 E1.34622
G1 X167.23 Y88.505 E.01687
G1 X136.47 Y57.744 E1.37008
G1 X136.074 Y57.744 E.01245
M73 Q1 S79
G1 X136.074 Y57.885 E.00442
G1 X167.23 Y89.04 E1.38768
G1 X167.23 Y89.576 E.01687
G1 X136.074 Y58.42 E1.38768
G1 X136.075 Y58.956 E.01687
M73 P2 R78
G1 X167.23 Y90.112 E1.38767
G1 X167.23 Y90.647 E.01687
M73 Q2 S79
G1 X136.075 Y59.492 E1.38767
G1 X136.075 Y60.028 E.01687
G1 X167.23 Y91.183 E1.38767
G1 X167.23 Y91.719 E.01687
G1 X136.075 Y60.563 E1.38766
G1 X136.075 Y61.099 E.01687
G1 X167.23 Y92.254 E1.38766
G1 X167.23 Y92.79 E.01687
G1 X136.075 Y61.635 E1.38765
G1 X136.075 Y62.171 E.01687
G1 X167.23 Y93.326 E1.38765
G1 X167.23 Y93.861 E.01687
G1 X154.37 Y81.001 E.5728
G1 X154.334 Y80.705 E.00938
G1 X154.23 Y80.485 E.00769
G1 X154.125 Y80.357 E.00521
G1 X149.643 Y75.875 E.19961
G1 X149.506 Y75.764 E.00555
G1 X149.277 Y75.661 E.00792
G1 X148.999 Y75.63 E.0088
G1 X136.075 Y62.706 E.57563
G1 X136.075 Y63.242 E.01687
G1 X148.463 Y75.63 E.55176
G1 X147.928 Y75.63 E.01687
G1 X136.075 Y63.778 E.5279
G1 X136.075 Y64.314 E.01687
G1 X147.392 Y75.63 E.50404
G1 X146.856 Y75.63 E.01687
G1 X136.076 Y64.849 E.48018
G1 X136.076 Y65.385 E.01687
G1 X146.321 Y75.63 E.45632
G1 X145.785 Y75.63 E.01687
G1 X136.076 Y65.921 E.43245
G1 X136.076 Y66.457 E.01687
G1 X145.249 Y75.63 E.40859
G1 X144.714 Y75.63 E.01687
G1 X136.076 Y66.992 E.38473
G1 X136.076 Y67.528 E.01687
G1 X144.178 Y75.63 E.36087
G1 X143.642 Y75.63 E.01687
G1 X136.076 Y68.064 E.337
G1 X136.076 Y68.6 E.01687
G1 X143.107 Y75.63 E.31314
G1 X142.571 Y75.63 E.01687
G1 X136.076 Y69.135 E.28928
G1 X136.076 Y69.671 E.01687
G1 X142.035 Y75.63 E.26542
G1 X141.5 Y75.63 E.01687
G1 X136.076 Y70.207 E.24156
G1 X136.076 Y70.743 E.01687
G1 X140.964 Y75.63 E.21769
G1 X140.428 Y75.63 E.01687
G1 X136.077 Y71.278 E.19383
G1 X136.077 Y71.814 E.01687
G1 X139.893 Y75.63 E.16997
G1 X139.357 Y75.63 E.01687
G1 X136.077 Y72.35 E.14611
G1 X136.077 Y72.886 E.01687
G1 X138.821 Y75.63 E.12225
G1 X138.286 Y75.63 E.01687
G1 X136.077 Y73.421 E.09838
G1 X136.077 Y73.957 E.01687
G1 X137.75 Y75.63 E.07452
G1 X137.214 Y75.63 E.01687
G1 X136.077 Y74.493 E.05066
G1 X136.077 Y75.029 E.01687
G1 X136.679 Y75.63 E.0268
G1 X136.143 Y75.63 E.01687
G1 X135.908 Y75.395 E.01049
M204 S1000
;WIPE_START
G1 F8640
G1 X136.143 Y75.63 E-.07693
G1 X136.679 Y75.63 E-.12368
G1 X136.077 Y75.029 E-.19646
G1 X136.077 Y74.493 E-.12371
G1 X136.81 Y75.225 E-.23922
;WIPE_END
G1 E-.04 F2100
G1 Z.6 F720
G1 X154.2 Y81.367 F10800
G1 Z.2 F720
G1 E.8 F2100
M204 S800
G1 F1200
G1 X167.23 Y94.397 E.58036
G1 X167.23 Y94.933 E.01687
G1 X154.37 Y82.072 E.5728
G1 X154.37 Y82.608 E.01687
G1 X167.23 Y95.468 E.5728
G1 X167.23 Y96.004 E.01687
G1 X154.37 Y83.144 E.5728
G1 X154.37 Y83.679 E.01687
G1 X167.23 Y96.54 E.5728
G1 X167.23 Y97.075 E.01687
G1 X154.37 Y84.215 E.5728
G1 X154.37 Y84.751 E.01687
G1 X167.23 Y97.611 E.5728
G1 X167.23 Y98.147 E.01687
G1 X154.37 Y85.286 E.5728
G1 X154.37 Y85.822 E.01687
G1 X167.23 Y98.682 E.5728
G1 X167.23 Y99.218 E.01687
G1 X154.37 Y86.358 E.5728
G1 X154.37 Y86.893 E.01687
G1 X167.23 Y99.754 E.5728
G1 X167.23 Y100.289 E.01687
G1 X154.37 Y87.429 E.5728
G1 X154.37 Y87.965 E.01687
G1 X167.23 Y100.825 E.5728
G1 X167.23 Y101.361 E.01687
G1 X154.37 Y88.5 E.5728
G1 X154.37 Y89.036 E.01687
G1 X167.23 Y101.896 E.5728
G1 X167.23 Y102.432 E.01687
G1 X154.37 Y89.572 E.5728
G1 X154.37 Y90.107 E.01687
G1 X167.23 Y102.968 E.5728
G1 X167.23 Y103.503 E.01687
G1 X154.37 Y90.643 E.5728
G1 X154.37 Y91.179 E.01687
G1 X167.23 Y104.039 E.5728
G1 X167.23 Y104.574 E.01687
M73 P3 R78
G1 X154.37 Y91.714 E.5728
G1 X154.37 Y92.25 E.01687
M73 P3 R77
G1 X167.23 Y105.11 E.5728
G1 X167.23 Y105.646 E.01687
M73 Q3 S79
G1 X154.37 Y92.786 E.5728
G1 X154.37 Y93.321 E.01687
G1 X167.23 Y106.181 E.5728
G1 X167.23 Y106.717 E.01687
G1 X154.37 Y93.857 E.5728
G1 X154.37 Y94.392 E.01687
G1 X167.23 Y107.253 E.5728
G1 X167.23 Y107.788 E.01687
G1 X154.37 Y94.928 E.5728
G1 X154.37 Y95.464 E.01687
G1 X167.23 Y108.324 E.5728
G1 X167.23 Y108.86 E.01687
M73 Q3 S78
G1 X154.37 Y95.999 E.5728
G1 X154.37 Y96.535 E.01687
G1 X167.23 Y109.395 E.5728
G1 X167.23 Y109.931 E.01687
G1 X154.37 Y97.071 E.5728
G1 X154.37 Y97.606 E.01687
G1 X167.23 Y110.467 E.5728
G1 X167.23 Y111.002 E.01687
G1 X154.37 Y98.142 E.5728
G1 X154.37 Y98.678 E.01687
G1 X167.23 Y111.538 E.5728
G1 X167.23 Y112.074 E.01687
G1 X154.37 Y99.213 E.5728
G1 X154.37 Y99.749 E.01687
G1 X167.23 Y112.609 E.5728
G1 X167.23 Y113.145 E.01687
G1 X154.37 Y100.285 E.5728
G1 X154.37 Y100.82 E.01687
G1 X167.23 Y113.681 E.5728
G1 X167.23 Y114.216 E.01687
G1 X154.37 Y101.356 E.5728
G1 X154.37 Y101.892 E.01687
G1 X167.23 Y114.752 E.5728
G1 X167.23 Y115.288 E.01687
G1 X154.37 Y102.427 E.5728
G1 X154.37 Y102.963 E.01687
G1 X167.23 Y115.823 E.5728
G1 X167.23 Y116.359 E.01687
G1 X154.37 Y103.499 E.5728
G1 X154.37 Y104.034 E.01687
G1 X167.23 Y116.895 E.5728
G1 X167.23 Y117.43 E.01687
G1 X154.37 Y104.57 E.5728
G1 X154.37 Y105.106 E.01687
G1 X167.23 Y117.966 E.5728
G1 X167.23 Y118.502 E.01687
G1 X154.37 Y105.641 E.5728
G1 X154.37 Y106.177 E.01687
G1 X167.23 Y119.037 E.5728
G1 X167.23 Y119.573 E.01687
G1 X154.37 Y106.713 E.5728
G1 X154.37 Y107.248 E.01687
G1 X167.23 Y120.109 E.5728
G1 X167.23 Y120.644 E.01687
G1 X154.37 Y107.784 E.5728
G1 X154.37 Y108.32 E.01687
G1 X167.23 Y121.18 E.5728
G1 X167.23 Y121.716 E.01687
G1 X154.37 Y108.855 E.5728
G1 X154.37 Y109.391 E.01687
G1 X167.23 Y122.251 E.5728
G1 X167.23 Y122.787 E.01687
G1 X154.37 Y109.927 E.5728
G1 X154.37 Y110.462 E.01687
G1 X167.23 Y123.323 E.5728
G1 X167.23 Y123.858 E.01687
G1 X154.37 Y110.998 E.5728
G1 X154.37 Y111.534 E.01687
G1 X167.23 Y124.394 E.5728
G1 X167.23 Y124.929 E.01687
G1 X154.37 Y112.069 E.5728
G1 X154.37 Y112.605 E.01687
G1 X167.23 Y125.465 E.5728
G1 X167.23 Y126.001 E.01687
G1 X154.37 Y113.141 E.5728
G1 X154.37 Y113.676 E.01687
G1 X167.23 Y126.536 E.5728
G1 X167.23 Y127.072 E.01687
G1 X154.37 Y114.212 E.5728
G1 X154.37 Y114.747 E.01687
G1 X167.23 Y127.608 E.5728
G1 X167.23 Y128.143 E.01687
G1 X154.37 Y115.283 E.5728
G1 X154.37 Y115.819 E.01687
G1 X167.23 Y128.679 E.5728
G1 X167.23 Y129.215 E.01687
G1 X154.37 Y116.354 E.5728
G1 X154.37 Y116.89 E.01687
G1 X167.23 Y129.75 E.5728
G1 X167.23 Y130.286 E.01687
G1 X154.37 Y117.426 E.5728
G1 X154.37 Y117.961 E.01687
G1 X167.23 Y130.822 E.5728
G1 X167.23 Y131.357 E.01687
G1 X154.37 Y118.497 E.5728
G1 X154.37 Y119.033 E.01687
M73 P4 R77
G1 X167.23 Y131.893 E.5728
G1 X167.23 Y132.429 E.01687
G1 X154.37 Y119.568 E.5728
G1 X154.37 Y120.104 E.01687
G1 X167.23 Y132.964 E.5728
G1 X167.23 Y133.5 E.01687
M73 Q4 S78
G1 X154.37 Y120.64 E.5728
G1 X154.37 Y121.175 E.01687
G1 X167.23 Y134.036 E.5728
G1 X167.23 Y134.571 E.01687
G1 X154.37 Y121.711 E.5728
G1 X154.37 Y122.247 E.01687
G1 X167.039 Y134.916 E.56429
G1 X166.771 Y135.184 E.01193
G1 X154.37 Y122.782 E.55237
G1 X154.37 Y123.318 E.01687
G1 X166.504 Y135.452 E.54044
G1 X166.236 Y135.72 E.01193
G1 X154.37 Y123.854 E.52851
G1 X154.37 Y124.389 E.01687
G1 X165.968 Y135.987 E.51658
G1 X165.7 Y136.255 E.01193
G1 X154.37 Y124.925 E.50465
G1 X154.37 Y125.461 E.01687
G1 X165.432 Y136.523 E.49272
G1 X165.164 Y136.791 E.01193
M73 P4 R76
G1 X154.37 Y125.996 E.48079
G1 X154.37 Y126.532 E.01687
G1 X164.897 Y137.059 E.46886
G1 X164.629 Y137.327 E.01193
G1 X154.37 Y127.068 E.45693
G1 X154.37 Y127.603 E.01687
G1 X164.361 Y137.594 E.445
G1 X164.093 Y137.862 E.01193
G1 X154.37 Y128.139 E.43307
G1 X154.37 Y128.675 E.01687
G1 X163.825 Y138.13 E.42115
G1 X163.557 Y138.398 E.01193
G1 X154.355 Y129.196 E.40986
G1 X154.306 Y129.372 E.00575
G1 X154.189 Y129.565 E.00711
G1 X163.29 Y138.666 E.40535
G1 X163.022 Y138.933 E.01193
G1 X153.928 Y129.84 E.40503
G1 X153.66 Y130.108 E.01193
G1 X162.754 Y139.201 E.40503
G1 X162.486 Y139.469 E.01193
M73 Q4 S77
G1 X153.393 Y130.376 E.40503
G1 X153.125 Y130.643 E.01193
G1 X162.218 Y139.737 E.40503
G1 X161.95 Y140.005 E.01193
G1 X152.857 Y130.911 E.40503
G1 X152.589 Y131.179 E.01193
G1 X161.683 Y140.273 E.40503
G1 X161.415 Y140.54 E.01193
G1 X152.321 Y131.447 E.40503
G1 X152.053 Y131.715 E.01193
G1 X161.147 Y140.808 E.40503
G1 X160.879 Y141.076 E.01193
G1 X151.786 Y131.983 E.40503
G1 X151.518 Y132.25 E.01193
G1 X160.611 Y141.344 E.40503
G1 X160.344 Y141.612 E.01193
G1 X151.25 Y132.518 E.40503
G1 X150.982 Y132.786 E.01193
G1 X160.076 Y141.88 E.40503
G1 X159.808 Y142.147 E.01193
G1 X150.714 Y133.054 E.40503
G1 X150.446 Y133.322 E.01193
G1 X159.54 Y142.415 E.40503
G1 X159.272 Y142.683 E.01193
G1 X150.179 Y133.589 E.40503
G1 X149.911 Y133.857 E.01193
G1 X159.004 Y142.951 E.40503
G1 X158.737 Y143.219 E.01193
G1 X149.643 Y134.125 E.40503
G1 X149.515 Y134.23 E.00519
G1 X149.309 Y134.327 E.00718
G1 X158.469 Y143.487 E.40797
G1 X158.201 Y143.754 E.01193
G1 X148.816 Y134.37 E.41799
G1 X148.281 Y134.37 E.01687
G1 X157.933 Y144.022 E.42992
G1 X157.665 Y144.29 E.01193
G1 X147.745 Y134.37 E.44185
G1 X147.209 Y134.37 E.01687
G1 X157.397 Y144.558 E.45378
G1 X157.13 Y144.826 E.01193
G1 X146.674 Y134.37 E.4657
G1 X146.138 Y134.37 E.01687
G1 X156.862 Y145.094 E.47763
G1 X156.594 Y145.361 E.01193
G1 X145.602 Y134.37 E.48956
G1 X145.067 Y134.37 E.01687
G1 X156.326 Y145.629 E.50149
G1 X156.058 Y145.897 E.01193
G1 X144.531 Y134.37 E.51342
G1 X143.995 Y134.37 E.01687
G1 X155.79 Y146.165 E.52535
G1 X155.523 Y146.433 E.01193
G1 X143.46 Y134.37 E.53728
G1 X142.924 Y134.37 E.01687
G1 X155.255 Y146.701 E.54921
G1 X154.987 Y146.968 E.01193
G1 X142.388 Y134.37 E.56114
G1 X141.853 Y134.37 E.01687
G1 X154.713 Y147.23 E.5728
G1 X154.177 Y147.23 E.01687
