; generated by PrusaSlicer 2.5.0+win64 on 2022-10-09 at 09:36:06 UTC


;
;
; 

; external perimeters extrusion width = 0.60mm
; perimeters extrusion width = 0.50mm
; infill extrusion width = 0.50mm
; solid infill extrusion width = 0.50mm
; top infill extrusion width = 0.45mm
; first layer extrusion width = 0.42mm

M73 P0 R42
M73 Q0 S42
M201 X1000 Y1000 Z200 E5000 ; sets maximum accelerations, mm/sec^2
M203 X200 Y200 Z12 E120 ; sets maximum feedrates, mm / sec
M204 P1250 R1250 T1250 ; sets acceleration (P, T) and retract acceleration (R), mm/sec^2
M205 X8.00 Y8.00 Z0.40 E4.50 ; sets the jerk limits, mm/sec
M205 S0 T0 ; sets the minimum extruding and travel feed rate, mm/sec
M107
;TYPE:Custom
M862.3 P "MK3S" ; printer model check
M862.1 P0.4 ; nozzle diameter check
M115 U3.11.0 ; tell printer latest fw version
G90 ; use absolute coordinates
M83 ; extruder relative mode
M104 S215 ; set extruder temp
M140 S60 ; set bed temp
M190 S60 ; wait for bed temp
M109 S215 ; wait for extruder temp
G28 W ; home all without mesh bed level
G80 ; mesh bed leveling

G1 Z0.2 F720
G1 Y-3 F1000 ; go outside print area
G92 E0
G1 X60 E9 F1000 ; intro line
G1 X100 E12.5 F1000 ; intro line

G92 E0
M221 S95

; Don't change E values below. Excessive value can damage the printer.

M907 E538 ; set extruder motor current
G21 ; set units to millimeters
G90 ; use absolute coordinates
M83 ; use relative distances for extrusion
M900 K0.05 ; Filament gcode LA 1.5
M900 K30 ; Filament gcode LA 1.0
M107
;LAYER_CHANGE
;Z:0.2
;HEIGHT:0.2
;BEFORE_LAYER_CHANGE
G92 E0.0
;0.2


G1 E-.8 F2100
M73 P0 R41
G1 Z.4 F720
;AFTER_LAYER_CHANGE
;0.2
G1 X99.656 Y95.976 F10800
G1 Z.2 F720
G1 E.8 F2100
M204 S800
;TYPE:Skirt/Brim
;WIDTH:0.42
G1 F1200
G1 X100.849 Y95.315 E.04278
G1 X101.809 Y95.304 E.03008
G1 X151.953 Y105.029 E1.60153
G1 X153.161 Y105.663 E.04278
G1 X153.877 Y107.363 E.05784
G1 X153.877 Y112.363 E.15677
G1 X153.485 Y113.67 E.04278
G1 X152.44 Y114.546 E.04278
G1 X151.5 Y114.74 E.03008
G1 X98.5 Y114.74 E1.66178
G1 X97.193 Y114.348 E.04278
G1 X96.317 Y113.303 E.04278
G1 X96.166 Y111.91 E.04391
G1 X99.022 Y97.185 E.47031
G1 X99.628 Y96.029 E.0409
M204 S1000
; printing object cockpit_clock-stand.stl id:0 copy 0
;WIPE_START
G1 F8640
G1 X100.849 Y95.315 E-.32671
G1 X101.809 Y95.304 E-.22155
G1 X102.709 Y95.478 E-.21174
;WIPE_END
G1 E-.04 F2100
G1 Z.6 F720
G1 X99.454 Y111.576 F10800
G1 Z.2 F720
G1 E.8 F2100
M204 S800
;TYPE:Perimeter
;WIDTH:0.419999
G1 F1200
G1 X101.979 Y98.56 E.41571
G1 X150.713 Y108.012 E1.55649
G1 X150.713 Y111.576 E.11174
G1 X99.514 Y111.576 E1.60529
M204 S1000
G1 X98.997 Y111.953 F10800
M204 S800
;TYPE:External perimeter
G1 F1200
G1 X101.681 Y98.118 E.44187
G1 X151.09 Y107.701 E1.57807
G1 X151.09 Y111.953 E.13331
G1 X99.057 Y111.953 E1.63145
M204 S1000
G1 X99.231 Y111.628 F10800
;WIPE_START
M73 P1 R41
M73 Q1 S42
G1 F8640
G1 X99.67 Y108.719 E-.76
;WIPE_END
G1 E-.04 F2100
G1 Z.6 F720
G1 X150.6 Y108.871 F10800
G1 Z.2 F720
M73 Q1 S41
G1 E.8 F2100
M204 S800
;TYPE:Solid infill
;WIDTH:0.420333
G1 F1200
G1 X149.864 Y108.135 E.03267
G1 X149.201 Y108.007 E.02117
G1 X150.43 Y109.236 E.05453
G1 X150.43 Y109.769 E.01675
G1 X148.539 Y107.878 E.08392
G1 X147.877 Y107.75 E.02117
G1 X150.43 Y110.303 E.11331
G1 X150.43 Y110.837 E.01675
G1 X147.215 Y107.621 E.1427
G1 X146.553 Y107.493 E.02117
G1 X150.353 Y111.293 E.16864
G1 X149.819 Y111.293 E.01675
G1 X145.891 Y107.365 E.17434
G1 X145.228 Y107.236 E.02117
G1 X149.285 Y111.293 E.18004
G1 X148.751 Y111.293 E.01675
G1 X144.566 Y107.108 E.18574
G1 X143.904 Y106.979 E.02117
G1 X148.218 Y111.293 E.19144
G1 X147.684 Y111.293 E.01675
G1 X143.242 Y106.851 E.19714
G1 X142.58 Y106.722 E.02117
G1 X147.15 Y111.293 E.20284
G1 X146.616 Y111.293 E.01675
G1 X141.918 Y106.594 E.20854
G1 X141.255 Y106.466 E.02117
G1 X146.083 Y111.293 E.21424
G1 X145.549 Y111.293 E.01675
G1 X140.593 Y106.337 E.21994
G1 X139.931 Y106.209 E.02117
G1 X145.015 Y111.293 E.22564
G1 X144.481 Y111.293 E.01675
G1 X139.269 Y106.08 E.23134
G1 X138.607 Y105.952 E.02117
G1 X143.948 Y111.293 E.23704
G1 X143.414 Y111.293 E.01675
G1 X137.944 Y105.823 E.24274
G1 X137.282 Y105.695 E.02117
G1 X142.88 Y111.293 E.24844
G1 X142.346 Y111.293 E.01675
G1 X136.62 Y105.567 E.25414
G1 X135.958 Y105.438 E.02117
G1 X141.813 Y111.293 E.25984
G1 X141.279 Y111.293 E.01675
G1 X135.296 Y105.31 E.26554
G1 X134.634 Y105.181 E.02117
G1 X140.745 Y111.293 E.27124
G1 X140.211 Y111.293 E.01675
G1 X133.971 Y105.053 E.27694
G1 X133.309 Y104.924 E.02117
G1 X139.678 Y111.293 E.28264
G1 X139.144 Y111.293 E.01675
G1 X132.647 Y104.796 E.28834
G1 X131.985 Y104.668 E.02117
G1 X138.61 Y111.293 E.29404
G1 X138.076 Y111.293 E.01675
G1 X131.323 Y104.539 E.29974
G1 X130.661 Y104.411 E.02117
G1 X137.543 Y111.293 E.30544
G1 X137.009 Y111.293 E.01675
G1 X129.998 Y104.282 E.31114
G1 X129.336 Y104.154 E.02117
G1 X136.475 Y111.293 E.31684
G1 X135.942 Y111.293 E.01675
G1 X128.674 Y104.025 E.32254
G1 X128.012 Y103.897 E.02117
G1 X135.408 Y111.293 E.32824
G1 X134.874 Y111.293 E.01675
G1 X127.35 Y103.769 E.33394
G1 X126.688 Y103.64 E.02117
G1 X134.34 Y111.293 E.33964
G1 X133.807 Y111.293 E.01675
G1 X126.025 Y103.512 E.34534
G1 X125.363 Y103.383 E.02117
G1 X133.273 Y111.293 E.35104
G1 X132.739 Y111.293 E.01675
G1 X124.701 Y103.255 E.35674
G1 X124.039 Y103.126 E.02117
G1 X132.205 Y111.293 E.36244
G1 X131.672 Y111.293 E.01675
G1 X123.377 Y102.998 E.36814
G1 X122.714 Y102.87 E.02117
G1 X131.138 Y111.293 E.37384
G1 X130.604 Y111.293 E.01675
G1 X122.052 Y102.741 E.37954
G1 X121.39 Y102.613 E.02117
G1 X130.07 Y111.293 E.38524
G1 X129.537 Y111.293 E.01675
G1 X120.728 Y102.484 E.39094
G1 X120.066 Y102.356 E.02117
G1 X129.003 Y111.293 E.39664
G1 X128.469 Y111.293 E.01675
G1 X119.404 Y102.227 E.40234
G1 X118.741 Y102.099 E.02117
G1 X127.935 Y111.293 E.40804
G1 X127.402 Y111.293 E.01675
G1 X118.079 Y101.971 E.41374
G1 X117.417 Y101.842 E.02117
M73 P2 R41
M73 Q2 S41
G1 X126.868 Y111.293 E.41943
G1 X126.334 Y111.293 E.01675
G1 X116.755 Y101.714 E.42513
G1 X116.093 Y101.585 E.02117
G1 X125.8 Y111.293 E.43083
G1 X125.267 Y111.293 E.01675
G1 X115.431 Y101.457 E.43653
G1 X114.768 Y101.328 E.02117
G1 X124.733 Y111.293 E.44223
G1 X124.199 Y111.293 E.01675
G1 X114.106 Y101.2 E.44793
G1 X113.444 Y101.072 E.02117
G1 X123.665 Y111.293 E.45363
G1 X123.132 Y111.293 E.01675
G1 X112.782 Y100.943 E.45933
G1 X112.12 Y100.815 E.02117
G1 X122.598 Y111.293 E.46503
G1 X122.064 Y111.293 E.01675
G1 X111.458 Y100.686 E.47073
G1 X110.795 Y100.558 E.02117
G1 X121.53 Y111.293 E.47643
G1 X120.997 Y111.293 E.01675
G1 X110.133 Y100.429 E.48213
G1 X109.471 Y100.301 E.02117
G1 X120.463 Y111.293 E.48783
G1 X119.929 Y111.293 E.01675
G1 X108.809 Y100.173 E.49353
G1 X108.147 Y100.044 E.02117
G1 X119.395 Y111.293 E.49923
G1 X118.862 Y111.293 E.01675
G1 X107.484 Y99.916 E.50493
G1 X106.822 Y99.787 E.02117
G1 X118.328 Y111.293 E.51063
G1 X117.794 Y111.293 E.01675
G1 X106.16 Y99.659 E.51633
G1 X105.498 Y99.53 E.02117
G1 X117.261 Y111.293 E.52203
G1 X116.727 Y111.293 E.01675
G1 X104.836 Y99.402 E.52773
G1 X104.174 Y99.273 E.02117
M73 P2 R40
G1 X116.193 Y111.293 E.53343
G1 X115.659 Y111.293 E.01675
G1 X103.511 Y99.145 E.53913
G1 X102.849 Y99.017 E.02117
G1 X115.126 Y111.293 E.54483
G1 X114.592 Y111.293 E.01675
G1 X102.201 Y98.902 E.54993
G1 X102.114 Y99.349 E.01429
G1 X114.058 Y111.293 E.53009
G1 X113.524 Y111.293 E.01675
G1 X102.027 Y99.796 E.51025
G1 X101.941 Y100.243 E.01429
G1 X112.991 Y111.293 E.49041
G1 X112.457 Y111.293 E.01675
G1 X101.854 Y100.69 E.47057
G1 X101.767 Y101.137 E.01429
G1 X111.923 Y111.293 E.45073
G1 X111.389 Y111.293 E.01675
G1 X101.68 Y101.584 E.43089
G1 X101.594 Y102.031 E.01429
G1 X110.856 Y111.293 E.41105
G1 X110.322 Y111.293 E.01675
G1 X101.507 Y102.478 E.39121
G1 X101.42 Y102.925 E.01429
M73 P3 R40
M73 Q3 S41
G1 X109.788 Y111.293 E.37137
G1 X109.254 Y111.293 E.01675
G1 X101.334 Y103.372 E.35153
G1 X101.247 Y103.819 E.01429
G1 X108.721 Y111.293 E.33169
G1 X108.187 Y111.293 E.01675
G1 X101.16 Y104.266 E.31185
G1 X101.073 Y104.713 E.01429
G1 X107.653 Y111.293 E.29201
G1 X107.119 Y111.293 E.01675
G1 X100.987 Y105.16 E.27217
G1 X100.9 Y105.607 E.01429
G1 X106.586 Y111.293 E.25233
G1 X106.052 Y111.293 E.01675
G1 X100.813 Y106.054 E.23249
G1 X100.727 Y106.501 E.01429
G1 X105.518 Y111.293 E.21265
G1 X104.984 Y111.293 E.01675
G1 X100.64 Y106.948 E.19281
G1 X100.553 Y107.395 E.01429
G1 X104.451 Y111.293 E.17297
G1 X103.917 Y111.293 E.01675
G1 X100.467 Y107.842 E.15313
G1 X100.38 Y108.29 E.01429
G1 X103.383 Y111.293 E.13329
G1 X102.849 Y111.293 E.01675
G1 X100.293 Y108.737 E.11345
G1 X100.206 Y109.184 E.01429
G1 X102.316 Y111.293 E.09361
G1 X101.782 Y111.293 E.01675
G1 X100.12 Y109.631 E.07377
G1 X100.033 Y110.078 E.01429
G1 X101.248 Y111.293 E.05393
G1 X100.715 Y111.293 E.01675
G1 X99.946 Y110.525 E.03409
G1 X99.86 Y110.972 E.01429
G1 X100.35 Y111.463 E.02178
M204 S1000
; stop printing object cockpit_clock-stand.stl id:0 copy 0
M106 S84.15
;LAYER_CHANGE
;Z:0.55
;HEIGHT:0.35
;BEFORE_LAYER_CHANGE
G92 E0.0
;0.55


;WIPE_START
G1 F8640
G1 X99.86 Y110.972 E-.16028
G1 X99.946 Y110.525 E-.10515
G1 X100.715 Y111.293 E-.25085
G1 X101.248 Y111.293 E-.12324
G1 X100.879 Y110.924 E-.12048
;WIPE_END
G1 E-.04 F2100
G1 Z.6 F720
;AFTER_LAYER_CHANGE
;0.55
G1 X100.879 Y114.74 F10800
G1 Z.55 F720
G1 E.8 F2100
;TYPE:Skirt/Brim
;WIDTH:0.42
G1 F2700
G1 X98.5 Y114.74 E.11941
G1 X97.193 Y114.348 E.06848
G1 X96.317 Y113.303 E.06848
G1 X96.166 Y111.91 E.07028
G1 X99.022 Y97.185 E.75279
G1 X99.656 Y95.976 E.06848
G1 X100.849 Y95.315 E.06848
G1 X101.809 Y95.304 E.04815
G1 X151.953 Y105.029 E2.56342
G1 X153.161 Y105.663 E.06848
G1 X153.877 Y107.363 E.09259
G1 X153.877 Y112.363 E.25093
G1 X153.485 Y113.67 E.06848
G1 X152.44 Y114.546 E.06848
G1 X151.5 Y114.74 E.04815
G1 X100.939 Y114.74 E2.53743
; printing object cockpit_clock-stand.stl id:0 copy 0
;WIPE_START
G1 F8640
G1 X98.5 Y114.74 E-.56324
G1 X97.684 Y114.495 E-.19676
;WIPE_END
G1 E-.04 F2100
G1 Z.95 F720
G1 X99.44 Y111.588 F10800
G1 Z.55 F720
G1 E.8 F2100
M204 S800
;TYPE:Perimeter
;WIDTH:0.5
M73 Q3 S40
G1 F3000
G1 X101.969 Y98.545 E.8214
G1 X150.725 Y108.002 E3.0706
G1 X150.725 Y111.588 E.22172
G1 X99.5 Y111.588 E3.16711
M204 S1000
G1 X98.864 Y112.063 F10800
M204 S800
;TYPE:External perimeter
;WIDTH:0.6
G1 F2100
G1 X101.593 Y97.989 E1.09497
G1 X151.2 Y107.61 E3.85947
G1 X151.2 Y112.063 E.34008
G1 X98.924 Y112.063 E3.99276
M204 S1000
G1 X99.097 Y111.738 F10800
;WIPE_START
G1 F8640
G1 X99.537 Y108.829 E-.76
;WIPE_END
G1 E-.04 F2100
G1 Z.95 F720
G1 X149.737 Y111.46 F10800
G1 Z.55 F720
G1 E.8 F2100
;TYPE:Solid infill
;WIDTH:0.500604
G1 F4800
G1 X150.406 Y110.791 E.05858
G1 X150.406 Y110.19 E.03726
G1 X149.327 Y111.269 E.09452
G1 X148.725 Y111.269 E.03726
G1 X150.406 Y109.588 E.14721
G1 X150.406 Y108.986 E.03726
G1 X148.123 Y111.269 E.1999
G1 X147.522 Y111.269 E.03726
G1 X150.406 Y108.384 E.25259
G1 X150.406 Y108.265 E.00742
G1 X150.003 Y108.186 E.02545
G1 X146.92 Y111.269 E.26994
G1 X146.318 Y111.269 E.03726
G1 X149.499 Y108.089 E.2785
G1 X148.995 Y107.991 E.03179
G1 X145.716 Y111.269 E.28706
G1 X145.115 Y111.269 E.03726
G1 X148.491 Y107.893 E.29562
G1 X147.987 Y107.795 E.03179
G1 X144.513 Y111.269 E.30418
G1 X143.911 Y111.269 E.03726
G1 X147.483 Y107.698 E.31274
G1 X146.979 Y107.6 E.03179
G1 X143.31 Y111.269 E.32129
G1 X142.708 Y111.269 E.03726
G1 X146.475 Y107.502 E.32985
G1 X145.971 Y107.404 E.03179
G1 X142.106 Y111.269 E.33841
G1 X141.504 Y111.269 E.03726
G1 X145.467 Y107.307 E.34697
G1 X144.963 Y107.209 E.03179
G1 X140.903 Y111.269 E.35553
G1 X140.301 Y111.269 E.03726
G1 X144.459 Y107.111 E.36409
G1 X143.955 Y107.013 E.03179
G1 X139.699 Y111.269 E.37265
G1 X139.097 Y111.269 E.03726
G1 X143.451 Y106.916 E.38121
G1 X142.947 Y106.818 E.03179
G1 X138.496 Y111.269 E.38977
G1 X137.894 Y111.269 E.03726
G1 X142.443 Y106.72 E.39833
G1 X141.939 Y106.622 E.03179
G1 X137.292 Y111.269 E.40689
G1 X136.69 Y111.269 E.03726
G1 X141.435 Y106.525 E.41544
G1 X140.931 Y106.427 E.03179
G1 X136.089 Y111.269 E.424
G1 X135.487 Y111.269 E.03726
G1 X140.427 Y106.329 E.43256
G1 X139.923 Y106.231 E.03179
G1 X134.885 Y111.269 E.44112
G1 X134.283 Y111.269 E.03726
G1 X139.419 Y106.134 E.44968
G1 X138.915 Y106.036 E.03179
G1 X133.682 Y111.269 E.45824
G1 X133.08 Y111.269 E.03726
G1 X138.411 Y105.938 E.4668
G1 X137.907 Y105.84 E.03179
G1 X132.478 Y111.269 E.47536
G1 X131.877 Y111.269 E.03726
G1 X137.403 Y105.743 E.48392
G1 X136.899 Y105.645 E.03179
G1 X131.275 Y111.269 E.49248
G1 X130.673 Y111.269 E.03726
G1 X136.395 Y105.547 E.50104
G1 X135.891 Y105.449 E.03179
G1 X130.071 Y111.269 E.50959
G1 X129.47 Y111.269 E.03726
G1 X135.387 Y105.352 E.51815
G1 X134.883 Y105.254 E.03179
G1 X128.868 Y111.269 E.52671
G1 X128.266 Y111.269 E.03726
G1 X134.379 Y105.156 E.53527
G1 X133.875 Y105.058 E.03179
G1 X127.664 Y111.269 E.54383
G1 X127.063 Y111.269 E.03726
G1 X133.371 Y104.961 E.55239
G1 X132.867 Y104.863 E.03179
G1 X126.461 Y111.269 E.56095
G1 X125.859 Y111.269 E.03726
G1 X132.363 Y104.765 E.56951
G1 X131.859 Y104.667 E.03179
G1 X125.257 Y111.269 E.57807
G1 X124.656 Y111.269 E.03726
M73 P4 R40
G1 X131.355 Y104.57 E.58663
G1 X130.851 Y104.472 E.03179
M73 Q4 S40
G1 X124.054 Y111.269 E.59518
G1 X123.452 Y111.269 E.03726
G1 X130.347 Y104.374 E.60374
G1 X129.843 Y104.276 E.03179
G1 X122.85 Y111.269 E.6123
G1 X122.249 Y111.269 E.03726
G1 X129.339 Y104.179 E.62086
G1 X128.835 Y104.081 E.03179
G1 X121.647 Y111.269 E.62942
G1 X121.045 Y111.269 E.03726
G1 X128.331 Y103.983 E.63798
G1 X127.827 Y103.885 E.03179
G1 X120.443 Y111.269 E.64654
G1 X119.842 Y111.269 E.03726
G1 X127.323 Y103.788 E.6551
G1 X126.819 Y103.69 E.03179
G1 X119.24 Y111.269 E.66366
G1 X118.638 Y111.269 E.03726
G1 X126.315 Y103.592 E.67222
G1 X125.811 Y103.494 E.03179
G1 X118.037 Y111.269 E.68078
G1 X117.435 Y111.269 E.03726
G1 X125.307 Y103.397 E.68933
G1 X124.803 Y103.299 E.03179
G1 X116.833 Y111.269 E.69789
G1 X116.231 Y111.269 E.03726
G1 X124.299 Y103.201 E.70645
G1 X123.795 Y103.103 E.03179
G1 X115.63 Y111.269 E.71501
G1 X115.028 Y111.269 E.03726
G1 X123.291 Y103.006 E.72357
G1 X122.788 Y102.908 E.03179
G1 X114.426 Y111.269 E.73213
G1 X113.824 Y111.269 E.03726
G1 X122.284 Y102.81 E.74069
G1 X121.78 Y102.712 E.03179
G1 X113.223 Y111.269 E.74925
G1 X112.621 Y111.269 E.03726
G1 X121.276 Y102.615 E.75781
G1 X120.772 Y102.517 E.03179
G1 X112.019 Y111.269 E.76637
G1 X111.417 Y111.269 E.03726
G1 X120.268 Y102.419 E.77493
G1 X119.764 Y102.321 E.03179
G1 X110.816 Y111.269 E.78348
G1 X110.214 Y111.269 E.03726
G1 X119.26 Y102.224 E.79204
G1 X118.756 Y102.126 E.03179
G1 X109.612 Y111.269 E.8006
G1 X109.01 Y111.269 E.03726
G1 X118.252 Y102.028 E.80916
G1 X117.748 Y101.93 E.03179
G1 X108.409 Y111.269 E.81772
G1 X107.807 Y111.269 E.03726
G1 X117.244 Y101.833 E.82628
G1 X116.74 Y101.735 E.03179
G1 X107.205 Y111.269 E.83484
G1 X106.604 Y111.269 E.03726
G1 X116.236 Y101.637 E.8434
G1 X115.732 Y101.539 E.03179
G1 X106.002 Y111.269 E.85196
G1 X105.4 Y111.269 E.03726
G1 X115.228 Y101.442 E.86052
G1 X114.724 Y101.344 E.03179
G1 X104.798 Y111.269 E.86908
G1 X104.197 Y111.269 E.03726
G1 X114.22 Y101.246 E.87763
G1 X113.716 Y101.148 E.03179
G1 X103.595 Y111.269 E.88619
G1 X102.993 Y111.269 E.03726
G1 X113.212 Y101.051 E.89475
G1 X112.708 Y100.953 E.03179
G1 X102.391 Y111.269 E.90331
G1 X101.79 Y111.269 E.03726
G1 X112.204 Y100.855 E.91187
G1 X111.7 Y100.757 E.03179
G1 X101.188 Y111.269 E.92043
G1 X100.586 Y111.269 E.03726
G1 X111.196 Y100.66 E.92899
G1 X110.692 Y100.562 E.03179
G1 X99.984 Y111.269 E.93755
G1 X99.826 Y111.269 E.00981
G1 X99.933 Y110.719 E.03469
G1 X110.188 Y100.464 E.89794
G1 X109.684 Y100.366 E.03179
G1 X100.078 Y109.973 E.84114
G1 X100.222 Y109.226 E.04708
G1 X109.18 Y100.269 E.78433
G1 X108.676 Y100.171 E.03179
G1 X100.367 Y108.48 E.72752
G1 X100.512 Y107.733 E.04708
G1 X108.172 Y100.073 E.67071
G1 X107.668 Y99.975 E.03179
G1 X100.657 Y106.987 E.61391
G1 X100.801 Y106.24 E.04708
G1 X107.164 Y99.878 E.5571
G1 X106.66 Y99.78 E.03179
G1 X100.946 Y105.493 E.50029
G1 X101.091 Y104.747 E.04708
G1 X106.156 Y99.682 E.44348
G1 X105.652 Y99.584 E.03179
G1 X101.236 Y104 E.38667
