; generated by PrusaSlicer 2.5.0+win64 on 2022-10-21 at 18:03:22 UTC


;
;
; 

; external perimeters extrusion width = 0.45mm
; perimeters extrusion width = 0.45mm
; infill extrusion width = 0.45mm
; solid infill extrusion width = 0.45mm
; top infill extrusion width = 0.40mm
; first layer extrusion width = 0.42mm

M73 P0 R70
M73 Q0 S70
M201 X1000 Y1000 Z200 E5000 ; sets maximum accelerations, mm/sec^2
M203 X200 Y200 Z12 E120 ; sets maximum feedrates, mm / sec
M204 P1250 R1250 T1250 ; sets acceleration (P, T) and retract acceleration (R), mm/sec^2
M205 X8.00 Y8.00 Z0.40 E4.50 ; sets the jerk limits, mm/sec
M205 S0 T0 ; sets the minimum extruding and travel feed rate, mm/sec
M107
;TYPE:Custom
M862.3 P "MK3S" ; printer model check
M862.1 P0.4 ; nozzle diameter check
M115 U3.11.0 ; tell printer latest fw version
G90 ; use absolute coordinates
M83 ; extruder relative mode
M104 S210 ; set extruder temp
M140 S60 ; set bed temp
M190 S60 ; wait for bed temp
M109 S210 ; wait for extruder temp
G28 W ; home all without mesh bed level
G80 ; mesh bed leveling

G1 Z0.2 F720
G1 Y-3 F1000 ; go outside print area
G92 E0
G1 X60 E9 F1000 ; intro line
G1 X100 E12.5 F1000 ; intro line

G92 E0
M221 S95

; Don't change E values below. Excessive value can damage the printer.
M907 E430 ; set extruder motor current
G21 ; set units to millimeters
G90 ; use absolute coordinates
M83 ; use relative distances for extrusion
M900 K0.05 ; Filament gcode LA 1.5
M900 K30 ; Filament gcode LA 1.0
M107
;LAYER_CHANGE
;Z:0.2
;HEIGHT:0.2
;BEFORE_LAYER_CHANGE
G92 E0.0
;0.2


G1 E-.8 F2100
M73 P0 R69
G1 Z.4 F720
;AFTER_LAYER_CHANGE
;0.2
G1 X101.515 Y60.693 F10800
G1 Z.2 F720
G1 E.8 F2100
M204 S800
;TYPE:Skirt/Brim
;WIDTH:0.42
G1 F1200
G1 X102.56 Y59.817 E.04278
G1 X103.5 Y59.623 E.03008
G1 X146.5 Y59.623 E1.34823
G1 X147.807 Y60.015 E.04278
G1 X148.683 Y61.06 E.04278
G1 X148.877 Y62 E.03008
G1 X148.877 Y148 E2.69647
G1 X148.485 Y149.307 E.04278
G1 X147.44 Y150.183 E.04278
G1 X146.5 Y150.377 E.03008
G1 X103.5 Y150.377 E1.34823
G1 X102.193 Y149.985 E.04278
G1 X101.317 Y148.94 E.04278
G1 X101.123 Y148 E.03008
G1 X101.123 Y62 E2.69647
G1 X101.497 Y60.75 E.0409
M204 S1000
; printing object furniture-wedge-Body.stl id:0 copy 0
;WIPE_START
M73 Q0 S69
G1 F8640
G1 X102.56 Y59.817 E-.32671
G1 X103.5 Y59.623 E-.22155
G1 X104.417 Y59.623 E-.21174
;WIPE_END
G1 E-.04 F2100
G1 Z.6 F720
G1 X143.45 Y98.95 F10800
G1 Z.2 F720
G1 E.8 F2100
M204 S800
;TYPE:Perimeter
;WIDTH:0.419999
G1 F1200
G1 X106.55 Y98.95 E1.157
G1 X106.55 Y65.05 E1.06294
G1 X143.45 Y65.05 E1.157
G1 X143.45 Y98.89 E1.06106
M204 S1000
G1 X143.828 Y99.328 F10800
M204 S800
G1 F1200
G1 X106.172 Y99.328 E1.18065
G1 X106.172 Y64.672 E1.08658
G1 X143.828 Y64.672 E1.18065
G1 X143.828 Y99.268 E1.0847
M204 S1000
G1 X144.205 Y99.705 F10800
M204 S800
G1 F1200
G1 X105.795 Y99.705 E1.20429
G1 X105.795 Y64.295 E1.11023
G1 X144.205 Y64.295 E1.20429
G1 X144.205 Y99.645 E1.10835
M204 S1000
G1 X144.582 Y100.082 F10800
M204 S800
M73 P1 R69
M73 Q1 S69
G1 F1200
G1 X105.418 Y100.082 E1.22794
G1 X105.418 Y63.918 E1.13388
G1 X144.582 Y63.918 E1.22794
G1 X144.582 Y100.022 E1.13199
M204 S1000
G1 X144.959 Y100.459 F10800
M204 S800
G1 F1200
G1 X105.041 Y100.459 E1.25158
G1 X105.041 Y63.541 E1.15752
G1 X144.959 Y63.541 E1.25158
G1 X144.959 Y100.399 E1.15564
M204 S1000
G1 X145.336 Y100.836 F10800
M204 S800
G1 F1200
G1 X104.664 Y100.836 E1.27523
G1 X104.664 Y63.164 E1.18117
G1 X145.336 Y63.164 E1.27523
G1 X145.336 Y100.776 E1.17929
M204 S1000
G1 X145.713 Y101.213 F10800
M204 S800
M73 P1 R68
G1 F1200
G1 X104.287 Y101.213 E1.29888
G1 X104.287 Y62.787 E1.20481
G1 X145.713 Y62.787 E1.29888
G1 X145.713 Y101.153 E1.20293
M204 S1000
G1 X146.09 Y101.59 F10800
M204 S800
;TYPE:External perimeter
G1 F1200
G1 X103.91 Y101.59 E1.32252
G1 X103.91 Y62.41 E1.22846
G1 X146.09 Y62.41 E1.32252
G1 X146.09 Y101.53 E1.22658
M204 S1000
M73 Q1 S68
G1 X145.702 Y101.491 F10800
;WIPE_START
G1 F8640
G1 X142.799 Y101.535 E-.76
;WIPE_END
G1 E-.04 F2100
G1 Z.6 F720
G1 X139.574 Y80.497 F10800
G1 Z.2 F720
G1 E.8 F2100
M204 S800
;TYPE:Perimeter
G1 F1200
G1 X139.672 Y81.182 E.02169
G1 X139.709 Y82.159 E.03066
G1 X139.654 Y82.995 E.02628
G1 X139.514 Y83.867 E.02768
G1 X139.281 Y84.747 E.02853
G1 X138.965 Y85.592 E.0283
G1 X138.566 Y86.401 E.02827
G1 X138.089 Y87.166 E.02828
G1 X137.537 Y87.88 E.02828
G1 X136.635 Y88.791 E.0402
G1 X135.555 Y89.606 E.04242
G1 X134.722 Y90.085 E.03012
G1 X133.884 Y90.454 E.02874
G1 X132.659 Y90.821 E.04009
G1 X131.702 Y90.987 E.03044
G1 X130.663 Y91.05 E.03266
G1 X119.143 Y91.042 E.3612
M73 P2 R68
M73 Q2 S68
G1 X117.85 Y90.903 E.04077
G1 X116.934 Y90.693 E.02946
G1 X116.045 Y90.386 E.02949
G1 X115.214 Y89.999 E.02874
G1 X114.474 Y89.563 E.02695
G1 X113.438 Y88.765 E.04098
G1 X112.748 Y88.088 E.03031
G1 X111.945 Y87.061 E.04088
G1 X111.451 Y86.247 E.02985
G1 X110.936 Y85.078 E.04006
G1 X110.648 Y84.134 E.03096
G1 X110.438 Y82.874 E.04005
G1 X110.408 Y81.531 E.04213
G1 X110.507 Y80.567 E.03038
G1 X110.809 Y79.298 E.0409
G1 X111.14 Y78.399 E.03004
G1 X111.73 Y77.271 E.03993
G1 X112.281 Y76.468 E.03053
G1 X113.151 Y75.5 E.04081
G1 X113.881 Y74.862 E.0304
G1 X114.54 Y74.398 E.02526
G1 X115.739 Y73.748 E.04277
G1 X117.005 Y73.29 E.04221
G1 X118.33 Y73.024 E.04236
G1 X119.439 Y72.95 E.03485
G1 X130.979 Y72.958 E.36185
G1 X132.247 Y73.096 E.03999
G1 X133.192 Y73.314 E.0304
G1 X134.033 Y73.605 E.0279
G1 X134.873 Y73.993 E.02902
G1 X135.66 Y74.459 E.02868
G1 X136.361 Y74.974 E.02726
G1 X137.031 Y75.575 E.02823
G1 X137.643 Y76.246 E.02844
G1 X138.184 Y76.975 E.02848
G1 X138.65 Y77.753 E.02845
G1 X139.035 Y78.574 E.02844
G1 X139.329 Y79.407 E.02767
G1 X139.544 Y80.283 E.02829
G1 X139.566 Y80.438 E.0049
M204 S1000
G1 X139.203 Y80.554 F10800
M204 S800
G1 F1200
G1 X139.297 Y81.229 E.02138
G1 X139.332 Y82.159 E.02918
G1 X139.278 Y82.967 E.02538
G1 X139.143 Y83.802 E.02651
G1 X138.918 Y84.645 E.02736
G1 X138.614 Y85.455 E.02712
G1 X138.231 Y86.229 E.02709
G1 X137.772 Y86.962 E.0271
G1 X137.242 Y87.645 E.0271
G1 X136.372 Y88.521 E.03873
G1 X135.335 Y89.3 E.04066
G1 X134.542 Y89.754 E.02865
G1 X133.737 Y90.106 E.02756
G1 X132.557 Y90.458 E.03861
G1 X131.646 Y90.614 E.02897
G1 X130.663 Y90.672 E.03088
G1 X119.143 Y90.665 E.3612
G1 X117.897 Y90.529 E.03931
G1 X117.027 Y90.328 E.02799
G1 X116.174 Y90.031 E.02831
G1 X115.378 Y89.66 E.02752
G1 X114.67 Y89.241 E.02581
G1 X113.673 Y88.47 E.03952
G1 X113.018 Y87.825 E.02883
G1 X112.246 Y86.834 E.03939
G1 X111.778 Y86.059 E.02838
G1 X111.283 Y84.932 E.0386
G1 X111.011 Y84.032 E.02947
G1 X110.811 Y82.819 E.03857
G1 X110.785 Y81.531 E.04037
G1 X110.881 Y80.614 E.02892
G1 X111.174 Y79.392 E.03941
G1 X111.491 Y78.537 E.02856
G1 X112.062 Y77.451 E.03847
G1 X112.587 Y76.688 E.02906
G1 X113.427 Y75.757 E.03932
G1 X114.123 Y75.151 E.02892
G1 X114.752 Y74.71 E.02409
G1 X115.911 Y74.083 E.0413
G1 X117.125 Y73.647 E.04045
G1 X118.395 Y73.396 E.0406
G1 X119.438 Y73.328 E.03278
G1 X130.979 Y73.336 E.36185
G1 X132.2 Y73.47 E.03852
G1 X133.099 Y73.679 E.02894
G1 X133.905 Y73.959 E.02673
G1 X134.71 Y74.333 E.02783
G1 X135.463 Y74.781 E.02747
G1 X136.133 Y75.274 E.02611
G1 X136.775 Y75.852 E.02707
G1 X137.36 Y76.495 E.02726
G1 X137.878 Y77.195 E.02729
G1 X138.323 Y77.942 E.02726
G1 X138.691 Y78.729 E.02725
G1 X138.972 Y79.527 E.02651
G1 X139.194 Y80.495 E.03114
M204 S1000
G1 X138.831 Y80.61 F10800
M204 S800
G1 F1200
G1 X138.923 Y81.276 E.02109
G1 X138.955 Y82.159 E.0277
G1 X138.902 Y82.938 E.02448
G1 X138.771 Y83.736 E.02535
G1 X138.555 Y84.543 E.02619
G1 X138.263 Y85.317 E.02593
G1 X137.895 Y86.057 E.02592
G1 X137.455 Y86.757 E.02592
G1 X136.948 Y87.41 E.02592
G1 X136.108 Y88.251 E.03726
G1 X135.115 Y88.994 E.03889
G1 X134.361 Y89.422 E.02719
G1 X133.59 Y89.759 E.02638
G1 X132.455 Y90.095 E.03713
G1 X131.59 Y90.241 E.0275
G1 X130.663 Y90.295 E.02911
G1 X119.143 Y90.288 E.3612
G1 X117.943 Y90.155 E.03786
G1 X117.119 Y89.962 E.02652
G1 X116.302 Y89.677 E.02714
G1 X115.543 Y89.321 E.02629
G1 X114.867 Y88.919 E.02466
G1 X113.908 Y88.175 E.03805
G1 X113.288 Y87.562 E.02734
G1 X112.547 Y86.607 E.03791
G1 X112.105 Y85.871 E.02691
G1 X111.631 Y84.786 E.03714
G1 X111.374 Y83.931 E.02799
G1 X111.184 Y82.763 E.03709
G1 X111.162 Y81.531 E.03862
G1 X111.255 Y80.661 E.02745
G1 X111.539 Y79.485 E.03792
G1 X111.841 Y78.676 E.02709
G1 X112.393 Y77.632 E.03702
G1 X112.893 Y76.908 E.02759
G1 X113.703 Y76.014 E.03783
G1 X114.365 Y75.441 E.02745
G1 X114.964 Y75.022 E.02292
G1 X116.082 Y74.419 E.03984
G1 X117.245 Y74.005 E.0387
G1 X118.46 Y73.767 E.03884
G1 X119.438 Y73.705 E.03072
G1 X130.979 Y73.713 E.36185
G1 X132.153 Y73.844 E.03705
G1 X133.006 Y74.045 E.02747
G1 X133.776 Y74.314 E.02556
G1 X134.546 Y74.673 E.02664
G1 X135.265 Y75.102 E.02626
G1 X135.906 Y75.575 E.02496
G1 X136.519 Y76.129 E.02591
G1 X137.078 Y76.745 E.02607
G1 X137.572 Y77.415 E.02611
G1 X137.997 Y78.13 E.02608
G1 X138.347 Y78.884 E.02607
G1 X138.614 Y79.647 E.02535
G1 X138.823 Y80.551 E.02908
M204 S1000
G1 X138.459 Y80.665 F10800
M204 S800
G1 F1200
G1 X138.549 Y81.323 E.02083
G1 X138.578 Y82.159 E.02622
G1 X138.526 Y82.91 E.02359
G1 X138.4 Y83.671 E.02418
G1 X138.192 Y84.441 E.02502
G1 X137.912 Y85.179 E.02474
G1 X137.559 Y85.885 E.02474
G1 X137.138 Y86.552 E.02475
G1 X136.653 Y87.175 E.02475
G1 X135.845 Y87.981 E.03578
G1 X134.895 Y88.687 E.03713
G1 X134.181 Y89.091 E.02572
G1 X133.444 Y89.412 E.0252
G1 X132.353 Y89.732 E.03565
G1 X131.534 Y89.869 E.02604
G1 X130.663 Y89.918 E.02734
G1 X119.143 Y89.911 E.3612
G1 X117.99 Y89.78 E.0364
G1 X117.212 Y89.597 E.02506
G1 X116.431 Y89.322 E.02596
G1 X115.707 Y88.982 E.02507
G1 X115.064 Y88.597 E.02351
G1 X114.143 Y87.88 E.03659
G1 X113.558 Y87.299 E.02585
G1 X112.848 Y86.38 E.03643
G1 X112.432 Y85.683 E.02545
G1 X111.978 Y84.639 E.03569
G1 X111.737 Y83.829 E.02651
G1 X111.557 Y82.707 E.03562
G1 X111.539 Y81.532 E.03687
G1 X111.629 Y80.708 E.02599
G1 X111.905 Y79.579 E.03643
G1 X112.192 Y78.814 E.02562
G1 X112.724 Y77.812 E.03556
G1 X113.199 Y77.128 E.02612
G1 X113.979 Y76.271 E.03634
G1 X114.606 Y75.73 E.02597
G1 X115.175 Y75.333 E.02175
G1 X116.254 Y74.755 E.03838
G1 X117.365 Y74.362 E.03694
G1 X118.526 Y74.138 E.03707
G1 X119.438 Y74.082 E.02865
G1 X130.979 Y74.09 E.36185
G1 X132.106 Y74.218 E.03559
G1 X132.913 Y74.41 E.02601
G1 X133.647 Y74.668 E.0244
G1 X134.382 Y75.013 E.02546
G1 X135.068 Y75.423 E.02506
G1 X135.678 Y75.876 E.02381
G1 X136.263 Y76.406 E.02476
G1 X136.795 Y76.995 E.02489
G1 X137.266 Y77.635 E.02492
G1 X137.67 Y78.318 E.02489
G1 X138.003 Y79.039 E.02488
G1 X138.257 Y79.767 E.02418
G1 X138.451 Y80.606 E.027
M204 S1000
G1 X138.087 Y80.719 F10800
M204 S800
G1 F1200
G1 X138.175 Y81.37 E.0206
G1 X138.201 Y82.159 E.02475
G1 X138.15 Y82.881 E.02269
G1 X138.028 Y83.605 E.02302
G1 X137.829 Y84.34 E.02385
G1 X137.561 Y85.041 E.02355
G1 X137.224 Y85.713 E.02356
G1 X136.822 Y86.348 E.02357
G1 X136.358 Y86.94 E.02357
G1 X135.582 Y87.711 E.03431
G1 X134.675 Y88.381 E.03536
G1 X134 Y88.76 E.02426
G1 X133.297 Y89.064 E.02402
G1 X132.251 Y89.369 E.03417
G1 X131.478 Y89.496 E.02457
G1 X130.664 Y89.541 E.02556
G1 X119.144 Y89.534 E.3612
G1 X118.036 Y89.406 E.03495
G1 X117.305 Y89.231 E.02359
G1 X116.559 Y88.968 E.02478
G1 X115.872 Y88.642 E.02385
G1 X115.26 Y88.276 E.02237
G1 X114.378 Y87.586 E.03512
G1 X113.828 Y87.036 E.02436
G1 X113.149 Y86.153 E.03494
G1 X112.759 Y85.495 E.02398
G1 X112.326 Y84.493 E.03423
G1 X112.1 Y83.727 E.02502
G1 X111.93 Y82.652 E.03414
G1 X111.916 Y81.532 E.03511
G1 X112.003 Y80.755 E.02452
G1 X112.27 Y79.673 E.03494
G1 X112.543 Y78.952 E.02415
G1 X113.055 Y77.993 E.0341
G1 X113.506 Y77.348 E.02466
G1 X114.255 Y76.528 E.03485
G1 X114.848 Y76.019 E.02449
G1 X115.387 Y75.645 E.02057
G1 X116.426 Y75.09 E.03692
G1 X117.485 Y74.72 E.03519
G1 X118.591 Y74.51 E.03531
G1 X119.438 Y74.459 E.02658
G1 X130.978 Y74.467 E.36185
G1 X132.059 Y74.592 E.03412
G1 X132.82 Y74.776 E.02454
G1 X133.519 Y75.022 E.02323
G1 X134.219 Y75.352 E.02427
G1 X134.871 Y75.745 E.02385
G1 X135.45 Y76.176 E.02265
G1 X136.007 Y76.682 E.0236
G1 X136.513 Y77.244 E.0237
G1 X136.96 Y77.855 E.02374
G1 X137.343 Y78.507 E.0237
G1 X137.659 Y79.193 E.0237
G1 X137.899 Y79.887 E.02302
G1 X138.079 Y80.66 E.02488
M204 S1000
G1 X137.715 Y80.772 F10800
M204 S800
G1 F1200
G1 X137.801 Y81.417 E.02042
G1 X137.824 Y82.159 E.02327
G1 X137.774 Y82.853 E.0218
G1 X137.657 Y83.54 E.02185
G1 X137.466 Y84.238 E.02268
G1 X137.21 Y84.903 E.02237
G1 X136.888 Y85.541 E.02239
G1 X136.505 Y86.143 E.02239
G1 X136.063 Y86.704 E.02239
G1 X135.319 Y87.441 E.03284
G1 X134.455 Y88.075 E.0336
G1 X133.82 Y88.429 E.02279
G1 X133.151 Y88.717 E.02284
G1 X132.149 Y89.006 E.03269
G1 X131.421 Y89.123 E.0231
G1 X130.664 Y89.164 E.02379
G1 X119.144 Y89.157 E.3612
G1 X118.083 Y89.032 E.03349
G1 X117.397 Y88.866 E.02212
G1 X116.688 Y88.613 E.02361
G1 X116.037 Y88.303 E.02263
G1 X115.457 Y87.954 E.02122
G1 X114.613 Y87.291 E.03366
G1 X114.098 Y86.773 E.02288
G1 X113.45 Y85.926 E.03346
G1 X113.085 Y85.307 E.02251
G1 X112.673 Y84.346 E.03278
G1 X112.463 Y83.626 E.02354
G1 X112.303 Y82.596 E.03266
G1 X112.293 Y81.532 E.03336
G1 X112.377 Y80.802 E.02306
G1 X112.635 Y79.766 E.03346
G1 X112.894 Y79.091 E.02268
G1 X113.386 Y78.173 E.03265
G1 X113.812 Y77.569 E.02319
G1 X114.531 Y76.785 E.03336
G1 X115.09 Y76.309 E.02301
G1 X115.599 Y75.957 E.0194
G1 X116.597 Y75.426 E.03545
G1 X117.605 Y75.077 E.03343
G1 X118.657 Y74.881 E.03355
G1 X119.437 Y74.836 E.02451
G1 X130.978 Y74.844 E.36185
G1 X132.012 Y74.967 E.03265
G1 X132.727 Y75.141 E.02308
G1 X133.39 Y75.377 E.02206
G1 X134.055 Y75.692 E.02308
G1 X134.673 Y76.066 E.02264
G1 X135.222 Y76.477 E.0215
G1 X135.751 Y76.959 E.02244
G1 X136.23 Y77.494 E.02252
G1 X136.654 Y78.075 E.02255
G1 X137.017 Y78.695 E.02252
G1 X137.316 Y79.348 E.02251
G1 X137.542 Y80.007 E.02185
G1 X137.708 Y80.712 E.02272
M204 S1000
G1 X137.343 Y80.823 F10800
M204 S800
G1 F1200
G1 X137.427 Y81.464 E.02027
G1 X137.446 Y82.159 E.02179
G1 X137.398 Y82.824 E.0209
G1 X137.286 Y83.474 E.02069
G1 X137.103 Y84.136 E.02151
G1 X136.859 Y84.766 E.02118
G1 X136.553 Y85.369 E.02121
G1 X136.188 Y85.939 E.02121
G1 X135.768 Y86.469 E.02121
G1 X135.055 Y87.171 E.03137
G1 X134.235 Y87.769 E.03183
G1 X133.639 Y88.098 E.02133
G1 X133.004 Y88.369 E.02166
G1 X132.047 Y88.643 E.03121
G1 X131.365 Y88.75 E.02164
G1 X130.664 Y88.787 E.02201
G1 X119.144 Y88.78 E.3612
G1 X118.13 Y88.658 E.03203
G1 X117.49 Y88.5 E.02065
G1 X116.817 Y88.259 E.02243
G1 X116.201 Y87.964 E.02141
G1 X115.654 Y87.632 E.02007
G1 X114.848 Y86.996 E.0322
G1 X114.369 Y86.51 E.02139
G1 X113.751 Y85.699 E.03198
G1 X113.412 Y85.119 E.02105
G1 X113.021 Y84.2 E.03132
G1 X112.827 Y83.524 E.02206
G1 X112.676 Y82.541 E.03119
G1 X112.67 Y81.533 E.03161
G1 X112.752 Y80.849 E.02159
G1 X113 Y79.86 E.03197
G1 X113.245 Y79.229 E.02121
G1 X113.717 Y78.354 E.03119
G1 X114.118 Y77.789 E.02172
G1 X114.807 Y77.042 E.03187
G1 X115.331 Y76.598 E.02153
G1 X115.811 Y76.269 E.01823
G1 X116.769 Y75.762 E.03399
G1 X117.725 Y75.435 E.03168
G1 X118.722 Y75.252 E.03179
G1 X119.437 Y75.213 E.02245
G1 X130.978 Y75.221 E.36185
G1 X131.965 Y75.341 E.03118
G1 X132.634 Y75.507 E.02161
G1 X133.261 Y75.731 E.02089
G1 X133.892 Y76.032 E.0219
G1 X134.476 Y76.387 E.02144
G1 X134.995 Y76.777 E.02035
G1 X135.495 Y77.236 E.02128
G1 X135.947 Y77.744 E.02133
G1 X136.348 Y78.296 E.02137
G1 X136.69 Y78.883 E.02133
G1 X136.972 Y79.503 E.02133
G1 X137.184 Y80.127 E.02069
G1 X137.333 Y80.764 E.02051
M204 S1000
G1 X136.902 Y80.572 F10800
M204 S800
;TYPE:External perimeter
G1 F1200
G1 X136.971 Y80.873 E.0097
G1 X137.053 Y81.512 E.02018
G1 X137.069 Y82.159 E.02031
G1 X137.022 Y82.795 E.02001
G1 X136.914 Y83.409 E.01952
G1 X136.74 Y84.034 E.02034
G1 X136.508 Y84.628 E.01999
G1 X136.217 Y85.197 E.02003
G1 X135.871 Y85.734 E.02004
G1 X135.474 Y86.234 E.02004
G1 X134.792 Y86.901 E.0299
G1 X134.014 Y87.463 E.03007
G1 X133.459 Y87.767 E.01987
G1 X132.857 Y88.022 E.02048
G1 X131.945 Y88.28 E.02973
G1 X131.309 Y88.377 E.02017
G1 X130.664 Y88.41 E.02024
G1 X119.144 Y88.403 E.3612
G1 X118.176 Y88.284 E.03058
G1 X117.583 Y88.135 E.01919
G1 X116.945 Y87.904 E.02125
