; generated by PrusaSlicer 2.5.0+win64 on 2022-11-04 at 13:49:55 UTC
; Postprocessed by [ArcWelder](https://github.com/FormerLurker/ArcWelderLib)
; Copyright(C) 2021 - Brad Hochgesang
; Version: 1.2.0, Branch: HEAD, BuildDate: 2021-11-21T20:25:43Z
; resolution=0.05mm
; path_tolerance=5.0%
; max_radius=9999.00mm
; default_xyz_precision=3
; default_e_precision=5
; extrusion_rate_variance_percent=5.0%





; 

; external perimeters extrusion width = 0.45mm
; perimeters extrusion width = 0.45mm
; infill extrusion width = 0.45mm
; solid infill extrusion width = 0.45mm
; top infill extrusion width = 0.40mm
; first layer extrusion width = 0.42mm

M73 P0 R157
M73 Q0 S159
M201 X1000 Y1000 Z200 E5000 ; sets maximum accelerations, mm/sec^2
M203 X200 Y200 Z12 E120 ; sets maximum feedrates, mm / sec
M204 P1250 R1250 T1250 ; sets acceleration (P, T) and retract acceleration (R), mm/sec^2
M205 X8.00 Y8.00 Z0.40 E4.50 ; sets the jerk limits, mm/sec
M205 S0 T0 ; sets the minimum extruding and travel feed rate, mm/sec
M107
;TYPE:Custom
M862.3 P "MK3S" ; printer model check
M862.1 P0.4 ; nozzle diameter check
M115 U3.11.0 ; tell printer latest fw version
G90 ; use absolute coordinates
M83 ; extruder relative mode
M104 S210 ; set extruder temp
M140 S60 ; set bed temp
M190 S60 ; wait for bed temp
M109 S210 ; wait for extruder temp
G28 W ; home all without mesh bed level
G80 ; mesh bed leveling

G1 Z0.2 F720
G1 Y-3 F1000 ; go outside print area
G92 E0
G1 X60 E9 F1000 ; intro line
G1 X100 E12.5 F1000 ; intro line

G92 E0
M221 S95

; Don't change E values below. Excessive value can damage the printer.
M907 E430 ; set extruder motor current
G21 ; set units to millimeters
G90 ; use absolute coordinates
M83 ; use relative distances for extrusion
M900 K0.05 ; Filament gcode LA 1.5
M900 K30 ; Filament gcode LA 1.0
M107
;LAYER_CHANGE
;Z:0.2
;HEIGHT:0.2
;BEFORE_LAYER_CHANGE
G92 E0.0
;0.2


G1 E-.8 F2100
G1 Z.4 F720
;AFTER_LAYER_CHANGE
;0.2
G1 X85.78 Y71.946 F10800
G1 Z.2 F720
G1 E.8 F2100
M204 S800
;TYPE:Skirt/Brim
;WIDTH:0.42
G1 F1200
G3 X102.219 Y59.045 I39.312 J33.168 E0.65975
G1 X106.136 Y57.304 E.13438
G3 X111.410 Y55.542 I18.832 J47.594 E0.17444
M73 Q0 S158
G1 X115.587 Y54.58 E.13438
G3 X121.101 Y53.857 I9.420 J50.456 E0.17444
G1 X125.384 Y53.71 E.13438
G3 X145.811 Y58.120 I-0.412 J51.422 E0.65976
G1 X149.652 Y60.021 E.13438
G3 X154.377 Y62.955 I-24.618 J44.917 E0.17444
G1 X157.784 Y65.554 E.13438
G3 X161.862 Y69.335 I-32.574 J39.222 E0.17444
G1 X164.711 Y72.537 E.13438
G3 X170.798 Y81.905 I-39.818 J32.534 E0.35092
G1 X172.566 Y85.809 E.13438
G3 X174.364 Y91.071 I-47.611 J19.207 E0.17444
G1 X175.354 Y95.241 E.13438
G3 X176.273 Y106.374 I-50.382 J9.763 E0.35091
G1 X175.979 Y110.65 E.13438
G3 X173.547 Y121.553 I-50.950 J-5.642 E0.35092
G1 X171.995 Y125.549 E.13438
G3 X169.494 Y130.516 I-46.706 J-20.404 E0.17444
G1 X167.209 Y134.141 E.13438
G3 X163.806 Y138.540 I-42.213 J-29.139 E0.17443
G1 X160.87 Y141.663 E.13438
G3 X156.690 Y145.331 I-36.005 J-36.815 E0.17443
G1 X153.212 Y147.835 E.13438
G3 X143.269 Y152.927 I-28.151 J-42.716 E0.35092
G1 X139.204 Y154.285 E.13438
G3 X133.785 Y155.533 I-14.087 J-48.781 E0.17444
G1 X129.535 Y156.09 E.13438
G3 X123.977 Y156.281 I-4.532 J-50.928 E0.17444
G1 X119.699 Y156.017 E.13438
G3 X114.207 Y155.143 I5.378 J-51.488 E0.17444
G1 X110.059 Y154.067 E.13438
G3 X95.049 Y146.638 I14.934 J-49.052 E0.52740
G1 X91.677 Y143.992 E.13438
G3 X87.652 Y140.156 I33.385 J-39.060 E0.17444
G1 X84.847 Y136.915 E.13438
G3 X78.890 Y127.465 I40.148 J-31.911 E0.35091
G1 X77.175 Y123.537 E.13438
G3 X75.450 Y118.250 I47.999 J-18.586 E0.17443
G1 X74.516 Y114.067 E.13438
G3 X73.832 Y108.548 I50.422 J-9.051 E0.17443
G1 X73.714 Y104.264 E.13438
G3 X74.095 Y98.716 I51.248 J0.732 E0.17444
G1 X74.797 Y94.488 E.13438
G3 X78.264 Y83.868 I50.242 J10.526 E0.35092
G1 X80.191 Y80.04 E.13438
G3 X83.157 Y75.336 I44.783 J24.950 E0.17443
G1 X85.743 Y71.993 E.1325
M204 S1000
; printing object plant_saucer-95mm.stl id:0 copy 0
;WIPE_START
G1 F8640
G1 X87.652 Y69.844 E-.66364
G1 X87.946 Y69.548 E-.09635
;WIPE_END
G1 E-.04 F2100
G1 Z.6 F720
G1 X93.771 Y69.642 F10800
G1 Z.2 F720
G1 E.8 F2100
M204 S800
;TYPE:Perimeter
;WIDTH:0.419999
G1 F1200
G3 X86.529 Y77.689 I31.214 J35.374 E8.95393
G3 X93.726 Y69.681 I38.265 J27.151 E0.33831
M204 S1000
;WIPE_START
G1 F8640
G3 X96.263 Y67.585 I31.742 J35.837 E-0.76000
;WIPE_END
G1 E-.04 F2100
G1 Z.6 F720
G1 X90.439 Y137.665 F10800
G1 Z.2 F720
G1 E.8 F2100
M204 S800
G1 F1200
G3 X78.198 Y113.436 I34.599 J-32.687 E0.86310
M73 P0 R156
G3 X90.481 Y137.708 I46.801 J-8.440 E8.50347
M204 S1000
;WIPE_START
G1 F8640
G3 X88.303 Y135.241 I27.574 J-26.539 E-0.76001
;WIPE_END
G1 E-.04 F2100
G1 Z.6 F720
G1 X122.676 Y57.123 F10800
G1 Z.2 F720
G1 E.8 F2100
M204 S800
;TYPE:External perimeter
G1 F1200
G3 X85.914 Y77.253 I2.324 J47.877 E8.08268
M73 Q0 S157
G3 X122.616 Y57.127 I39.085 J27.747 E1.35811
M204 S1000
G1 X122.892 Y57.46 F10800
;WIPE_START
G1 F8640
G1 X124.013 Y57.077 E-.32278
G3 X125.907 Y57.080 I0.871 J47.772 E-0.43722
;WIPE_END
G1 E-.04 F2100
G1 Z.6 F720
G1 X160.971 Y74.654 F10800
G1 Z.2 F720
G1 E.8 F2100
M204 S800
;TYPE:Solid infill
;WIDTH:0.421099
G1 F1200
G2 X156.888 Y70.614 I-85.707 J82.536 E0.18064
G2 X153.690 Y67.908 I-30.484 J32.783 E0.13177
G1 X162.109 Y76.327 E.37439
G3 X163.563 Y78.316 I-35.290 J27.323 E0.07751
G1 X151.69 Y66.443 E.52799
G2 X150.109 Y65.397 I-19.851 J28.287 E0.05962
G1 X164.602 Y79.89 E.6445
G1 X165.44 Y81.263 E.05059
G1 X148.73 Y64.552 E.74313
G1 X147.494 Y63.851 E.0447
G1 X166.142 Y82.499 E.82931
G1 X166.743 Y83.635 E.04042
G1 X146.368 Y63.26 E.90611
G1 X145.299 Y62.726 E.03758
G1 X167.268 Y84.695 E.97699
G1 X167.734 Y85.696 E.0347
G1 X144.302 Y62.263 E1.04205
G1 X143.352 Y61.848 E.03259
G1 X168.152 Y86.649 E1.1029
G1 X168.532 Y87.564 E.03115
G1 X142.44 Y61.472 E1.16033
G1 X141.561 Y61.128 E.02968
G1 X168.872 Y88.438 E1.21452
G1 X169.174 Y89.275 E.02799
G1 X140.725 Y60.826 E1.26517
G1 X139.904 Y60.54 E.02734
G1 X169.462 Y90.098 E1.3145
G1 X169.722 Y90.892 E.02627
G1 X139.107 Y60.278 E1.36146
G1 X138.339 Y60.044 E.02525
G1 X169.954 Y91.66 E1.40596
G1 X170.174 Y92.415 E.02473
M73 P1 R156
M73 Q1 S157
G1 X137.589 Y59.829 E1.4491
G1 X136.852 Y59.627 E.02402
G1 X170.369 Y93.144 E1.49052
G1 X170.55 Y93.86 E.02324
M73 P1 R155
G1 X136.141 Y59.451 E1.53022
G1 X135.436 Y59.281 E.0228
G1 X170.717 Y94.562 E1.56898
G1 X170.866 Y95.246 E.02202
G1 X134.754 Y59.134 E1.60595
G1 X134.079 Y58.993 E.02169
G1 X171.007 Y95.922 E1.64225
G1 X171.129 Y96.579 E.02101
G1 X133.421 Y58.87 E1.67695
G1 X132.771 Y58.755 E.02076
G1 X171.247 Y97.231 E1.71109
G1 X171.346 Y97.865 E.02016
G1 X132.135 Y58.654 E1.74376
G1 X131.506 Y58.56 E.01998
G1 X171.442 Y98.496 E1.77597
G1 X171.52 Y99.109 E.01945
G1 X130.891 Y58.479 E1.80684
G1 X130.281 Y58.404 E.01932
G1 X171.596 Y99.72 E1.83734
G1 X171.658 Y100.316 E.01885
M73 Q1 S156
G1 X129.684 Y58.343 E1.86659
G1 X129.091 Y58.284 E.01876
G1 X171.715 Y100.908 E1.89553
G1 X171.761 Y101.489 E.01834
G1 X128.512 Y58.24 E1.92333
G1 X127.933 Y58.196 E.01825
G1 X171.8 Y102.063 E1.95081
G1 X171.83 Y102.627 E.01776
G1 X127.375 Y58.172 E1.97695
G1 X126.818 Y58.15 E.01754
G1 X171.855 Y103.187 E2.00285
G1 X171.879 Y103.746 E.01759
G1 X126.26 Y58.128 E2.0287
G1 X125.717 Y58.12 E.01707
G1 X171.886 Y104.288 E2.05317
G1 X171.894 Y104.831 E.01705
G1 X125.181 Y58.118 E2.07737
G1 X124.644 Y58.116 E.01687
G1 X171.891 Y105.363 E2.10112
G1 X171.884 Y105.89 E.01659
G1 X124.108 Y58.114 E2.12466
G1 X123.588 Y58.129 E.01635
M73 P1 R154
G1 X171.873 Y106.415 E2.1473
G1 X171.852 Y106.928 E.01617
G1 X123.071 Y58.147 E2.16936
G1 X122.559 Y58.17 E.01612
G1 X171.831 Y107.442 E2.19119
G1 X171.8 Y107.946 E.01587
G1 X122.055 Y58.201 E2.2122
G1 X121.551 Y58.232 E.01587
G1 X171.765 Y108.446 E2.23308
G1 X171.729 Y108.944 E.01571
G1 X121.058 Y58.274 E2.25337
G1 X120.567 Y58.318 E.0155
G1 X171.682 Y109.432 E2.27312
G1 X171.635 Y109.92 E.01541
M73 Q1 S155
G1 X120.079 Y58.364 E2.29274
G1 X119.6 Y58.42 E.01516
M73 P2 R154
M73 Q2 S155
G1 X171.581 Y110.401 E2.31164
G1 X171.522 Y110.877 E.01508
G1 X119.121 Y58.476 E2.33031
G1 X118.649 Y58.539 E.01498
G1 X171.463 Y111.353 E2.34869
G1 X171.393 Y111.817 E.01477
G1 X118.182 Y58.607 E2.36632
G1 X117.715 Y58.674 E.01484
G1 X171.32 Y112.28 E2.38389
G1 X171.248 Y112.743 E.01473
G1 X117.257 Y58.751 E2.40105
G1 X116.801 Y58.83 E.01455
G1 X171.17 Y113.199 E2.41781
G1 X171.088 Y113.652 E.01448
G1 X116.346 Y58.91 E2.43444
G1 X115.901 Y58.999 E.01428
M73 P2 R153
G1 X171.003 Y114.101 E2.45044
G1 X170.91 Y114.544 E.01421
G1 X115.456 Y59.089 E2.46612
G1 X115.013 Y59.181 E.01423
G1 X170.818 Y114.986 E2.48171
G1 X170.72 Y115.424 E.01409
G1 X114.578 Y59.281 E2.49671
G1 X114.143 Y59.381 E.01403
G1 X170.618 Y115.856 E2.51148
G1 X170.515 Y116.288 E.01397
G1 X113.712 Y59.485 E2.5261
G1 X113.287 Y59.595 E.0138
G1 X170.407 Y116.714 E2.54016
G1 X170.294 Y117.136 E.01374
M73 Q2 S154
G1 X112.862 Y59.705 E2.55404
G1 X112.442 Y59.819 E.01371
G1 X170.181 Y117.559 E2.56775
G1 X170.062 Y117.975 E.0136
G1 X112.027 Y59.939 E2.58091
G1 X111.612 Y60.059 E.01358
G1 X169.94 Y118.387 E2.59393
G1 X169.818 Y118.8 E.01353
G1 X111.201 Y60.182 E2.60677
G1 X110.795 Y60.312 E.01338
G1 X169.69 Y119.206 E2.61909
G1 X169.558 Y119.609 E.01334
G1 X110.39 Y60.441 E2.63127
G1 X109.988 Y60.574 E.01331
G1 X169.426 Y120.012 E2.6433
G1 X169.289 Y120.41 E.01322
M73 P3 R152
G1 X109.591 Y60.712 E2.65482
G1 X109.195 Y60.851 E.0132
M73 Q3 S154
G1 X169.148 Y120.804 E2.66618
G1 X169.008 Y121.198 E.01316
G1 X108.801 Y60.992 E2.67742
G1 X108.414 Y61.139 E.01303
G1 X168.862 Y121.587 E2.68818
G1 X168.712 Y121.973 E.013
G1 X108.027 Y61.287 E2.69875
G1 X107.641 Y61.436 E.013
G1 X168.563 Y122.358 E2.70924
G1 X168.409 Y122.739 E.01293
M73 Q3 S153
G1 X107.262 Y61.592 E2.71926
G1 X106.884 Y61.748 E.01288
G1 X168.251 Y123.116 E2.72907
G1 X168.093 Y123.492 E.01284
G1 X106.506 Y61.905 E2.73884
G1 X106.135 Y62.07 E.01274
G1 X167.932 Y123.867 E2.74816
G1 X167.765 Y124.235 E.01271
G1 X105.765 Y62.234 E2.75721
G1 X105.395 Y62.399 E.01274
G1 X167.599 Y124.603 E2.76626
G1 X167.431 Y124.97 E.01269
G1 X105.032 Y62.571 E2.77493
G1 X104.67 Y62.744 E.01261
M73 P3 R151
G1 X167.256 Y125.33 E2.78324
G1 X167.081 Y125.69 E.01258
G1 X104.309 Y62.917 E2.79155
G1 X103.952 Y63.096 E.01253
G1 X166.906 Y126.049 E2.79961
G1 X166.724 Y126.402 E.01248
G1 X103.599 Y63.277 E2.80723
G1 X103.245 Y63.458 E.0125
G1 X166.541 Y126.754 E2.81482
G1 X166.357 Y127.105 E.01247
G1 X102.895 Y63.643 E2.82224
G1 X102.549 Y63.832 E.01239
G1 X166.169 Y127.452 E2.82924
G1 X165.978 Y127.796 E.01237
M73 Q3 S152
G1 X102.204 Y64.021 E2.83611
G1 X101.859 Y64.212 E.01237
G1 X165.787 Y128.139 E2.84291
G1 X165.593 Y128.48 E.01233
M73 P4 R151
M73 Q4 S152
G1 X101.522 Y64.409 E2.8493
G1 X101.184 Y64.606 E.0123
G1 X165.394 Y128.816 E2.85547
G1 X165.195 Y129.152 E.01227
G1 X100.846 Y64.803 E2.86164
G1 X100.515 Y65.007 E.01222
G1 X164.995 Y129.487 E2.86747
G1 X164.788 Y129.815 E.01219
G1 X100.186 Y65.212 E2.87295
G1 X99.856 Y65.417 E.01221
M73 P4 R150
G1 X164.582 Y130.143 E2.87843
G1 X164.375 Y130.471 E.01219
G1 X99.53 Y65.626 E2.8837
G1 X99.208 Y65.839 E.01214
G1 X164.162 Y130.793 E2.88858
G1 X163.948 Y131.113 E.01212
G1 X98.886 Y66.051 E2.89337
G1 X98.565 Y66.266 E.01212
G1 X163.733 Y131.434 E2.89808
G1 X163.516 Y131.751 E.0121
G1 X98.251 Y66.486 E2.9024
G1 X97.936 Y66.706 E.01208
M73 Q4 S151
G1 X163.294 Y132.064 E2.90652
G1 X163.071 Y132.377 E.01206
G1 X97.621 Y66.926 E2.91064
G1 X97.313 Y67.153 E.01203
G1 X162.849 Y132.689 E2.91443
G1 X162.619 Y132.994 E.01201
G1 X97.006 Y67.381 E2.91788
G1 X96.699 Y67.609 E.01202
G1 X162.39 Y133.299 E2.92133
G1 X162.16 Y133.605 E.01201
G1 X96.396 Y67.84 E2.9246
G1 X96.096 Y68.076 E.01198
G1 X161.926 Y133.905 E2.92749
G1 X161.688 Y134.203 E.01197
M73 P4 R149
G1 X95.797 Y68.311 E2.93027
G1 X95.501 Y68.55 E.01196
G1 X161.451 Y134.5 E2.93286
G1 X161.212 Y134.796 E.01196
M73 P5 R149
G1 X95.208 Y68.792 E2.93526
G1 X94.915 Y69.033 E.01195
M73 Q5 S151
G1 X160.968 Y135.086 E2.93743
G1 X160.723 Y135.377 E.01194
G1 X94.622 Y69.275 E2.9396
G1 X94.335 Y69.523 E.01192
M73 Q5 S150
G1 X160.479 Y135.667 E2.94148
G1 X160.228 Y135.951 E.01191
G1 X94.05 Y69.773 E2.94298
G1 X93.765 Y70.023 E.01192
G1 X159.976 Y136.234 E2.94445
G1 X159.724 Y136.517 E.01191
G1 X93.483 Y70.276 E2.94579
G1 X93.206 Y70.533 E.0119
G1 X159.468 Y136.796 E2.94676
G1 X159.209 Y137.071 E.0119
G1 X92.928 Y70.79 E2.94758
G1 X92.651 Y71.048 E.0119
G1 X158.95 Y137.347 E2.94839
G1 X158.69 Y137.622 E.0119
M73 P5 R148
G1 X92.38 Y71.312 E2.94884
G1 X92.11 Y71.577 E.01189
G1 X158.422 Y137.889 E2.94896
G1 X158.155 Y138.156 E.01189
G1 X91.84 Y71.842 E2.94908
G1 X91.574 Y72.11 E.01189
G1 X157.887 Y138.424 E2.94901
G1 X157.619 Y138.69 E.01189
G1 X91.311 Y72.382 E2.94875
G1 X91.048 Y72.654 E.01189
G1 X157.345 Y138.951 E2.94826
G1 X157.071 Y139.212 E.0119
M73 Q5 S149
G1 X90.787 Y72.928 E2.94771
G1 X90.531 Y73.207 E.0119
G1 X156.795 Y139.47 E2.94679
G1 X156.513 Y139.724 E.01191
G1 X90.276 Y73.486 E2.94565
G1 X90.02 Y73.766 E.0119
G1 X156.232 Y139.978 E2.9445
G1 X155.951 Y140.231 E.01191
M73 P6 R148
G1 X89.771 Y74.051 E2.94311
G1 X89.523 Y74.338 E.01192
M73 Q6 S149
G1 X155.663 Y140.478 E2.94133
G1 X155.375 Y140.724 E.01193
G1 X89.274 Y74.624 E2.93953
G1 X89.029 Y74.914 E.01193
M73 P6 R147
G1 X155.086 Y140.971 E2.93761
G3 X154.793 Y141.213 I-4.606 J-5.278 E0.01195
G1 X88.788 Y75.208 E2.93531
G1 X88.548 Y75.502 E.01195
G1 X154.497 Y141.452 E2.93285
G1 X154.202 Y141.691 E.01196
G1 X88.307 Y75.796 E2.9304
G1 X88.074 Y76.098 E.01199
G1 X153.904 Y141.928 E2.92756
G1 X153.601 Y142.16 E.012
G1 X87.84 Y76.399 E2.92444
G1 X87.607 Y76.701 E.01199
M73 Q6 S148
G1 X153.298 Y142.391 E2.92132
G1 X152.994 Y142.623 E.012
G1 X87.378 Y77.007 E2.918
G1 X87.153 Y77.316 E.01204
G1 X152.685 Y142.848 E2.91429
G1 X152.374 Y143.072 E.01205
G1 X86.927 Y77.625 E2.9105
G1 X86.703 Y77.936 E.01205
G1 X152.063 Y143.296 E2.90663
G1 X151.749 Y143.517 E.01207
G1 X86.485 Y78.252 E2.90237
G1 X86.266 Y78.569 E.01209
G1 X151.431 Y143.733 E2.89791
G1 X151.112 Y143.95 E.01211
M73 P6 R146
G1 X86.048 Y78.886 E2.89346
G1 X85.837 Y79.209 E.01215
G1 X150.793 Y144.165 E2.88866
G1 X150.467 Y144.374 E.01218
G1 X85.626 Y79.533 E2.88353
G1 X85.416 Y79.858 E.01216
G1 X150.141 Y144.583 E2.87839
G1 X149.815 Y144.791 E.01218
G1 X85.21 Y80.186 E2.87306
G1 X85.007 Y80.518 E.01223
M73 P7 R146
G1 X149.483 Y144.994 E2.86732
G1 X149.149 Y145.195 E.01225
M73 Q7 S147
G1 X84.804 Y80.85 E2.8615
G1 X84.603 Y81.184 E.01226
G1 X148.815 Y145.396 E2.85558
G1 X148.478 Y145.594 E.01229
G1 X84.408 Y81.524 E2.84925
G1 X84.213 Y81.864 E.01232
G1 X148.136 Y145.787 E2.84273
G1 X147.794 Y145.98 E.01234
G1 X84.018 Y82.203 E2.83621
G1 X83.83 Y82.551 E.01242
G1 X147.451 Y146.172 E2.82928
G1 X147.102 Y146.357 E.01244
G1 X83.643 Y82.899 E2.82205
G1 X83.456 Y83.246 E.01242
M73 P7 R145
G1 X146.752 Y146.542 E2.81482
G1 X146.402 Y146.727 E.01244
G1 X83.275 Y83.6 E2.80733
G1 X83.096 Y83.956 E.01252
G1 X146.045 Y146.905 E2.79942
G1 X145.687 Y147.082 E.01255
G1 X82.917 Y84.311 E2.79147
G1 X82.742 Y84.671 E.01258
G1 X145.33 Y147.259 E2.78334
G1 X144.966 Y147.43 E.01264
G1 X82.571 Y85.035 E2.77477
G1 X82.4 Y85.399 E.01264
M73 Q7 S146
G1 X144.6 Y147.599 E2.76609
G1 X144.234 Y147.768 E.01267
G1 X82.232 Y85.766 E2.7573
G1 X82.069 Y86.138 E.01277
G1 X143.864 Y147.932 E2.74806
G1 X143.489 Y148.093 E.01281
G1 X81.907 Y86.51 E2.73864
G1 X81.745 Y86.884 E.01279
G1 X143.115 Y148.253 E2.72916
G1 X142.737 Y148.411 E.01286
G1 X81.591 Y87.265 E2.71922
G1 X81.437 Y87.645 E.01292
G1 X142.354 Y148.562 E2.70903
G1 X141.971 Y148.714 E.01296
M73 P8 R145
G1 X81.283 Y88.026 E2.69884
G1 X81.138 Y88.416 E.01308
M73 P8 R144
M73 Q8 S146
G1 X141.586 Y148.864 E2.68817
G1 X141.194 Y149.007 E.01312
G1 X80.993 Y88.806 E2.6772
G1 X80.848 Y89.195 E.01308
G1 X140.802 Y149.15 E2.66623
G1 X140.409 Y149.291 E.01314
G1 X80.711 Y89.593 E2.65484
G1 X80.575 Y89.992 E.01325
G1 X140.008 Y149.425 E2.64307
G1 X139.607 Y149.559 E.01329
G1 X80.438 Y90.39 E2.6313
G1 X80.31 Y90.797 E.01341
M73 Q8 S145
G1 X139.206 Y149.692 E2.61913
G1 X138.795 Y149.817 E.01348
