; generated by PrusaSlicer 2.5.0+win64 on 2022-11-04 at 11:31:27 UTC
; Postprocessed by [ArcWelder](https://github.com/FormerLurker/ArcWelderLib)
; Copyright(C) 2021 - Brad Hochgesang
; Version: 1.2.0, Branch: HEAD, BuildDate: 2021-11-21T20:25:43Z
; resolution=0.05mm
; path_tolerance=5.0%
; max_radius=9999.00mm
; default_xyz_precision=3
; default_e_precision=5
; extrusion_rate_variance_percent=5.0%





; 

; external perimeters extrusion width = 0.45mm
; perimeters extrusion width = 0.45mm
; infill extrusion width = 0.45mm
; solid infill extrusion width = 0.45mm
; top infill extrusion width = 0.40mm
; first layer extrusion width = 0.42mm

M73 P0 R157
M73 Q0 S159
M201 X1000 Y1000 Z200 E5000 ; sets maximum accelerations, mm/sec^2
M203 X200 Y200 Z12 E120 ; sets maximum feedrates, mm / sec
M204 P1250 R1250 T1250 ; sets acceleration (P, T) and retract acceleration (R), mm/sec^2
M205 X8.00 Y8.00 Z0.40 E4.50 ; sets the jerk limits, mm/sec
M205 S0 T0 ; sets the minimum extruding and travel feed rate, mm/sec
M107
;TYPE:Custom
M862.3 P "MK3S" ; printer model check
M862.1 P0.4 ; nozzle diameter check
M115 U3.11.0 ; tell printer latest fw version
G90 ; use absolute coordinates
M83 ; extruder relative mode
M104 S210 ; set extruder temp
M140 S60 ; set bed temp
M190 S60 ; wait for bed temp
M109 S210 ; wait for extruder temp
G28 W ; home all without mesh bed level
G80 ; mesh bed leveling

G1 Z0.2 F720
G1 Y-3 F1000 ; go outside print area
G92 E0
G1 X60 E9 F1000 ; intro line
G1 X100 E12.5 F1000 ; intro line

G92 E0
M221 S95

; Don't change E values below. Excessive value can damage the printer.
M907 E430 ; set extruder motor current
G21 ; set units to millimeters
G90 ; use absolute coordinates
M83 ; use relative distances for extrusion
M900 K0.05 ; Filament gcode LA 1.5
M900 K30 ; Filament gcode LA 1.0
M107
;LAYER_CHANGE
;Z:0.2
;HEIGHT:0.2
;BEFORE_LAYER_CHANGE
G92 E0.0
;0.2


G1 E-.8 F2100
G1 Z.4 F720
;AFTER_LAYER_CHANGE
;0.2
G1 X85.671 Y72.076 F10800
G1 Z.2 F720
M73 Q0 S158
G1 E.8 F2100
M204 S800
;TYPE:Skirt/Brim
;WIDTH:0.42
G1 F1200
G3 X106.858 Y57.036 I39.226 J32.815 E0.82367
G3 X132.007 Y155.799 I18.151 J47.961 E5.41304
G1 X128.774 Y156.152 E.10196
G3 X85.634 Y72.123 I-3.775 J-51.150 E3.76333
M204 S1000
; printing object plant_saucer-95mm.stl id:0 copy 0
;WIPE_START
G1 F8640
G1 X87.361 Y70.157 E-.60435
G1 X87.831 Y69.674 E-.15565
;WIPE_END
G1 E-.04 F2100
G1 Z.6 F720
G1 X78.193 Y99.208 F10800
G1 Z.2 F720
G1 E.8 F2100
M204 S800
;TYPE:Perimeter
;WIDTH:0.419999
G1 F1200
G3 X128.526 Y152.047 I46.817 J5.796 E6.67758
M73 P0 R156
G3 X78.185 Y99.268 I-3.533 J-47.027 E2.61429
M204 S1000
;WIPE_START
G1 F8640
G3 X78.692 Y96.017 I32.872 J3.461 E-0.76000
;WIPE_END
G1 E-.04 F2100
G1 Z.6 F720
G1 X107.87 Y149.357 F10800
G1 Z.2 F720
G1 E.8 F2100
M204 S800
G1 F1200
G3 X126.186 Y152.541 I17.145 J-44.351 E8.78139
G3 X107.926 Y149.378 I-1.196 J-47.382 E0.58477
M204 S1000
;WIPE_START
G1 F8640
G1 X105.441 Y148.347 E-.62118
G1 X104.899 Y148.087 E-.13882
;WIPE_END
G1 E-.04 F2100
G1 Z.6 F720
G1 X84.525 Y79.347 F10800
G1 Z.2 F720
G1 E.8 F2100
M204 S800
;TYPE:External perimeter
G1 F1200
G3 X103.132 Y147.654 I40.481 J25.661 E6.94472
M73 Q0 S157
G3 X84.492 Y79.398 I21.850 J-42.640 E2.49572
M204 S1000
G1 X84.924 Y79.362 F10800
;WIPE_START
G1 F8640
G1 X85.396 Y77.998 E-.38462
G1 X86.345 Y76.678 E-.37538
;WIPE_END
G1 E-.04 F2100
G1 Z.6 F720
G1 X160.999 Y74.685 F10800
G1 Z.2 F720
G1 E.8 F2100
M204 S800
;TYPE:Solid infill
;WIDTH:0.421078
G1 F1200
G1 X157.734 Y71.419 E.14522
G2 X153.729 Y67.949 I-30.603 J31.275 E0.16672
G1 X162.06 Y76.28 E.37046
G3 X163.541 Y78.296 I-19.576 J15.933 E0.07867
G1 X151.726 Y66.481 E.52537
G2 X150.118 Y65.408 I-11.241 J15.104 E0.06082
G1 X164.575 Y79.865 E.6429
G3 X165.416 Y81.241 I-13.021 J8.904 E0.05072
G1 X148.743 Y64.567 E.74145
G2 X147.526 Y63.885 I-7.523 J11.998 E0.04390
G1 X166.147 Y82.506 E.82807
G1 X166.718 Y83.612 E.03915
G1 X146.356 Y63.25 E.90546
G1 X145.325 Y62.754 E.036
G1 X167.275 Y84.703 E.97607
G1 X167.714 Y85.678 E.03362
G1 X144.293 Y62.257 E1.04149
G1 X143.368 Y61.867 E.03157
G1 X168.154 Y86.652 E1.10218
G1 X168.512 Y87.545 E.03025
G1 X142.444 Y61.477 E1.15922
G1 X141.575 Y61.143 E.02927
G1 X168.858 Y88.426 E1.21323
G1 X169.174 Y89.277 E.02854
G1 X140.734 Y60.837 E1.26468
G1 X139.897 Y60.534 E.028
G1 X169.444 Y90.082 E1.31395
G1 X169.715 Y90.887 E.02672
G1 X139.123 Y60.296 E1.36037
G1 X138.35 Y60.057 E.02545
G1 X169.946 Y91.654 E1.40505
G1 X170.156 Y92.398 E.02431
M73 P1 R155
M73 Q1 S157
G1 X137.586 Y59.827 E1.44835
G1 X136.868 Y59.645 E.02328
G1 X170.365 Y93.142 E1.48957
G1 X170.543 Y93.855 E.0231
G1 X136.151 Y59.462 E1.52938
G1 X135.433 Y59.28 E.02327
G1 X170.701 Y94.548 E1.56831
G1 X170.859 Y95.24 E.02235
G1 X134.763 Y59.144 E1.60515
G1 X134.093 Y59.009 E.0215
G1 X171.003 Y95.919 E1.64136
G1 X171.118 Y96.568 E.02073
G1 X133.422 Y58.873 E1.67626
G1 X132.776 Y58.761 E.02063
G1 X171.232 Y97.218 E1.71011
G1 X171.347 Y97.867 E.02073
G1 X132.146 Y58.666 E1.7432
G1 X131.516 Y58.571 E.02002
G1 X171.432 Y98.487 E1.77498
G1 X171.508 Y99.098 E.01938
G1 X130.887 Y58.476 E1.80639
G1 X130.289 Y58.414 E.01889
G1 X171.585 Y99.71 E1.83636
G1 X171.662 Y100.321 E.01938
M73 Q1 S156
G1 X129.695 Y58.354 E1.86619
G1 X129.101 Y58.295 E.01878
G1 X171.705 Y100.9 E1.89457
G1 X171.749 Y101.478 E.01823
G1 X128.506 Y58.235 E1.92292
G1 X127.943 Y58.207 E.01772
G1 X171.792 Y102.056 E1.94988
G1 X171.835 Y102.634 E.01823
G1 X127.381 Y58.179 E1.97684
G1 X126.818 Y58.151 E.01772
G1 X171.851 Y103.184 E2.00255
G1 X171.864 Y103.733 E.01725
G1 X126.255 Y58.123 E2.02818
G1 X125.716 Y58.119 E.01695
G1 X171.878 Y104.281 E2.05276
G1 X171.892 Y104.829 E.01725
G1 X125.181 Y58.119 E2.07715
G1 X124.646 Y58.119 E.01682
M73 P1 R154
G1 X171.887 Y105.36 E2.10073
G1 X171.874 Y105.881 E.01641
G1 X124.111 Y58.119 E2.12393
G1 X123.589 Y58.131 E.01644
G1 X171.861 Y106.403 E2.14659
G1 X171.848 Y106.925 E.01641
G1 X123.079 Y58.156 E2.16867
G1 X122.57 Y58.182 E.01604
G1 X171.83 Y107.442 E2.19051
G1 X171.792 Y107.939 E.01569
G1 X122.06 Y58.207 E2.21151
G1 X121.551 Y58.233 E.01604
G1 X171.755 Y108.437 E2.2325
G1 X171.718 Y108.934 E.01569
G1 X121.062 Y58.279 E2.25257
G1 X120.576 Y58.327 E.01536
G1 X171.681 Y109.432 E2.27253
G1 X171.632 Y109.918 E.01536
M73 Q1 S155
G1 X120.09 Y58.376 E2.29198
G1 X119.604 Y58.425 E.01536
M73 P2 R154
M73 Q2 S155
G1 X171.572 Y110.393 E2.31095
G1 X171.513 Y110.868 E.01506
G1 X119.12 Y58.475 E2.32982
G1 X118.655 Y58.546 E.01478
G1 X171.453 Y111.343 E2.34783
G1 X171.393 Y111.818 E.01506
G1 X118.191 Y58.616 E2.36585
G1 X117.726 Y58.686 E.01478
G1 X171.321 Y112.281 E2.38328
G1 X171.241 Y112.735 E.01452
G1 X117.261 Y58.756 E2.40039
G1 X116.799 Y58.828 E.01471
M73 P2 R153
G1 X171.16 Y113.19 E2.41737
G1 X171.08 Y113.644 E.01452
G1 X116.354 Y58.918 E2.43359
G1 X115.909 Y59.008 E.01427
G1 X171 Y114.099 E2.44981
G1 X170.909 Y114.543 E.01424
G1 X115.464 Y59.098 E2.46554
G1 X115.019 Y59.188 E.01427
G1 X170.809 Y114.978 E2.4809
G1 X170.71 Y115.413 E.01404
G1 X114.575 Y59.278 E2.49626
G1 X114.148 Y59.386 E.01384
G1 X170.611 Y115.849 E2.51082
G1 X170.511 Y116.284 E.01404
G1 X113.722 Y59.495 E2.52535
G1 X113.295 Y59.603 E.01383
M73 Q2 S154
G1 X170.406 Y116.714 E2.53961
G1 X170.288 Y117.131 E.01363
G1 X112.869 Y59.712 E2.55335
G1 X112.443 Y59.82 E.01383
G1 X170.171 Y117.548 E2.56708
G1 X170.054 Y117.966 E.01363
G1 X112.028 Y59.94 E2.5803
G1 X111.619 Y60.066 E.01345
G1 X169.936 Y118.383 E2.59325
G1 X169.819 Y118.8 E.01363
G1 X111.211 Y60.193 E2.6062
G1 X110.802 Y60.319 E.01345
G1 X169.685 Y119.202 E2.61844
G1 X169.551 Y119.602 E.01328
M73 P2 R152
G1 X110.393 Y60.445 E2.63063
G1 X109.988 Y60.574 E.01338
G1 X169.416 Y120.002 E2.64268
G1 X169.282 Y120.403 E.01328
M73 P3 R152
G1 X109.596 Y60.717 E2.65414
G1 X109.204 Y60.859 E.01312
M73 Q3 S154
G1 X169.147 Y120.803 E2.66559
G1 X169.006 Y121.197 E.01315
G1 X108.812 Y61.002 E2.67675
G1 X108.419 Y61.145 E.01312
G1 X168.855 Y121.581 E2.68749
G1 X168.705 Y121.965 E.01297
G1 X108.027 Y61.288 E2.69822
G1 X107.645 Y61.44 E.01295
G1 X168.554 Y122.349 E2.70853
G1 X168.403 Y122.733 E.01297
M73 Q3 S153
G1 X107.268 Y61.598 E2.71856
G1 X106.892 Y61.757 E.01284
G1 X168.252 Y123.117 E2.72859
G1 X168.09 Y123.489 E.01278
G1 X106.516 Y61.915 E2.7381
G1 X106.14 Y62.074 E.01284
G1 X167.924 Y123.858 E2.74744
G1 X167.757 Y124.226 E.01271
G1 X105.764 Y62.233 E2.75677
G1 X105.401 Y62.404 E.01263
G1 X167.591 Y124.595 E2.76552
G1 X167.425 Y124.963 E.01271
M73 P3 R151
G1 X105.04 Y62.578 E2.77418
G1 X104.679 Y62.752 E.0126
G1 X167.259 Y125.332 E2.78284
G1 X167.078 Y125.686 E.0125
G1 X104.318 Y62.926 E2.79085
G1 X103.957 Y63.1 E.0126
G1 X166.897 Y126.04 E2.79885
G1 X166.715 Y126.393 E.01249
G1 X103.596 Y63.274 E2.80682
G1 X103.25 Y63.462 E.0124
G1 X166.534 Y126.747 E2.81416
G1 X166.353 Y127.1 E.01249
G1 X102.904 Y63.651 E2.82149
G1 X102.557 Y63.84 E.0124
M73 Q3 S152
G1 X166.171 Y127.453 E2.82878
G1 X165.975 Y127.792 E.01231
G1 X102.211 Y64.028 E2.83548
G1 X101.865 Y64.217 E.0124
G1 X165.779 Y128.131 E2.84217
G1 X165.583 Y128.47 E.01231
M73 P4 R151
M73 Q4 S152
G1 X101.52 Y64.407 E2.8488
G1 X101.188 Y64.609 E.01223
G1 X165.388 Y128.809 E2.85486
G1 X165.192 Y129.148 E.01231
G1 X100.856 Y64.812 E2.86091
G1 X100.524 Y65.015 E.01223
M73 P4 R150
G1 X164.995 Y129.486 E2.86691
G1 X164.785 Y129.811 E.01216
G1 X100.192 Y65.218 E2.87234
G1 X99.86 Y65.421 E.01223
G1 X164.575 Y130.136 E2.87776
G1 X164.365 Y130.46 E.01216
G1 X99.53 Y65.625 E2.88314
G1 X99.212 Y65.842 E.0121
G1 X164.155 Y130.785 E2.88795
G1 X163.945 Y131.11 E.01216
G1 X98.894 Y66.058 E2.89276
G1 X98.576 Y66.275 E.0121
G1 X163.735 Y131.434 E2.89753
G1 X163.511 Y131.746 E.01205
M73 Q4 S151
G1 X98.258 Y66.492 E2.90173
G1 X97.94 Y66.709 E.0121
G1 X163.287 Y132.057 E2.90592
G1 X163.064 Y132.368 E.01205
G1 X97.622 Y66.926 E2.91011
G1 X97.317 Y67.156 E.012
G1 X162.84 Y132.679 E2.91369
G1 X162.616 Y132.99 E.01205
G1 X97.013 Y67.387 E2.91728
G1 X96.709 Y67.617 E.012
G1 X162.393 Y133.301 E2.92086
G1 X162.156 Y133.599 E.01197
M73 P4 R149
G1 X96.405 Y67.848 E2.92387
G1 X96.1 Y68.078 E.012
G1 X161.919 Y133.897 E2.92685
G1 X161.682 Y134.194 E.01197
G1 X95.796 Y68.309 E2.92983
G1 X95.504 Y68.551 E.01194
G1 X161.444 Y134.492 E2.93228
G1 X161.207 Y134.789 E.01197
M73 P5 R149
G1 X95.213 Y68.795 E2.93466
G1 X94.922 Y69.039 E.01194
M73 Q5 S151
G1 X160.97 Y135.087 E2.93704
G1 X160.722 Y135.374 E.01192
G1 X94.631 Y69.283 E2.93894
G1 X94.34 Y69.527 E.01194
M73 Q5 S150
G1 X160.471 Y135.658 E2.94072
G1 X160.22 Y135.942 E.01191
G1 X94.05 Y69.771 E2.9425
G1 X93.769 Y70.025 E.01191
G1 X159.97 Y136.226 E2.94386
G1 X159.719 Y136.51 E.01191
G1 X93.491 Y70.282 E2.94504
G1 X93.214 Y70.54 E.0119
G1 X159.468 Y136.794 E2.94623
G1 X159.209 Y137.07 E.0119
G1 X92.936 Y70.797 E2.94704
G1 X92.659 Y71.055 E.0119
M73 P5 R148
G1 X158.945 Y137.34 E2.94763
G1 X158.681 Y137.611 E.01189
G1 X92.382 Y71.312 E2.94822
G1 X92.111 Y71.577 E.01189
G1 X158.417 Y137.882 E2.94849
G1 X158.153 Y138.153 E.01189
G1 X91.847 Y71.847 E2.94849
G1 X91.583 Y72.118 E.01189
G1 X157.889 Y138.423 E2.94849
G1 X157.618 Y138.688 E.01189
G1 X91.319 Y72.389 E2.94822
G1 X91.055 Y72.66 E.01189
G1 X157.341 Y138.945 E2.94763
G1 X157.064 Y139.203 E.0119
M73 Q5 S149
G1 X90.791 Y72.93 E2.94704
G1 X90.532 Y73.206 E.0119
G1 X156.786 Y139.46 E2.94623
G1 X156.509 Y139.718 E.0119
G1 X90.281 Y73.49 E2.94504
G1 X90.031 Y73.774 E.01191
G1 X156.231 Y139.975 E2.94386
G1 X156.03 Y140.162 E.00863
M73 P6 R148
G1 X155.95 Y140.229 E.00328
G1 X89.78 Y74.058 E2.9425
G1 X89.529 Y74.342 E.01191
M73 Q6 S149
G1 X155.66 Y140.473 E2.94072
G1 X155.369 Y140.717 E.01194
M73 P6 R147
G1 X89.278 Y74.626 E2.93894
G1 X89.03 Y74.913 E.01192
G1 X155.078 Y140.961 E2.93704
G1 X154.787 Y141.205 E.01194
G1 X88.793 Y75.21 E2.93466
G1 X88.556 Y75.508 E.01197
G1 X154.496 Y141.449 E2.93228
G1 X154.204 Y141.691 E.01194
G1 X88.318 Y75.806 E2.92983
G1 X88.081 Y76.103 E.01197
G1 X153.9 Y141.922 E2.92685
G1 X153.595 Y142.152 E.012
M73 Q6 S148
G1 X87.844 Y76.401 E2.92387
G1 X87.607 Y76.699 E.01197
G1 X153.291 Y142.383 E2.92086
G1 X152.987 Y142.613 E.012
G1 X87.384 Y77.01 E2.91728
G1 X87.16 Y77.321 E.01205
G1 X152.683 Y142.844 E2.91369
G1 X152.378 Y143.074 E.012
G1 X86.936 Y77.632 E2.91011
G1 X86.713 Y77.943 E.01205
G1 X152.06 Y143.291 E2.90592
G1 X151.742 Y143.508 E.0121
G1 X86.489 Y78.254 E2.90173
G1 X86.265 Y78.565 E.01205
M73 P6 R146
G1 X151.424 Y143.725 E2.89753
G1 X151.106 Y143.941 E.0121
G1 X86.055 Y78.89 E2.89276
G1 X85.845 Y79.215 E.01216
G1 X150.788 Y144.158 E2.88795
G1 X150.47 Y144.375 E.0121
G1 X85.635 Y79.539 E2.88314
G1 X85.425 Y79.864 E.01216
G1 X150.14 Y144.579 E2.87777
G1 X149.808 Y144.782 E.01223
G1 X85.215 Y80.189 E2.87234
G1 X85.005 Y80.514 E.01216
M73 P7 R146
M73 Q6 S147
G1 X149.476 Y144.985 E2.86691
G1 X149.144 Y145.188 E.01223
M73 Q7 S147
G1 X84.808 Y80.852 E2.86091
G1 X84.612 Y81.191 E.01231
G1 X148.812 Y145.391 E2.85486
G1 X148.48 Y145.593 E.01223
G1 X84.417 Y81.53 E2.8488
G1 X84.221 Y81.869 E.01231
G1 X148.135 Y145.783 E2.84217
G1 X147.789 Y145.972 E.0124
G1 X84.025 Y82.208 E2.83548
G1 X83.829 Y82.547 E.01231
G1 X147.443 Y146.16 E2.82879
G1 X147.096 Y146.349 E.0124
M73 P7 R145
G1 X83.647 Y82.9 E2.8215
G1 X83.466 Y83.253 E.01249
G1 X146.75 Y146.538 E2.81416
G1 X146.404 Y146.726 E.0124
G1 X83.285 Y83.607 E2.80682
G1 X83.103 Y83.96 E.01249
G1 X146.043 Y146.9 E2.79885
G1 X145.682 Y147.074 E.0126
G1 X82.922 Y84.314 E2.79086
G1 X82.741 Y84.668 E.0125
G1 X145.321 Y147.248 E2.78284
G1 X144.96 Y147.422 E.0126
G1 X82.575 Y85.037 E2.77418
G1 X82.409 Y85.405 E.01271
M73 Q7 S146
G1 X144.599 Y147.596 E2.76552
G1 X144.236 Y147.767 E.01263
G1 X82.243 Y85.774 E2.75677
G1 X82.076 Y86.142 E.01271
G1 X143.86 Y147.926 E2.74744
G1 X143.484 Y148.085 E.01284
G1 X81.91 Y86.511 E2.7381
G1 X81.748 Y86.883 E.01278
G1 X143.108 Y148.243 E2.72859
G1 X142.732 Y148.402 E.01284
G1 X81.597 Y87.267 E2.71856
G1 X81.446 Y87.651 E.01297
M73 P7 R144
G1 X142.355 Y148.56 E2.70854
G1 X141.973 Y148.712 E.01295
M73 P8 R144
G1 X81.296 Y88.035 E2.69822
G1 X81.145 Y88.419 E.01297
M73 Q8 S146
G1 X141.581 Y148.855 E2.68749
G1 X141.189 Y148.998 E.01312
G1 X80.994 Y88.803 E2.67676
G1 X80.853 Y89.197 E.01315
G1 X140.796 Y149.141 E2.6656
G1 X140.404 Y149.283 E.01312
G1 X80.718 Y89.597 E2.65414
G1 X80.584 Y89.998 E.01328
G1 X140.012 Y149.426 E2.64269
G1 X139.607 Y149.555 E.01338
M73 Q8 S145
G1 X80.449 Y90.398 E2.63064
G1 X80.315 Y90.798 E.01328
G1 X139.198 Y149.681 E2.61844
G1 X138.789 Y149.807 E.01345
G1 X80.181 Y91.199 E2.60621
G1 X80.064 Y91.617 E.01363
G1 X138.381 Y149.934 E2.59325
G1 X137.972 Y150.06 E.01345
G1 X79.947 Y92.034 E2.5803
G1 X79.829 Y92.452 E.01363
G1 X137.557 Y150.18 E2.56708
G1 X137.131 Y150.288 E.01383
G1 X79.712 Y92.869 E2.55335
G1 X79.594 Y93.286 E.01363
M73 P8 R143
G1 X136.705 Y150.397 E2.53962
G1 X136.278 Y150.505 E.01383
G1 X79.489 Y93.716 E2.52535
G1 X79.389 Y94.151 E.01404
G1 X135.852 Y150.614 E2.51082
G1 X135.426 Y150.722 E.01384
G1 X79.29 Y94.586 E2.49626
G1 X79.191 Y95.022 E.01404
G1 X134.981 Y150.812 E2.4809
G1 X134.536 Y150.902 E.01427
G1 X79.091 Y95.457 E2.46554
G1 X79 Y95.901 E.01424
G1 X134.091 Y150.992 E2.44981
G1 X133.646 Y151.082 E.01427
G1 X78.92 Y96.355 E2.43359
G1 X78.84 Y96.81 E.01452
M73 Q8 S144
G1 X133.201 Y151.172 E2.41738
G1 X132.739 Y151.244 E.01471
G1 X78.759 Y97.265 E2.40039
M73 P9 R143
G1 X78.679 Y97.719 E.01452
G1 X132.274 Y151.314 E2.38329
G1 X131.81 Y151.384 E.01478
M73 Q9 S144
G1 X78.607 Y98.181 E2.36586
G1 X78.547 Y98.657 E.01506
G1 X131.345 Y151.454 E2.34784
G1 X130.88 Y151.525 E.01478
G1 X78.487 Y99.132 E2.32982
G1 X78.428 Y99.607 E.01506
G1 X130.396 Y151.575 E2.31095
G1 X129.91 Y151.624 E.01536
G1 X78.368 Y100.082 E2.29198
G1 X78.319 Y100.568 E.01536
M73 P9 R142
G1 X129.424 Y151.673 E2.27254
G1 X128.938 Y151.721 E.01536
G1 X78.282 Y101.066 E2.25258
G1 X78.245 Y101.563 E.01569
G1 X128.449 Y151.767 E2.2325
G1 X127.94 Y151.793 E.01604
G1 X78.208 Y102.061 E2.21151
G1 X78.17 Y102.558 E.01569
G1 X127.43 Y151.818 E2.19052
G1 X126.921 Y151.844 E.01604
G1 X78.152 Y103.075 E2.16867
G1 X78.139 Y103.597 E.01641
G1 X126.412 Y151.869 E2.1466
G1 X125.889 Y151.881 E.01644
