; generated by PrusaSlicer 2.5.0+win64 on 2022-11-03 at 20:45:11 UTC


;
;
; 

; external perimeters extrusion width = 0.45mm
; perimeters extrusion width = 0.45mm
; infill extrusion width = 0.45mm
; solid infill extrusion width = 0.45mm
; top infill extrusion width = 0.40mm
; first layer extrusion width = 0.42mm

M73 P0 R152
M73 Q0 S152
M201 X1000 Y1000 Z200 E5000 ; sets maximum accelerations, mm/sec^2
M203 X200 Y200 Z12 E120 ; sets maximum feedrates, mm / sec
M204 P1250 R1250 T1250 ; sets acceleration (P, T) and retract acceleration (R), mm/sec^2
M205 X8.00 Y8.00 Z0.40 E4.50 ; sets the jerk limits, mm/sec
M205 S0 T0 ; sets the minimum extruding and travel feed rate, mm/sec
M107
;TYPE:Custom
M862.3 P "MK3S" ; printer model check
M862.1 P0.4 ; nozzle diameter check
M115 U3.11.0 ; tell printer latest fw version
G90 ; use absolute coordinates
M83 ; extruder relative mode
M104 S210 ; set extruder temp
M140 S60 ; set bed temp
M190 S60 ; wait for bed temp
M109 S210 ; wait for extruder temp
G28 W ; home all without mesh bed level
G80 ; mesh bed leveling

G1 Z0.2 F720
G1 Y-3 F1000 ; go outside print area
G92 E0
G1 X60 E9 F1000 ; intro line
G1 X100 E12.5 F1000 ; intro line

G92 E0
M221 S95

; Don't change E values below. Excessive value can damage the printer.
M907 E430 ; set extruder motor current
G21 ; set units to millimeters
G90 ; use absolute coordinates
M83 ; use relative distances for extrusion
M900 K0.05 ; Filament gcode LA 1.5
M900 K30 ; Filament gcode LA 1.0
M107
;LAYER_CHANGE
;Z:0.2
;HEIGHT:0.2
;BEFORE_LAYER_CHANGE
G92 E0.0
;0.2


G1 E-.8 F2100
G1 Z.4 F720
;AFTER_LAYER_CHANGE
;0.2
G1 X89.24 Y74.961 F10800
G1 Z.2 F720
G1 E.8 F2100
M204 S800
;TYPE:Skirt/Brim
;WIDTH:0.42
G1 F1200
G1 X90.805 Y73.191 E.07408
G1 X92.409 Y71.55 E.07194
G1 X94.142 Y69.944 E.07408
G1 X95.901 Y68.471 E.07194
G1 X97.786 Y67.046 E.07408
G1 X99.683 Y65.755 E.07194
G1 X101.7 Y64.525 E.07409
G1 X103.716 Y63.43 E.07194
G1 X105.846 Y62.406 E.07409
G1 X107.914 Y61.535 E.07037
G1 X110.07 Y60.749 E.07194
G1 X112.327 Y60.05 E.07408
G1 X114.55 Y59.482 E.07194
G1 X116.866 Y59.012 E.07408
G1 X119.134 Y58.668 E.07194
G1 X121.485 Y58.43 E.07408
G1 X123.776 Y58.314 E.07194
G1 X126.139 Y58.312 E.07408
G1 X128.431 Y58.424 E.07194
G1 X130.782 Y58.657 E.07409
G1 X133.051 Y58.997 E.07194
G1 X135.368 Y59.463 E.07408
G1 X137.592 Y60.027 E.07194
G1 X139.85 Y60.722 E.07408
G1 X142.007 Y61.505 E.07194
G1 X144.185 Y62.42 E.07408
G1 X146.253 Y63.414 E.07194
G1 X148.329 Y64.542 E.07409
G1 X150.288 Y65.737 E.07194
G1 X152.242 Y67.066 E.07409
G1 X154.072 Y68.45 E.07194
G1 X155.883 Y69.967 E.07409
G1 X157.567 Y71.526 E.07194
G1 X159.177 Y73.173 E.07223
G1 X160.814 Y75.026 E.07751
G1 X162.243 Y76.821 E.07194
G1 X163.621 Y78.741 E.07409
G1 X164.864 Y80.669 E.07194
G1 X166.043 Y82.717 E.07409
G1 X167.088 Y84.759 E.07194
G1 X168.058 Y86.914 E.07409
G1 X168.894 Y89.05 E.07194
G1 X169.645 Y91.291 E.07408
G1 X170.264 Y93.5 E.07194
G1 X170.788 Y95.804 E.07409
G1 X171.184 Y98.064 E.07194
G1 X171.476 Y100.409 E.07409
M73 P0 R151
G1 X171.645 Y102.697 E.07194
G1 X171.702 Y105.059 E.07408
G1 X171.643 Y107.353 E.07194
G1 X171.464 Y109.709 E.07409
G1 X171.177 Y111.985 E.07194
G1 X170.764 Y114.312 E.07409
G1 X170.252 Y116.548 E.07194
G1 X169.61 Y118.822 E.07408
G1 X168.877 Y120.997 E.07194
G1 X168.012 Y123.195 E.07409
G1 X167.066 Y125.286 E.07194
G1 X165.987 Y127.388 E.07408
G1 X164.838 Y129.374 E.07194
G1 X163.554 Y131.357 E.07408
G1 X162.213 Y133.219 E.07194
G1 X160.738 Y135.065 E.07409
G1 X159.218 Y136.784 E.07194
G1 X157.567 Y138.474 E.07408
G1 X155.883 Y140.033 E.07194
G1 X154.072 Y141.55 E.07409
G1 X152.242 Y142.934 E.07194
G1 X150.288 Y144.263 E.07409
G1 X148.329 Y145.458 E.07194
G1 X146.253 Y146.586 E.07409
G1 X144.185 Y147.58 E.07194
G1 X142.007 Y148.495 E.07408
G1 X139.85 Y149.278 E.07194
G1 X137.592 Y149.973 E.07408
G1 X135.368 Y150.537 E.07194
G1 X133.168 Y150.982 E.07037
G1 X130.832 Y151.337 E.07409
G1 X128.549 Y151.567 E.07194
G1 X126.189 Y151.687 E.07408
G1 X123.895 Y151.689 E.07194
G1 X121.535 Y151.574 E.07409
G1 X119.252 Y151.347 E.07194
G1 X116.915 Y150.997 E.07409
G1 X114.666 Y150.544 E.07194
G1 X112.375 Y149.964 E.07409
G1 X110.182 Y149.289 E.07194
G1 X107.961 Y148.483 E.07408
G1 X105.846 Y147.594 E.07194
G1 X103.716 Y146.57 E.07409
G1 X101.7 Y145.475 E.07194
G1 X99.683 Y144.245 E.07409
G1 X97.786 Y142.954 E.07194
G1 X95.901 Y141.529 E.07408
G1 X94.142 Y140.056 E.07194
G1 X92.409 Y138.45 E.07408
G1 X90.805 Y136.809 E.07194
G1 X89.24 Y135.039 E.07408
G1 X87.808 Y133.246 E.07194
G1 X86.427 Y131.329 E.07408
G1 X85.18 Y129.403 E.07194
G1 X83.997 Y127.357 E.07409
G1 X82.949 Y125.317 E.07194
G1 X81.975 Y123.164 E.07408
G1 X81.135 Y121.029 E.07194
G1 X80.38 Y118.79 E.07409
G1 X79.757 Y116.582 E.07194
G1 X79.229 Y114.278 E.07408
G1 X78.828 Y112.019 E.07194
G1 X78.532 Y109.675 E.07409
G1 X78.359 Y107.387 E.07194
G1 X78.298 Y104.916 E.07751
G1 X78.359 Y102.613 E.07223
G1 X78.532 Y100.325 E.07194
G1 X78.828 Y97.981 E.07409
G1 X79.229 Y95.722 E.07194
G1 X79.757 Y93.418 E.07408
G1 X80.38 Y91.21 E.07194
G1 X81.135 Y88.971 E.07409
G1 X81.975 Y86.836 E.07194
G1 X82.949 Y84.683 E.07408
G1 X83.997 Y82.643 E.07194
G1 X85.18 Y80.597 E.07409
G1 X86.427 Y78.671 E.07194
G1 X87.808 Y76.754 E.07408
G1 X89.203 Y75.008 E.07006
M204 S1000
; printing object plant_saucer-85mm.stl id:0 copy 0
;WIPE_START
G1 F8640
G1 X90.805 Y73.191 E-.55942
G1 X91.412 Y72.57 E-.20058
;WIPE_END
G1 E-.04 F2100
G1 Z.6 F720
G1 X83.732 Y115.508 F10800
G1 Z.2 F720
G1 E.8 F2100
M204 S800
;TYPE:Perimeter
;WIDTH:0.419999
M73 Q0 S151
G1 F1200
G1 X83.259 Y113.438 E.06658
G1 X82.891 Y111.347 E.06658
G1 X82.626 Y109.24 E.06658
G1 X82.468 Y107.123 E.06658
G1 X82.415 Y105 E.06658
G1 X82.468 Y102.877 E.06658
G1 X82.626 Y100.76 E.06658
G1 X82.891 Y98.653 E.06658
G1 X83.259 Y96.562 E.06658
G1 X83.732 Y94.492 E.06658
G1 X84.307 Y92.448 E.06658
G1 X84.983 Y90.435 E.06657
G1 X85.759 Y88.458 E.06658
G1 X86.632 Y86.523 E.06658
G1 X87.601 Y84.633 E.06658
G1 X88.663 Y82.795 E.06657
G1 X89.815 Y81.011 E.06658
G1 X91.054 Y79.287 E.06658
G1 X92.378 Y77.627 E.06658
G1 X93.783 Y76.035 E.06657
G1 X95.266 Y74.515 E.06658
G1 X96.822 Y73.07 E.06657
G1 X98.449 Y71.706 E.06658
G1 X100.141 Y70.424 E.06657
G1 X101.896 Y69.227 E.06658
G1 X103.707 Y68.12 E.06657
G1 X105.572 Y67.105 E.06658
G1 X107.485 Y66.183 E.06657
G1 X109.442 Y65.359 E.06658
G1 X111.437 Y64.632 E.06658
G1 X113.466 Y64.007 E.06658
G1 X115.524 Y63.483 E.06657
G1 X117.605 Y63.062 E.06658
G1 X119.705 Y62.745 E.06658
G1 X121.818 Y62.534 E.06658
G1 X123.938 Y62.428 E.06657
G1 X126.062 Y62.428 E.06658
G1 X128.182 Y62.534 E.06657
G1 X130.295 Y62.745 E.06658
G1 X132.395 Y63.062 E.06658
G1 X134.476 Y63.483 E.06658
G1 X136.534 Y64.007 E.06657
G1 X138.563 Y64.632 E.06658
G1 X140.558 Y65.359 E.06658
G1 X142.515 Y66.183 E.06658
G1 X144.428 Y67.105 E.06657
G1 X146.293 Y68.12 E.06658
G1 X148.104 Y69.227 E.06657
G1 X149.859 Y70.424 E.06658
G1 X151.551 Y71.706 E.06657
G1 X153.178 Y73.07 E.06658
G1 X154.734 Y74.515 E.06658
G1 X156.217 Y76.035 E.06658
G1 X157.622 Y77.627 E.06658
G1 X158.946 Y79.287 E.06658
G1 X160.185 Y81.011 E.06658
G1 X161.337 Y82.795 E.06658
G1 X162.399 Y84.633 E.06658
G1 X163.368 Y86.523 E.06658
G1 X164.241 Y88.458 E.06658
G1 X165.017 Y90.435 E.06658
G1 X165.693 Y92.448 E.06657
G1 X166.268 Y94.492 E.06658
G1 X166.741 Y96.562 E.06658
G1 X167.109 Y98.653 E.06658
G1 X167.374 Y100.76 E.06658
G1 X167.532 Y102.877 E.06658
G1 X167.585 Y105 E.06658
G1 X167.532 Y107.123 E.06658
G1 X167.374 Y109.24 E.06658
G1 X167.109 Y111.347 E.06658
G1 X166.741 Y113.438 E.06658
G1 X166.268 Y115.508 E.06658
G1 X165.693 Y117.552 E.06658
G1 X165.017 Y119.565 E.06657
G1 X164.241 Y121.542 E.06658
G1 X163.368 Y123.477 E.06658
G1 X162.399 Y125.367 E.06658
G1 X161.337 Y127.205 E.06657
G1 X160.185 Y128.989 E.06658
G1 X158.946 Y130.713 E.06658
G1 X157.622 Y132.373 E.06658
G1 X156.217 Y133.965 E.06658
G1 X154.734 Y135.485 E.06658
G1 X153.178 Y136.93 E.06657
G1 X151.551 Y138.294 E.06658
G1 X149.859 Y139.576 E.06657
G1 X148.104 Y140.773 E.06658
G1 X146.293 Y141.88 E.06657
G1 X144.428 Y142.895 E.06658
G1 X142.515 Y143.817 E.06657
G1 X140.558 Y144.641 E.06658
G1 X138.563 Y145.368 E.06658
G1 X136.534 Y145.993 E.06658
G1 X134.476 Y146.517 E.06657
G1 X132.395 Y146.938 E.06658
G1 X130.295 Y147.255 E.06658
G1 X128.182 Y147.466 E.06658
G1 X126.062 Y147.572 E.06657
G1 X123.938 Y147.572 E.06658
G1 X121.818 Y147.466 E.06657
G1 X119.705 Y147.255 E.06658
G1 X117.605 Y146.938 E.06657
G1 X115.524 Y146.517 E.06658
G1 X113.466 Y145.993 E.06657
G1 X111.437 Y145.368 E.06658
G1 X109.442 Y144.641 E.06658
G1 X107.485 Y143.817 E.06658
G1 X105.572 Y142.895 E.06657
G1 X103.707 Y141.88 E.06658
G1 X101.896 Y140.773 E.06657
G1 X100.141 Y139.576 E.06658
G1 X98.449 Y138.294 E.06657
G1 X96.822 Y136.93 E.06658
G1 X95.266 Y135.485 E.06658
G1 X93.783 Y133.965 E.06658
G1 X92.378 Y132.373 E.06658
G1 X91.054 Y130.713 E.06658
G1 X89.815 Y128.989 E.06658
G1 X88.663 Y127.205 E.06658
G1 X87.601 Y125.367 E.06658
G1 X86.632 Y123.477 E.06658
G1 X85.759 Y121.542 E.06658
G1 X84.983 Y119.565 E.06658
G1 X84.307 Y117.552 E.06657
G1 X83.748 Y115.566 E.0647
M204 S1000
G1 X83.366 Y115.601 F10800
M204 S800
G1 F1200
G1 X82.89 Y113.513 E.06717
G1 X82.518 Y111.403 E.06717
G1 X82.251 Y109.278 E.06717
G1 X82.091 Y107.141 E.06717
G1 X82.038 Y105 E.06717
G1 X82.091 Y102.859 E.06717
G1 X82.251 Y100.722 E.06717
G1 X82.518 Y98.597 E.06717
G1 X82.89 Y96.487 E.06717
G1 X83.366 Y94.399 E.06717
G1 X83.946 Y92.337 E.06717
G1 X84.629 Y90.306 E.06716
G1 X85.411 Y88.312 E.06717
G1 X86.292 Y86.359 E.06717
G1 X87.27 Y84.453 E.06717
G1 X88.341 Y82.598 E.06716
G1 X89.503 Y80.798 E.06717
G1 X90.753 Y79.059 E.06717
G1 X92.089 Y77.384 E.06717
G1 X93.506 Y75.778 E.06716
G1 X95.002 Y74.245 E.06717
G1 X96.572 Y72.788 E.06716
G1 X98.213 Y71.411 E.06717
G1 X99.921 Y70.117 E.06716
G1 X101.691 Y68.911 E.06717
G1 X103.519 Y67.794 E.06716
G1 X105.4 Y66.769 E.06717
G1 X107.33 Y65.84 E.06716
G1 X109.304 Y65.008 E.06717
G1 X111.317 Y64.275 E.06716
G1 X113.364 Y63.643 E.06717
G1 X115.44 Y63.115 E.06716
G1 X117.54 Y62.69 E.06717
G1 X119.658 Y62.371 E.06717
G1 X121.789 Y62.158 E.06717
G1 X123.929 Y62.051 E.06716
G1 X126.071 Y62.051 E.06717
G1 X128.211 Y62.158 E.06716
G1 X130.342 Y62.371 E.06717
G1 X132.46 Y62.69 E.06717
G1 X134.56 Y63.115 E.06717
G1 X136.636 Y63.643 E.06716
G1 X138.683 Y64.275 E.06717
G1 X140.696 Y65.008 E.06716
G1 X142.67 Y65.84 E.06717
G1 X144.6 Y66.769 E.06716
G1 X146.481 Y67.794 E.06717
G1 X148.309 Y68.911 E.06716
G1 X150.079 Y70.117 E.06717
G1 X151.787 Y71.411 E.06716
G1 X153.428 Y72.788 E.06717
G1 X154.998 Y74.245 E.06716
G1 X156.494 Y75.778 E.06717
G1 X157.911 Y77.384 E.06717
G1 X159.247 Y79.059 E.06717
G1 X160.497 Y80.798 E.06717
G1 X161.659 Y82.598 E.06717
G1 X162.73 Y84.453 E.06717
G1 X163.708 Y86.359 E.06717
G1 X164.589 Y88.312 E.06717
G1 X165.371 Y90.306 E.06717
G1 X166.054 Y92.337 E.06716
G1 X166.634 Y94.399 E.06717
G1 X167.11 Y96.487 E.06717
G1 X167.482 Y98.597 E.06717
G1 X167.749 Y100.722 E.06717
G1 X167.909 Y102.859 E.06717
G1 X167.962 Y105 E.06717
G1 X167.909 Y107.141 E.06717
G1 X167.749 Y109.278 E.06717
G1 X167.482 Y111.403 E.06717
G1 X167.11 Y113.513 E.06717
G1 X166.634 Y115.601 E.06717
G1 X166.054 Y117.663 E.06717
G1 X165.371 Y119.694 E.06716
G1 X164.589 Y121.688 E.06717
G1 X163.708 Y123.641 E.06717
G1 X162.73 Y125.547 E.06717
G1 X161.659 Y127.402 E.06716
G1 X160.497 Y129.202 E.06717
G1 X159.247 Y130.941 E.06717
G1 X157.911 Y132.616 E.06717
G1 X156.494 Y134.222 E.06717
G1 X154.998 Y135.755 E.06717
G1 X153.428 Y137.212 E.06716
G1 X151.787 Y138.589 E.06717
G1 X150.079 Y139.883 E.06716
G1 X148.309 Y141.089 E.06717
G1 X146.481 Y142.206 E.06716
G1 X144.6 Y143.231 E.06717
G1 X142.67 Y144.16 E.06716
G1 X140.696 Y144.992 E.06717
G1 X138.683 Y145.725 E.06716
G1 X136.636 Y146.357 E.06717
G1 X134.56 Y146.885 E.06716
G1 X132.46 Y147.31 E.06717
G1 X130.342 Y147.629 E.06717
G1 X128.211 Y147.842 E.06717
G1 X126.071 Y147.949 E.06716
G1 X123.929 Y147.949 E.06717
G1 X121.789 Y147.842 E.06716
G1 X119.658 Y147.629 E.06717
G1 X117.54 Y147.31 E.06716
G1 X115.44 Y146.885 E.06717
G1 X113.364 Y146.357 E.06716
G1 X111.317 Y145.725 E.06717
G1 X109.304 Y144.992 E.06716
G1 X107.33 Y144.16 E.06717
G1 X105.4 Y143.231 E.06716
G1 X103.519 Y142.206 E.06717
G1 X101.691 Y141.089 E.06716
G1 X99.921 Y139.883 E.06717
G1 X98.213 Y138.589 E.06716
G1 X96.572 Y137.212 E.06717
G1 X95.002 Y135.755 E.06716
G1 X93.506 Y134.222 E.06717
G1 X92.089 Y132.616 E.06717
G1 X90.753 Y130.941 E.06717
G1 X89.503 Y129.202 E.06717
G1 X88.341 Y127.402 E.06717
G1 X87.27 Y125.547 E.06717
G1 X86.292 Y123.641 E.06717
G1 X85.411 Y121.688 E.06717
G1 X84.629 Y119.694 E.06717
G1 X83.946 Y117.663 E.06716
G1 X83.382 Y115.659 E.06529
M204 S1000
G1 X83.001 Y115.694 F10800
M204 S800
;TYPE:External perimeter
G1 F1200
G1 X82.52 Y113.588 E.06776
G1 X82.145 Y111.459 E.06776
G1 X81.876 Y109.315 E.06776
G1 X81.714 Y107.16 E.06776
G1 X81.66 Y105 E.06776
G1 X81.714 Y102.84 E.06776
G1 X81.876 Y100.685 E.06776
G1 X82.145 Y98.541 E.06776
G1 X82.52 Y96.412 E.06776
G1 X83.001 Y94.306 E.06776
G1 X83.586 Y92.225 E.06776
G1 X84.274 Y90.177 E.06775
G1 X85.064 Y88.165 E.06776
G1 X85.952 Y86.196 E.06776
G1 X86.938 Y84.273 E.06776
G1 X88.019 Y82.401 E.06775
G1 X89.191 Y80.586 E.06776
G1 X90.453 Y78.831 E.06775
G1 X91.8 Y77.142 E.06776
G1 X93.23 Y75.522 E.06775
G1 X94.739 Y73.975 E.06776
G1 X96.323 Y72.505 E.06775
G1 X97.978 Y71.116 E.06776
G1 X99.701 Y69.811 E.06775
G1 X101.486 Y68.594 E.06776
G1 X103.33 Y67.467 E.06775
G1 X105.228 Y66.433 E.06776
G1 X107.175 Y65.496 E.06775
G1 X109.166 Y64.656 E.06776
G1 X111.197 Y63.917 E.06775
G1 X113.262 Y63.28 E.06776
G1 X115.356 Y62.747 E.06775
G1 X117.474 Y62.319 E.06776
G1 X119.611 Y61.997 E.06776
G1 X121.761 Y61.782 E.06776
G1 X123.919 Y61.674 E.06775
G1 X126.081 Y61.674 E.06776
G1 X128.239 Y61.782 E.06775
G1 X130.389 Y61.997 E.06776
G1 X132.526 Y62.319 E.06776
G1 X134.644 Y62.747 E.06776
G1 X136.738 Y63.28 E.06775
G1 X138.803 Y63.917 E.06776
G1 X140.834 Y64.656 E.06775
G1 X142.825 Y65.496 E.06776
G1 X144.772 Y66.433 E.06775
G1 X146.67 Y67.467 E.06776
G1 X148.514 Y68.594 E.06775
G1 X150.299 Y69.811 E.06776
G1 X152.022 Y71.116 E.06775
G1 X153.677 Y72.505 E.06776
G1 X155.261 Y73.975 E.06775
G1 X156.77 Y75.522 E.06776
G1 X158.2 Y77.142 E.06776
G1 X159.547 Y78.831 E.06776
G1 X160.809 Y80.586 E.06775
G1 X161.981 Y82.401 E.06776
G1 X163.062 Y84.273 E.06775
G1 X164.048 Y86.196 E.06776
G1 X164.936 Y88.165 E.06776
G1 X165.726 Y90.177 E.06776
G1 X166.414 Y92.225 E.06775
G1 X166.999 Y94.306 E.06776
G1 X167.48 Y96.412 E.06776
G1 X167.855 Y98.541 E.06776
G1 X168.124 Y100.685 E.06776
G1 X168.286 Y102.84 E.06776
G1 X168.34 Y105 E.06776
G1 X168.286 Y107.16 E.06776
G1 X168.124 Y109.315 E.06776
G1 X167.855 Y111.459 E.06776
G1 X167.48 Y113.588 E.06776
G1 X166.999 Y115.694 E.06776
G1 X166.414 Y117.775 E.06776
G1 X165.726 Y119.823 E.06775
G1 X164.936 Y121.835 E.06776
G1 X164.048 Y123.804 E.06776
G1 X163.062 Y125.727 E.06776
G1 X161.981 Y127.599 E.06775
G1 X160.809 Y129.414 E.06776
G1 X159.547 Y131.169 E.06775
G1 X158.2 Y132.858 E.06776
G1 X156.77 Y134.478 E.06775
G1 X155.261 Y136.025 E.06776
G1 X153.677 Y137.495 E.06775
G1 X152.022 Y138.884 E.06776
G1 X150.299 Y140.189 E.06775
G1 X148.514 Y141.406 E.06776
G1 X146.67 Y142.533 E.06775
G1 X144.772 Y143.567 E.06776
G1 X142.825 Y144.504 E.06775
G1 X140.834 Y145.344 E.06776
G1 X138.803 Y146.083 E.06775
G1 X136.738 Y146.72 E.06776
G1 X134.644 Y147.253 E.06775
G1 X132.526 Y147.681 E.06776
G1 X130.389 Y148.003 E.06776
G1 X128.239 Y148.218 E.06776
G1 X126.081 Y148.326 E.06775
G1 X123.919 Y148.326 E.06776
G1 X121.761 Y148.218 E.06775
G1 X119.611 Y148.003 E.06776
G1 X117.474 Y147.681 E.06775
G1 X115.356 Y147.253 E.06776
G1 X113.262 Y146.72 E.06775
G1 X111.197 Y146.083 E.06776
G1 X109.166 Y145.344 E.06775
G1 X107.175 Y144.504 E.06776
G1 X105.228 Y143.567 E.06775
G1 X103.33 Y142.533 E.06776
G1 X101.486 Y141.406 E.06775
G1 X99.701 Y140.189 E.06776
G1 X97.978 Y138.884 E.06775
G1 X96.323 Y137.495 E.06776
G1 X94.739 Y136.025 E.06775
G1 X93.23 Y134.478 E.06776
G1 X91.8 Y132.858 E.06776
