; generated by PrusaSlicer 2.5.0+win64 on 2022-11-04 at 11:31:27 UTC


;
;
; 

; external perimeters extrusion width = 0.45mm
; perimeters extrusion width = 0.45mm
; infill extrusion width = 0.45mm
; solid infill extrusion width = 0.45mm
; top infill extrusion width = 0.40mm
; first layer extrusion width = 0.42mm

M73 P0 R157
M73 Q0 S159
M201 X1000 Y1000 Z200 E5000 ; sets maximum accelerations, mm/sec^2
M203 X200 Y200 Z12 E120 ; sets maximum feedrates, mm / sec
M204 P1250 R1250 T1250 ; sets acceleration (P, T) and retract acceleration (R), mm/sec^2
M205 X8.00 Y8.00 Z0.40 E4.50 ; sets the jerk limits, mm/sec
M205 S0 T0 ; sets the minimum extruding and travel feed rate, mm/sec
M107
;TYPE:Custom
M862.3 P "MK3S" ; printer model check
M862.1 P0.4 ; nozzle diameter check
M115 U3.11.0 ; tell printer latest fw version
G90 ; use absolute coordinates
M83 ; extruder relative mode
M104 S210 ; set extruder temp
M140 S60 ; set bed temp
M190 S60 ; wait for bed temp
M109 S210 ; wait for extruder temp
G28 W ; home all without mesh bed level
G80 ; mesh bed leveling

G1 Z0.2 F720
G1 Y-3 F1000 ; go outside print area
G92 E0
G1 X60 E9 F1000 ; intro line
G1 X100 E12.5 F1000 ; intro line

G92 E0
M221 S95

; Don't change E values below. Excessive value can damage the printer.
M907 E430 ; set extruder motor current
G21 ; set units to millimeters
G90 ; use absolute coordinates
M83 ; use relative distances for extrusion
M900 K0.05 ; Filament gcode LA 1.5
M900 K30 ; Filament gcode LA 1.0
M107
;LAYER_CHANGE
;Z:0.2
;HEIGHT:0.2
;BEFORE_LAYER_CHANGE
G92 E0.0
;0.2


G1 E-.8 F2100
G1 Z.4 F720
;AFTER_LAYER_CHANGE
;0.2
G1 X85.671 Y72.076 F10800
G1 Z.2 F720
M73 Q0 S158
G1 E.8 F2100
M204 S800
;TYPE:Skirt/Brim
;WIDTH:0.42
G1 F1200
G1 X87.361 Y70.157 E.08019
G1 X89.144 Y68.324 E.08019
G1 X91.017 Y66.582 E.08019
G1 X92.974 Y64.936 E.08019
G1 X95.011 Y63.39 E.08019
G1 X97.123 Y61.947 E.08019
G1 X99.303 Y60.61 E.08019
G1 X101.548 Y59.385 E.08019
G1 X103.851 Y58.272 E.08019
G1 X106.858 Y57.036 E.10196
G1 X108.721 Y56.361 E.06211
G1 X111.165 Y55.61 E.08019
G1 X113.645 Y54.982 E.08019
G1 X116.152 Y54.478 E.08019
G1 X118.681 Y54.1 E.08019
G1 X121.226 Y53.848 E.08019
G1 X123.781 Y53.724 E.08019
G1 X126.338 Y53.727 E.08019
G1 X128.892 Y53.857 E.08019
G1 X131.319 Y54.1 E.07647
G1 X133.848 Y54.478 E.08019
G1 X136.355 Y54.982 E.08019
G1 X138.835 Y55.61 E.08019
G1 X141.279 Y56.361 E.08019
G1 X143.683 Y57.233 E.08019
G1 X146.041 Y58.224 E.08019
G1 X148.347 Y59.331 E.08019
G1 X150.594 Y60.551 E.08019
G1 X152.778 Y61.882 E.08019
G1 X154.893 Y63.32 E.08019
G1 X156.933 Y64.862 E.08019
G1 X158.894 Y66.504 E.08019
G1 X160.771 Y68.241 E.08019
G1 X162.559 Y70.07 E.08019
G1 X164.253 Y71.985 E.08019
G1 X165.85 Y73.983 E.08019
G1 X167.345 Y76.058 E.08019
G1 X168.735 Y78.205 E.08019
G1 X170.016 Y80.418 E.08019
G1 X171.186 Y82.692 E.08019
G1 X172.24 Y85.022 E.08019
G1 X173.177 Y87.402 E.08019
G1 X173.995 Y89.825 E.08019
G1 X174.69 Y92.286 E.08019
G1 X175.262 Y94.779 E.08019
G1 X175.709 Y97.297 E.08019
G1 X176.03 Y99.834 E.08019
G1 X176.224 Y102.384 E.08019
G1 X176.291 Y104.941 E.08019
G1 X176.23 Y107.497 E.08019
G1 X176.042 Y110.048 E.08019
G1 X175.727 Y112.586 E.08019
G1 X175.286 Y115.105 E.08019
G1 X174.719 Y117.599 E.08019
G1 X174.03 Y120.062 E.08019
G1 X173.218 Y122.487 E.08019
G1 X172.286 Y124.869 E.08019
G1 X171.237 Y127.201 E.08019
G1 X170.073 Y129.478 E.08019
G1 X168.797 Y131.694 E.08019
G1 X167.412 Y133.844 E.08019
G1 X165.921 Y135.922 E.08019
G1 X164.329 Y137.924 E.08019
G1 X162.639 Y139.843 E.08019
G1 X160.856 Y141.676 E.08019
G1 X158.983 Y143.418 E.08019
G1 X157.026 Y145.064 E.08019
G1 X154.989 Y146.61 E.08019
G1 X152.877 Y148.053 E.08019
G1 X150.697 Y149.39 E.08019
G1 X148.452 Y150.615 E.08019
G1 X146.149 Y151.728 E.08019
G1 X143.794 Y152.724 E.08019
G1 X141.392 Y153.601 E.08019
G1 X138.949 Y154.358 E.08019
G1 X136.471 Y154.992 E.08019
G1 X133.965 Y155.501 E.08019
G1 X132.007 Y155.799 E.06211
G1 X128.774 Y156.152 E.10196
G1 X126.219 Y156.276 E.08019
G1 X123.662 Y156.273 E.08019
G1 X121.108 Y156.143 E.08019
G1 X118.564 Y155.885 E.08019
G1 X116.035 Y155.501 E.08019
G1 X113.529 Y154.992 E.08019
G1 X111.051 Y154.358 E.08019
G1 X108.608 Y153.601 E.08019
G1 X106.317 Y152.767 E.07647
G1 X103.959 Y151.776 E.08019
G1 X101.653 Y150.669 E.08019
G1 X99.406 Y149.449 E.08019
G1 X97.222 Y148.118 E.08019
G1 X95.107 Y146.68 E.08019
G1 X93.067 Y145.138 E.08019
G1 X91.106 Y143.496 E.08019
G1 X89.229 Y141.759 E.08019
G1 X87.441 Y139.93 E.08019
G1 X85.747 Y138.015 E.08019
G1 X84.15 Y136.017 E.08019
G1 X82.655 Y133.942 E.08019
G1 X81.265 Y131.795 E.08019
G1 X79.984 Y129.582 E.08019
G1 X78.814 Y127.308 E.08019
G1 X77.76 Y124.978 E.08019
G1 X76.823 Y122.598 E.08019
G1 X76.005 Y120.175 E.08019
G1 X75.31 Y117.714 E.08019
G1 X74.738 Y115.221 E.08019
G1 X74.291 Y112.703 E.08019
G1 X73.97 Y110.166 E.08019
G1 X73.776 Y107.616 E.08019
G1 X73.709 Y105.059 E.08019
G1 X73.77 Y102.503 E.08019
G1 X73.958 Y99.952 E.08019
G1 X74.273 Y97.414 E.08019
G1 X74.714 Y94.895 E.08019
G1 X75.281 Y92.401 E.08019
G1 X75.97 Y89.938 E.08019
G1 X76.782 Y87.513 E.08019
G1 X77.714 Y85.131 E.08019
G1 X78.763 Y82.799 E.08019
G1 X79.927 Y80.522 E.08019
G1 X81.203 Y78.306 E.08019
G1 X82.588 Y76.156 E.08019
G1 X84.079 Y74.078 E.08019
G1 X85.634 Y72.123 E.07831
M204 S1000
; printing object plant_saucer-95mm.stl id:0 copy 0
;WIPE_START
G1 F8640
G1 X87.361 Y70.157 E-.60435
G1 X87.831 Y69.674 E-.15565
;WIPE_END
G1 E-.04 F2100
G1 Z.6 F720
G1 X78.193 Y99.208 F10800
G1 Z.2 F720
G1 E.8 F2100
M204 S800
;TYPE:Perimeter
;WIDTH:0.419999
G1 F1200
G1 X78.348 Y97.968 E.03918
G1 X78.757 Y95.652 E.07376
G1 X79.28 Y93.358 E.07376
G1 X79.917 Y91.094 E.07376
G1 X80.667 Y88.864 E.07376
G1 X81.526 Y86.674 E.07376
G1 X82.493 Y84.53 E.07376
G1 X83.567 Y82.437 E.07376
G1 X84.743 Y80.399 E.07376
G1 X86.019 Y78.423 E.07376
G1 X87.392 Y76.513 E.07376
G1 X88.859 Y74.674 E.07376
G1 X90.416 Y72.91 E.07376
G1 X92.058 Y71.226 E.07376
G1 X93.783 Y69.626 E.07376
G1 X95.585 Y68.114 E.07376
G1 X97.46 Y66.694 E.07376
G1 X99.403 Y65.369 E.07376
G1 X101.411 Y64.142 E.07376
G1 X103.477 Y63.017 E.07376
G1 X105.596 Y61.996 E.07376
G1 X107.764 Y61.083 E.07376
G1 X109.974 Y60.278 E.07376
G1 X112.222 Y59.585 E.07376
G1 X114.502 Y59.004 E.07376
G1 X116.807 Y58.538 E.07376
G1 X119.134 Y58.187 E.07376
G1 X121.474 Y57.953 E.07376
G1 X123.824 Y57.836 E.07376
G1 X126.176 Y57.836 E.07376
G1 X128.526 Y57.953 E.07376
G1 X130.866 Y58.187 E.07376
G1 X133.193 Y58.538 E.07376
G1 X135.498 Y59.004 E.07376
G1 X137.778 Y59.585 E.07376
G1 X140.026 Y60.278 E.07376
G1 X142.236 Y61.083 E.07376
G1 X144.404 Y61.996 E.07376
G1 X146.523 Y63.017 E.07376
G1 X148.589 Y64.142 E.07376
G1 X150.597 Y65.369 E.07376
G1 X152.54 Y66.694 E.07376
G1 X154.415 Y68.114 E.07376
G1 X156.217 Y69.626 E.07376
G1 X157.942 Y71.226 E.07376
G1 X159.584 Y72.91 E.07376
G1 X161.141 Y74.674 E.07376
G1 X162.608 Y76.513 E.07376
G1 X163.981 Y78.423 E.07376
G1 X165.257 Y80.399 E.07376
G1 X166.433 Y82.437 E.07376
G1 X167.507 Y84.53 E.07376
G1 X168.474 Y86.674 E.07376
G1 X169.333 Y88.864 E.07376
G1 X170.083 Y91.094 E.07376
G1 X170.72 Y93.358 E.07376
G1 X171.243 Y95.652 E.07376
G1 X171.652 Y97.968 E.07376
G1 X171.944 Y100.303 E.07376
G1 X172.12 Y102.648 E.07376
G1 X172.179 Y105 E.07376
G1 X172.12 Y107.352 E.07376
G1 X171.944 Y109.697 E.07376
G1 X171.652 Y112.032 E.07376
G1 X171.243 Y114.348 E.07376
G1 X170.72 Y116.642 E.07376
G1 X170.083 Y118.906 E.07376
G1 X169.333 Y121.136 E.07376
G1 X168.474 Y123.326 E.07376
G1 X167.507 Y125.47 E.07376
G1 X166.433 Y127.563 E.07376
G1 X165.257 Y129.601 E.07376
G1 X163.981 Y131.577 E.07376
G1 X162.608 Y133.487 E.07376
G1 X161.141 Y135.326 E.07376
G1 X159.584 Y137.09 E.07376
G1 X157.942 Y138.774 E.07376
G1 X156.217 Y140.374 E.07376
G1 X154.415 Y141.886 E.07376
G1 X152.54 Y143.306 E.07376
G1 X150.597 Y144.631 E.07376
G1 X148.589 Y145.858 E.07376
G1 X146.523 Y146.983 E.07376
G1 X144.404 Y148.004 E.07376
G1 X142.236 Y148.917 E.07376
G1 X140.026 Y149.722 E.07376
G1 X137.778 Y150.415 E.07376
G1 X135.498 Y150.996 E.07376
G1 X133.193 Y151.462 E.07376
G1 X130.866 Y151.813 E.07376
G1 X128.526 Y152.047 E.07376
M73 P0 R156
G1 X126.176 Y152.164 E.07376
G1 X123.824 Y152.164 E.07376
G1 X121.474 Y152.047 E.07376
G1 X119.134 Y151.813 E.07376
G1 X116.807 Y151.462 E.07376
G1 X114.502 Y150.996 E.07376
G1 X112.222 Y150.415 E.07376
G1 X109.974 Y149.722 E.07376
G1 X107.764 Y148.917 E.07376
G1 X105.596 Y148.004 E.07376
G1 X103.477 Y146.983 E.07376
G1 X101.411 Y145.858 E.07376
G1 X99.403 Y144.631 E.07376
G1 X97.46 Y143.306 E.07376
G1 X95.585 Y141.886 E.07376
G1 X93.783 Y140.374 E.07376
G1 X92.058 Y138.774 E.07376
G1 X90.416 Y137.09 E.07376
G1 X88.859 Y135.326 E.07376
G1 X87.392 Y133.487 E.07376
G1 X86.019 Y131.577 E.07376
G1 X84.743 Y129.601 E.07376
G1 X83.567 Y127.563 E.07376
G1 X82.493 Y125.47 E.07376
G1 X81.526 Y123.326 E.07376
G1 X80.667 Y121.136 E.07376
G1 X79.917 Y118.906 E.07376
G1 X79.28 Y116.642 E.07376
G1 X78.757 Y114.348 E.07376
G1 X78.348 Y112.032 E.07376
G1 X78.056 Y109.697 E.07376
G1 X77.88 Y107.352 E.07376
G1 X77.821 Y105 E.07376
G1 X77.88 Y102.648 E.07376
G1 X78.056 Y100.303 E.07376
G1 X78.185 Y99.268 E.03269
M204 S1000
;WIPE_START
G1 F8640
G1 X78.348 Y97.968 E-.30242
G1 X78.692 Y96.017 E-.45758
;WIPE_END
G1 E-.04 F2100
G1 Z.6 F720
G1 X107.87 Y149.357 F10800
G1 Z.2 F720
G1 E.8 F2100
M204 S800
G1 F1200
G1 X105.441 Y148.347 E.08247
G1 X103.305 Y147.319 E.07435
G1 X101.222 Y146.185 E.07435
G1 X99.199 Y144.948 E.07435
G1 X97.24 Y143.612 E.07435
G1 X95.349 Y142.181 E.07435
G1 X93.533 Y140.657 E.07435
G1 X91.795 Y139.044 E.07435
G1 X90.139 Y137.346 E.07435
G1 X88.57 Y135.568 E.07435
G1 X87.092 Y133.714 E.07435
G1 X85.707 Y131.789 E.07435
G1 X84.421 Y129.797 E.07435
G1 X83.235 Y127.744 E.07435
G1 X82.154 Y125.634 E.07435
G1 X81.178 Y123.472 E.07435
G1 X80.312 Y121.265 E.07435
G1 X79.557 Y119.017 E.07435
G1 X78.915 Y116.735 E.07435
G1 X78.387 Y114.423 E.07435
G1 X77.975 Y112.088 E.07435
G1 X77.68 Y109.735 E.07435
G1 X77.503 Y107.37 E.07435
G1 X77.444 Y105 E.07435
G1 X77.503 Y102.63 E.07435
G1 X77.68 Y100.265 E.07435
G1 X77.975 Y97.912 E.07435
G1 X78.387 Y95.577 E.07435
G1 X78.915 Y93.265 E.07435
G1 X79.557 Y90.983 E.07435
G1 X80.312 Y88.735 E.07435
G1 X81.178 Y86.528 E.07435
G1 X82.154 Y84.366 E.07435
G1 X83.235 Y82.256 E.07435
G1 X84.421 Y80.203 E.07435
G1 X85.707 Y78.211 E.07435
G1 X87.092 Y76.286 E.07435
G1 X88.57 Y74.432 E.07435
G1 X90.139 Y72.654 E.07435
G1 X91.795 Y70.956 E.07435
G1 X93.533 Y69.343 E.07435
G1 X95.349 Y67.819 E.07435
G1 X97.24 Y66.388 E.07435
G1 X99.199 Y65.052 E.07435
G1 X101.222 Y63.815 E.07435
G1 X103.304 Y62.681 E.07435
G1 X105.441 Y61.653 E.07435
G1 X107.626 Y60.731 E.07435
G1 X109.854 Y59.92 E.07435
G1 X112.12 Y59.222 E.07435
G1 X114.418 Y58.636 E.07435
G1 X116.742 Y58.167 E.07435
G1 X119.087 Y57.813 E.07435
G1 X121.446 Y57.577 E.07435
G1 X123.814 Y57.459 E.07434
G1 X126.186 Y57.459 E.07435
G1 X128.554 Y57.577 E.07434
G1 X130.913 Y57.813 E.07435
G1 X133.258 Y58.167 E.07435
G1 X135.582 Y58.636 E.07435
G1 X137.88 Y59.222 E.07435
G1 X140.146 Y59.92 E.07435
G1 X142.374 Y60.731 E.07435
G1 X144.559 Y61.653 E.07435
G1 X146.695 Y62.681 E.07435
G1 X148.778 Y63.815 E.07435
G1 X150.801 Y65.052 E.07435
G1 X152.76 Y66.388 E.07435
G1 X154.651 Y67.819 E.07435
G1 X156.467 Y69.343 E.07435
G1 X158.205 Y70.956 E.07435
G1 X159.861 Y72.654 E.07435
G1 X161.43 Y74.432 E.07435
G1 X162.908 Y76.286 E.07435
G1 X164.293 Y78.211 E.07435
G1 X165.579 Y80.203 E.07435
G1 X166.765 Y82.256 E.07435
G1 X167.846 Y84.366 E.07435
G1 X168.822 Y86.528 E.07435
G1 X169.688 Y88.735 E.07435
G1 X170.443 Y90.983 E.07435
G1 X171.085 Y93.265 E.07435
G1 X171.613 Y95.577 E.07435
G1 X172.025 Y97.912 E.07435
G1 X172.32 Y100.265 E.07435
G1 X172.497 Y102.63 E.07435
G1 X172.556 Y105 E.07435
G1 X172.497 Y107.37 E.07435
G1 X172.32 Y109.735 E.07435
G1 X172.025 Y112.088 E.07435
G1 X171.613 Y114.423 E.07435
G1 X171.085 Y116.735 E.07435
G1 X170.443 Y119.017 E.07435
G1 X169.688 Y121.265 E.07435
G1 X168.822 Y123.472 E.07435
G1 X167.846 Y125.634 E.07435
G1 X166.765 Y127.744 E.07435
G1 X165.579 Y129.797 E.07435
G1 X164.293 Y131.789 E.07435
G1 X162.908 Y133.714 E.07435
G1 X161.43 Y135.568 E.07435
G1 X159.861 Y137.346 E.07435
G1 X158.205 Y139.044 E.07435
G1 X156.467 Y140.657 E.07435
G1 X154.651 Y142.181 E.07435
G1 X152.76 Y143.612 E.07435
G1 X150.801 Y144.948 E.07435
G1 X148.778 Y146.185 E.07435
G1 X146.695 Y147.319 E.07435
G1 X144.559 Y148.347 E.07435
G1 X142.374 Y149.269 E.07435
G1 X140.146 Y150.08 E.07435
G1 X137.88 Y150.778 E.07435
G1 X135.582 Y151.364 E.07435
G1 X133.258 Y151.833 E.07435
G1 X130.913 Y152.187 E.07435
G1 X128.554 Y152.423 E.07435
G1 X126.186 Y152.541 E.07434
G1 X123.814 Y152.541 E.07435
G1 X121.446 Y152.423 E.07434
G1 X119.087 Y152.187 E.07435
G1 X116.742 Y151.833 E.07435
G1 X114.418 Y151.364 E.07435
G1 X112.12 Y150.778 E.07435
G1 X109.854 Y150.08 E.07435
G1 X107.926 Y149.378 E.06433
M204 S1000
;WIPE_START
G1 F8640
G1 X105.441 Y148.347 E-.62118
G1 X104.899 Y148.087 E-.13882
;WIPE_END
G1 E-.04 F2100
G1 Z.6 F720
G1 X84.525 Y79.347 F10800
G1 Z.2 F720
G1 E.8 F2100
M204 S800
;TYPE:External perimeter
G1 F1200
G1 X85.396 Y77.998 E.05035
G1 X86.791 Y76.058 E.07494
G1 X88.281 Y74.189 E.07494
G1 X89.863 Y72.397 E.07494
G1 X91.531 Y70.686 E.07494
G1 X93.283 Y69.061 E.07494
G1 X95.114 Y67.524 E.07494
G1 X97.019 Y66.081 E.07494
G1 X98.994 Y64.735 E.07494
G1 X101.033 Y63.489 E.07493
G1 X103.132 Y62.346 E.07494
G1 X105.286 Y61.309 E.07494
G1 X107.488 Y60.38 E.07494
G1 X109.734 Y59.563 E.07494
G1 X112.018 Y58.858 E.07494
G1 X114.334 Y58.269 E.07493
G1 X116.676 Y57.795 E.07494
G1 X119.04 Y57.439 E.07494
G1 X121.418 Y57.201 E.07494
G1 X123.805 Y57.082 E.07493
G1 X126.195 Y57.082 E.07494
G1 X128.582 Y57.201 E.07493
G1 X130.96 Y57.439 E.07494
G1 X133.324 Y57.795 E.07494
G1 X135.666 Y58.269 E.07494
G1 X137.982 Y58.858 E.07493
G1 X140.266 Y59.563 E.07494
G1 X142.512 Y60.38 E.07494
G1 X144.714 Y61.309 E.07494
G1 X146.868 Y62.346 E.07494
G1 X148.967 Y63.489 E.07494
G1 X151.006 Y64.735 E.07493
G1 X152.981 Y66.081 E.07494
G1 X154.886 Y67.524 E.07494
G1 X156.717 Y69.061 E.07494
G1 X158.469 Y70.686 E.07494
G1 X160.137 Y72.397 E.07494
G1 X161.719 Y74.189 E.07494
G1 X163.209 Y76.058 E.07494
G1 X164.604 Y77.998 E.07494
G1 X165.901 Y80.006 E.07494
G1 X167.096 Y82.076 E.07494
G1 X168.186 Y84.203 E.07494
G1 X169.169 Y86.381 E.07494
G1 X170.042 Y88.606 E.07494
G1 X170.804 Y90.871 E.07494
G1 X171.451 Y93.172 E.07494
G1 X171.983 Y95.502 E.07494
G1 X172.398 Y97.856 E.07494
G1 X172.695 Y100.227 E.07494
G1 X172.874 Y102.611 E.07494
G1 X172.933 Y105 E.07494
G1 X172.874 Y107.389 E.07494
G1 X172.695 Y109.773 E.07494
G1 X172.398 Y112.144 E.07494
G1 X171.983 Y114.498 E.07494
G1 X171.451 Y116.828 E.07494
G1 X170.804 Y119.129 E.07494
G1 X170.042 Y121.394 E.07494
G1 X169.169 Y123.619 E.07494
G1 X168.186 Y125.797 E.07494
G1 X167.096 Y127.924 E.07494
G1 X165.901 Y129.994 E.07494
G1 X164.604 Y132.002 E.07494
G1 X163.209 Y133.942 E.07494
G1 X161.719 Y135.811 E.07494
G1 X160.137 Y137.603 E.07494
G1 X158.469 Y139.314 E.07494
G1 X156.717 Y140.939 E.07494
G1 X154.886 Y142.476 E.07494
G1 X152.981 Y143.919 E.07494
G1 X151.006 Y145.265 E.07494
G1 X148.967 Y146.511 E.07493
G1 X146.868 Y147.654 E.07494
G1 X144.714 Y148.691 E.07494
G1 X142.512 Y149.62 E.07494
G1 X140.266 Y150.437 E.07494
G1 X137.982 Y151.142 E.07494
G1 X135.666 Y151.731 E.07493
G1 X133.324 Y152.205 E.07494
G1 X130.96 Y152.561 E.07494
G1 X128.582 Y152.799 E.07494
G1 X126.195 Y152.918 E.07493
G1 X123.805 Y152.918 E.07494
G1 X121.418 Y152.799 E.07493
G1 X119.04 Y152.561 E.07494
G1 X116.676 Y152.205 E.07494
G1 X114.334 Y151.731 E.07494
G1 X112.018 Y151.142 E.07493
G1 X109.734 Y150.437 E.07494
G1 X107.488 Y149.62 E.07494
G1 X105.286 Y148.691 E.07494
G1 X103.132 Y147.654 E.07494
M73 Q0 S157
G1 X101.033 Y146.511 E.07494
G1 X98.994 Y145.265 E.07493
G1 X97.019 Y143.919 E.07494
G1 X95.114 Y142.476 E.07494
G1 X93.283 Y140.939 E.07494
G1 X91.531 Y139.314 E.07494
G1 X89.863 Y137.603 E.07494
G1 X88.281 Y135.811 E.07494
G1 X86.791 Y133.942 E.07494
G1 X85.396 Y132.002 E.07494
G1 X84.099 Y129.994 E.07494
