; generated by PrusaSlicer 2.5.0+win64 on 2022-11-04 at 13:49:55 UTC


;
;
; 

; external perimeters extrusion width = 0.45mm
; perimeters extrusion width = 0.45mm
; infill extrusion width = 0.45mm
; solid infill extrusion width = 0.45mm
; top infill extrusion width = 0.40mm
; first layer extrusion width = 0.42mm

M73 P0 R157
M73 Q0 S159
M201 X1000 Y1000 Z200 E5000 ; sets maximum accelerations, mm/sec^2
M203 X200 Y200 Z12 E120 ; sets maximum feedrates, mm / sec
M204 P1250 R1250 T1250 ; sets acceleration (P, T) and retract acceleration (R), mm/sec^2
M205 X8.00 Y8.00 Z0.40 E4.50 ; sets the jerk limits, mm/sec
M205 S0 T0 ; sets the minimum extruding and travel feed rate, mm/sec
M107
;TYPE:Custom
M862.3 P "MK3S" ; printer model check
M862.1 P0.4 ; nozzle diameter check
M115 U3.11.0 ; tell printer latest fw version
G90 ; use absolute coordinates
M83 ; extruder relative mode
M104 S210 ; set extruder temp
M140 S60 ; set bed temp
M190 S60 ; wait for bed temp
M109 S210 ; wait for extruder temp
G28 W ; home all without mesh bed level
G80 ; mesh bed leveling

G1 Z0.2 F720
G1 Y-3 F1000 ; go outside print area
G92 E0
G1 X60 E9 F1000 ; intro line
G1 X100 E12.5 F1000 ; intro line

G92 E0
M221 S95

; Don't change E values below. Excessive value can damage the printer.
M907 E430 ; set extruder motor current
G21 ; set units to millimeters
G90 ; use absolute coordinates
M83 ; use relative distances for extrusion
M900 K0.05 ; Filament gcode LA 1.5
M900 K30 ; Filament gcode LA 1.0
M107
;LAYER_CHANGE
;Z:0.2
;HEIGHT:0.2
;BEFORE_LAYER_CHANGE
G92 E0.0
;0.2


G1 E-.8 F2100
G1 Z.4 F720
;AFTER_LAYER_CHANGE
;0.2
G1 X85.78 Y71.946 F10800
G1 Z.2 F720
G1 E.8 F2100
M204 S800
;TYPE:Skirt/Brim
;WIDTH:0.42
G1 F1200
G1 X87.652 Y69.844 E.08824
G1 X89.589 Y67.894 E.0862
G1 X91.678 Y66.007 E.08824
G1 X93.617 Y64.434 E.07829
G1 X95.049 Y63.362 E.05611
G1 X97.378 Y61.782 E.08824
G1 X99.79 Y60.332 E.08824
G1 X102.219 Y59.045 E.08619
G1 X106.136 Y57.304 E.13438
G1 X108.78 Y56.341 E.08824
G1 X111.41 Y55.542 E.0862
M73 Q0 S158
G1 X115.587 Y54.58 E.13438
G1 X118.302 Y54.148 E.0862
G1 X121.101 Y53.857 E.08824
G1 X125.384 Y53.71 E.13438
G1 X128.197 Y53.808 E.08824
G1 X130.935 Y54.053 E.0862
G1 X133.72 Y54.455 E.08824
G1 X135.478 Y54.793 E.05611
G1 X137.91 Y55.36 E.07829
G1 X140.613 Y56.143 E.08824
G1 X143.269 Y57.073 E.08824
G1 X145.811 Y58.12 E.0862
G1 X149.652 Y60.021 E.13438
G1 X152.082 Y61.441 E.08824
G1 X154.377 Y62.955 E.0862
G1 X157.784 Y65.554 E.13438
G1 X159.851 Y67.367 E.0862
G1 X161.862 Y69.335 E.08824
G1 X164.711 Y72.537 E.13438
G1 X166.432 Y74.764 E.08824
G1 X167.992 Y77.028 E.0862
G1 X169.462 Y79.428 E.08824
G1 X170.798 Y81.905 E.08824
G1 X172.566 Y85.809 E.13438
G1 X173.547 Y88.447 E.08824
G1 X174.364 Y91.071 E.0862
G1 X175.354 Y95.241 E.13438
G1 X175.814 Y98.018 E.08824
G1 X176.12 Y100.815 E.08824
G1 X176.273 Y103.625 E.08824
G1 X176.273 Y106.374 E.08619
G1 X175.979 Y110.65 E.13438
G1 X175.603 Y113.374 E.0862
G1 X175.068 Y116.136 E.08824
G1 X174.382 Y118.866 E.08824
G1 X173.547 Y121.553 E.08824
G1 X171.995 Y125.549 E.13438
G1 X170.798 Y128.095 E.08824
G1 X169.494 Y130.516 E.0862
G1 X167.209 Y134.141 E.13438
G1 X165.587 Y136.361 E.08619
G1 X163.806 Y138.54 E.08824
G1 X160.87 Y141.663 E.13438
G1 X158.805 Y143.575 E.08824
G1 X156.69 Y145.331 E.08619
G1 X153.212 Y147.835 E.13438
G1 X150.82 Y149.318 E.08824
G1 X148.351 Y150.668 E.08824
G1 X145.811 Y151.88 E.08824
G1 X143.269 Y152.927 E.0862
G1 X139.204 Y154.285 E.13438
G1 X136.543 Y154.976 E.0862
G1 X133.785 Y155.533 E.08824
G1 X129.535 Y156.09 E.13438
G1 X126.791 Y156.26 E.0862
G1 X123.977 Y156.281 E.08824
G1 X119.699 Y156.017 E.13438
G1 X116.974 Y155.659 E.0862
G1 X114.207 Y155.143 E.08824
G1 X110.059 Y154.067 E.13438
G1 X107.39 Y153.174 E.08824
G1 X104.774 Y152.135 E.08824
G1 X102.278 Y150.984 E.0862
G1 X99.79 Y149.668 E.08824
G1 X97.378 Y148.218 E.08824
G1 X95.049 Y146.638 E.08824
G1 X91.677 Y143.992 E.13438
G1 X89.589 Y142.106 E.08824
G1 X87.652 Y140.156 E.0862
G1 X84.847 Y136.915 E.13438
G1 X83.157 Y134.664 E.08824
G1 X81.593 Y132.325 E.08824
G1 X80.191 Y129.96 E.08619
G1 X78.89 Y127.465 E.08824
G1 X77.175 Y123.537 E.13438
G1 X76.231 Y120.886 E.08824
G1 X75.45 Y118.25 E.08619
G1 X74.516 Y114.067 E.13438
G1 X74.095 Y111.284 E.08824
G1 X73.832 Y108.548 E.08619
G1 X73.714 Y104.264 E.13438
G1 X73.827 Y101.517 E.0862
G1 X74.095 Y98.716 E.08824
G1 X74.797 Y94.488 E.13438
G1 X75.45 Y91.75 E.08824
G1 X76.251 Y89.052 E.08824
G1 X77.175 Y86.463 E.0862
G1 X78.264 Y83.868 E.08824
G1 X80.191 Y80.04 E.13438
G1 X81.593 Y77.675 E.08619
G1 X83.157 Y75.336 E.08824
G1 X85.743 Y71.993 E.1325
M204 S1000
; printing object plant_saucer-95mm.stl id:0 copy 0
;WIPE_START
G1 F8640
G1 X87.652 Y69.844 E-.66364
G1 X87.946 Y69.548 E-.09635
;WIPE_END
G1 E-.04 F2100
G1 Z.6 F720
G1 X93.771 Y69.642 F10800
G1 Z.2 F720
G1 E.8 F2100
M204 S800
;TYPE:Perimeter
;WIDTH:0.419999
G1 F1200
G1 X94.371 Y69.116 E.02502
G1 X95.526 Y68.164 E.04693
G1 X96.386 Y67.488 E.0343
G1 X97.426 Y66.718 E.04059
G1 X98.487 Y65.976 E.04058
G1 X99.567 Y65.263 E.04059
G1 X100.667 Y64.58 E.04058
G1 X101.785 Y63.928 E.04059
G1 X102.921 Y63.306 E.04058
G1 X104.073 Y62.716 E.04059
G1 X105.241 Y62.158 E.04058
G1 X106.424 Y61.632 E.04059
G1 X107.62 Y61.139 E.04059
G1 X108.83 Y60.679 E.04058
G1 X110.052 Y60.252 E.04059
G1 X111.285 Y59.858 E.04058
G1 X112.529 Y59.499 E.04059
G1 X113.782 Y59.174 E.04059
G1 X115.043 Y58.884 E.04058
G1 X116.312 Y58.628 E.04059
G1 X117.588 Y58.407 E.04058
G1 X118.869 Y58.221 E.04059
G1 X120.154 Y58.071 E.04058
G1 X121.444 Y57.955 E.04058
G1 X122.736 Y57.875 E.04059
G1 X124.026 Y57.831 E.04049
G1 X125.692 Y57.83 E.05222
G1 X126.618 Y57.849 E.02904
G1 X127.911 Y57.911 E.04059
G1 X129.201 Y58.008 E.04058
G1 X130.489 Y58.141 E.04059
G1 X131.773 Y58.31 E.04059
G1 X133.051 Y58.513 E.04058
G1 X134.323 Y58.751 E.04059
G1 X135.588 Y59.025 E.04058
G1 X136.846 Y59.332 E.04059
G1 X138.094 Y59.675 E.04058
G1 X139.333 Y60.051 E.04058
G1 X140.37 Y60.397 E.0343
G1 X141.778 Y60.905 E.04692
G1 X142.98 Y61.381 E.04053
G1 X144.17 Y61.891 E.04058
G1 X145.345 Y62.433 E.04059
G1 X146.326 Y62.918 E.0343
G1 X147.651 Y63.614 E.04692
G1 X148.776 Y64.25 E.04053
G1 X149.885 Y64.918 E.04059
G1 X150.975 Y65.615 E.04058
G1 X152.046 Y66.343 E.04059
G1 X153.096 Y67.099 E.04058
G1 X154.126 Y67.885 E.04059
G1 X155.133 Y68.698 E.04058
G1 X155.965 Y69.408 E.0343
G1 X157.08 Y70.406 E.04692
G1 X158.016 Y71.298 E.04053
G1 X158.928 Y72.216 E.04058
G1 X159.814 Y73.16 E.04059
G1 X160.675 Y74.127 E.04058
G1 X161.508 Y75.117 E.04059
G1 X162.314 Y76.13 E.04058
G1 X163.092 Y77.164 E.04059
G1 X163.842 Y78.22 E.04058
G1 X164.562 Y79.296 E.04059
G1 X165.252 Y80.39 E.04058
G1 X165.912 Y81.504 E.04059
G1 X166.541 Y82.635 E.04058
G1 X167.139 Y83.783 E.04059
G1 X167.705 Y84.947 E.04059
G1 X168.239 Y86.126 E.04059
G1 X168.741 Y87.32 E.04059
G1 X169.137 Y88.34 E.0343
G1 X169.645 Y89.747 E.04693
G1 X170.046 Y90.976 E.04053
G1 X170.414 Y92.217 E.04059
G1 X170.748 Y93.468 E.04058
G1 X171.047 Y94.727 E.04059
G1 X171.311 Y95.994 E.04058
G1 X171.541 Y97.268 E.04059
G1 X171.736 Y98.548 E.04058
G1 X171.895 Y99.833 E.04059
G1 X172.019 Y101.121 E.04058
G1 X172.094 Y102.212 E.03431
G1 X172.161 Y103.707 E.04692
G1 X172.179 Y105 E.04053
G1 X172.161 Y106.294 E.04059
G1 X172.108 Y107.588 E.04058
G1 X172.019 Y108.879 E.04059
G1 X171.895 Y110.167 E.04058
G1 X171.736 Y111.45 E.04053
G1 X171.506 Y112.929 E.04692
G1 X171.311 Y114.006 E.0343
G1 X171.047 Y115.273 E.04058
G1 X170.748 Y116.532 E.04059
G1 X170.414 Y117.783 E.04059
G1 X170.046 Y119.024 E.04059
G1 X169.645 Y120.255 E.04059
G1 X169.209 Y121.474 E.04058
G1 X168.741 Y122.68 E.04059
G1 X168.239 Y123.874 E.04059
G1 X167.705 Y125.053 E.04059
G1 X167.139 Y126.217 E.04059
G1 X166.541 Y127.365 E.04059
G1 X165.912 Y128.496 E.04058
G1 X165.252 Y129.61 E.04059
G1 X164.562 Y130.704 E.04058
G1 X163.842 Y131.78 E.04059
G1 X163.092 Y132.836 E.04058
G1 X162.314 Y133.87 E.04059
G1 X161.508 Y134.883 E.04058
G1 X160.675 Y135.873 E.04059
G1 X159.814 Y136.84 E.04058
G1 X158.929 Y137.782 E.04053
G1 X157.87 Y138.84 E.04692
G1 X157.079 Y139.595 E.0343
G1 X156.117 Y140.462 E.04059
G1 X155.133 Y141.302 E.04059
G1 X154.126 Y142.115 E.04059
G1 X153.096 Y142.901 E.04059
G1 X152.046 Y143.657 E.04058
G1 X150.975 Y144.385 E.04059
G1 X149.885 Y145.082 E.04058
G1 X148.776 Y145.75 E.04059
G1 X147.649 Y146.387 E.04058
G1 X146.505 Y146.993 E.04059
G1 X145.345 Y147.567 E.04059
G1 X144.17 Y148.109 E.04059
G1 X142.98 Y148.619 E.04058
G1 X141.776 Y149.095 E.04059
G1 X140.56 Y149.539 E.04059
G1 X139.333 Y149.949 E.04059
G1 X138.094 Y150.325 E.04058
G1 X136.846 Y150.668 E.04058
G1 X135.588 Y150.975 E.04059
G1 X134.323 Y151.249 E.04058
G1 X133.051 Y151.487 E.04059
G1 X131.772 Y151.69 E.04059
G1 X130.491 Y151.858 E.04053
G1 X129.002 Y152.007 E.04692
G1 X127.911 Y152.089 E.0343
G1 X126.618 Y152.151 E.04059
G1 X125.324 Y152.178 E.04058
G1 X124.029 Y152.169 E.04059
G1 X122.736 Y152.125 E.04059
G1 X121.644 Y152.057 E.0343
G1 X120.153 Y151.929 E.04692
G1 X118.869 Y151.779 E.04053
G1 X117.588 Y151.593 E.04059
G1 X116.312 Y151.372 E.04058
G1 X115.043 Y151.116 E.04059
G1 X113.782 Y150.826 E.04058
G1 X112.529 Y150.501 E.04059
G1 X111.285 Y150.142 E.04059
G1 X110.052 Y149.748 E.04058
G1 X108.83 Y149.321 E.04059
G1 X107.622 Y148.862 E.04053
G1 X106.24 Y148.286 E.04692
G1 X105.241 Y147.842 E.0343
G1 X104.073 Y147.284 E.04059
G1 X102.921 Y146.694 E.04059
G1 X101.785 Y146.072 E.04058
G1 X100.667 Y145.42 E.04059
G1 X99.567 Y144.737 E.04058
G1 X98.487 Y144.024 E.04059
G1 X97.426 Y143.282 E.04058
G1 X96.386 Y142.512 E.04059
G1 X95.368 Y141.712 E.04059
G1 X94.372 Y140.886 E.04059
G1 X93.399 Y140.032 E.04059
G1 X92.45 Y139.152 E.04058
G1 X91.525 Y138.246 E.04059
G1 X90.626 Y137.315 E.04058
G1 X89.752 Y136.36 E.04058
G1 X88.905 Y135.381 E.04059
G1 X88.085 Y134.379 E.04059
G1 X87.293 Y133.356 E.04059
G1 X86.529 Y132.311 E.04058
G1 X85.795 Y131.245 E.04059
G1 X85.089 Y130.159 E.04059
G1 X84.414 Y129.055 E.04059
G1 X83.77 Y127.933 E.04058
G1 X83.156 Y126.793 E.04058
G1 X82.664 Y125.816 E.0343
G1 X82.023 Y124.463 E.04692
G1 X81.506 Y123.279 E.04053
G1 X81.021 Y122.078 E.04059
G1 X80.569 Y120.866 E.04058
G1 X80.15 Y119.641 E.04059
G1 X79.765 Y118.405 E.04059
G1 X79.415 Y117.159 E.04058
G1 X79.098 Y115.903 E.04059
G1 X78.816 Y114.64 E.04058
G1 X78.569 Y113.37 E.04058
G1 X78.357 Y112.093 E.04059
G1 X78.208 Y111.009 E.0343
G1 X78.038 Y109.522 E.04692
G1 X77.932 Y108.234 E.04053
G1 X77.861 Y106.941 E.04058
G1 X77.825 Y105.647 E.04059
G1 X77.825 Y104.353 E.04059
G1 X77.861 Y103.059 E.04059
G1 X77.932 Y101.766 E.04058
G1 X78.038 Y100.476 E.04059
G1 X78.18 Y99.19 E.04059
G1 X78.357 Y97.907 E.04059
G1 X78.569 Y96.63 E.04059
G1 X78.816 Y95.36 E.04058
G1 X79.098 Y94.097 E.04058
G1 X79.415 Y92.841 E.04059
G1 X79.765 Y91.595 E.04058
G1 X80.15 Y90.359 E.04059
G1 X80.569 Y89.134 E.04059
G1 X81.021 Y87.922 E.04058
G1 X81.506 Y86.721 E.04059
G1 X82.024 Y85.535 E.04058
G1 X82.574 Y84.363 E.04059
G1 X83.156 Y83.207 E.04059
G1 X83.77 Y82.067 E.04058
G1 X84.414 Y80.945 E.04059
G1 X85.089 Y79.841 E.04059
G1 X85.795 Y78.755 E.04059
G1 X86.529 Y77.689 E.04059
G1 X87.293 Y76.644 E.04058
G1 X88.085 Y75.621 E.04059
G1 X88.905 Y74.619 E.04059
G1 X89.752 Y73.64 E.04059
G1 X90.626 Y72.685 E.04058
G1 X91.525 Y71.754 E.04058
G1 X92.45 Y70.848 E.04059
G1 X93.726 Y69.681 E.05421
M204 S1000
;WIPE_START
G1 F8640
G1 X94.371 Y69.116 E-.19811
G1 X95.526 Y68.164 E-.34558
G1 X96.263 Y67.585 E-.21631
;WIPE_END
G1 E-.04 F2100
G1 Z.6 F720
G1 X90.439 Y137.665 F10800
G1 Z.2 F720
G1 E.8 F2100
M204 S800
G1 F1200
G1 X89.47 Y136.611 E.04489
G1 X88.617 Y135.624 E.04091
G1 X87.79 Y134.614 E.04091
G1 X86.992 Y133.582 E.04091
G1 X86.222 Y132.529 E.04091
G1 X85.481 Y131.455 E.04091
G1 X84.77 Y130.361 E.04091
G1 X84.09 Y129.247 E.04091
G1 X83.44 Y128.116 E.04091
G1 X82.821 Y126.967 E.04091
G1 X82.325 Y125.981 E.03461
G1 X81.68 Y124.62 E.04725
G1 X81.158 Y123.425 E.04088
G1 X80.669 Y122.215 E.04091
G1 X80.214 Y120.992 E.04091
G1 X79.792 Y119.758 E.04091
G1 X79.404 Y118.512 E.04091
G1 X79.05 Y117.256 E.04091
G1 X78.731 Y115.991 E.04091
G1 X78.447 Y114.717 E.04091
G1 X78.198 Y113.436 E.04091
M73 P0 R156
G1 X77.984 Y112.149 E.04091
G1 X77.833 Y111.056 E.0346
G1 X77.663 Y109.559 E.04725
G1 X77.556 Y108.259 E.04088
G1 X77.484 Y106.957 E.04091
G1 X77.448 Y105.652 E.04091
G1 X77.448 Y104.348 E.04091
G1 X77.484 Y103.043 E.04091
G1 X77.556 Y101.741 E.04091
G1 X77.663 Y100.44 E.04091
G1 X77.806 Y99.143 E.04091
G1 X77.984 Y97.851 E.04091
G1 X78.198 Y96.564 E.04091
G1 X78.447 Y95.283 E.04091
G1 X78.731 Y94.009 E.04091
G1 X79.05 Y92.744 E.04091
G1 X79.404 Y91.488 E.04091
G1 X79.792 Y90.242 E.04091
G1 X80.214 Y89.008 E.04091
G1 X80.669 Y87.785 E.04091
G1 X81.158 Y86.575 E.04091
G1 X81.68 Y85.38 E.04091
G1 X82.235 Y84.198 E.04091
G1 X82.821 Y83.033 E.04091
G1 X83.44 Y81.884 E.04091
G1 X84.09 Y80.753 E.04091
G1 X84.77 Y79.639 E.04091
G1 X85.481 Y78.545 E.04091
G1 X86.222 Y77.471 E.04091
G1 X86.992 Y76.418 E.04091
G1 X87.79 Y75.386 E.04091
G1 X88.617 Y74.376 E.04091
G1 X89.47 Y73.389 E.04091
G1 X90.351 Y72.427 E.04091
G1 X91.258 Y71.488 E.04091
G1 X92.19 Y70.575 E.04092
G1 X93.146 Y69.688 E.04091
G1 X94.126 Y68.828 E.04088
G1 X95.289 Y67.87 E.04725
G1 X96.158 Y67.189 E.0346
G1 X97.206 Y66.412 E.04091
G1 X98.275 Y65.664 E.04091
G1 X99.364 Y64.945 E.04091
G1 X100.473 Y64.257 E.04091
G1 X101.6 Y63.599 E.04091
G1 X102.744 Y62.973 E.04091
G1 X103.906 Y62.378 E.04091
G1 X105.083 Y61.816 E.04091
G1 X106.275 Y61.286 E.04091
G1 X107.481 Y60.788 E.04091
G1 X108.701 Y60.324 E.04091
G1 X109.933 Y59.894 E.04091
G1 X111.176 Y59.498 E.04091
G1 X112.429 Y59.135 E.04091
G1 X113.692 Y58.808 E.04091
G1 X114.964 Y58.515 E.04091
G1 X116.243 Y58.257 E.04091
G1 X117.528 Y58.035 E.04091
G1 X118.82 Y57.847 E.04092
G1 X120.116 Y57.695 E.04091
G1 X121.415 Y57.579 E.04091
G1 X122.717 Y57.499 E.04091
G1 X124.02 Y57.454 E.04085
G1 X125.695 Y57.453 E.05254
G1 X126.631 Y57.472 E.02933
G1 X127.934 Y57.535 E.04091
G1 X129.235 Y57.633 E.04091
G1 X130.533 Y57.767 E.04091
G1 X131.827 Y57.936 E.04091
G1 X133.115 Y58.141 E.04091
G1 X134.398 Y58.382 E.04091
G1 X135.673 Y58.657 E.04091
G1 X136.94 Y58.967 E.04092
G1 X138.199 Y59.312 E.04091
G1 X139.447 Y59.692 E.04091
G1 X140.494 Y60.041 E.0346
G1 X141.911 Y60.552 E.04725
G1 X143.124 Y61.033 E.04088
G1 X144.323 Y61.547 E.04091
G1 X145.508 Y62.093 E.04091
G1 X146.497 Y62.583 E.0346
G1 X147.831 Y63.283 E.04725
G1 X148.966 Y63.924 E.04088
G1 X150.084 Y64.597 E.04091
G1 X151.183 Y65.301 E.04091
G1 X152.262 Y66.034 E.04091
G1 X153.321 Y66.796 E.04091
G1 X154.358 Y67.588 E.04092
G1 X155.374 Y68.407 E.04091
G1 X156.213 Y69.124 E.0346
G1 X157.336 Y70.129 E.04725
G1 X158.279 Y71.029 E.04088
G1 X159.199 Y71.954 E.04091
G1 X160.093 Y72.905 E.04091
G1 X160.96 Y73.88 E.04091
G1 X161.8 Y74.878 E.04091
G1 X162.613 Y75.899 E.04091
G1 X163.397 Y76.942 E.04091
G1 X164.152 Y78.006 E.04091
G1 X164.878 Y79.09 E.04091
G1 X165.574 Y80.194 E.04091
G1 X166.239 Y81.316 E.04091
G1 X166.873 Y82.456 E.04091
G1 X167.476 Y83.614 E.04091
G1 X168.047 Y84.787 E.04091
G1 X168.585 Y85.976 E.04091
G1 X169.091 Y87.178 E.04091
G1 X169.49 Y88.207 E.0346
G1 X170.002 Y89.625 E.04725
G1 X170.406 Y90.864 E.04087
G1 X170.777 Y92.115 E.04091
G1 X171.113 Y93.376 E.04091
G1 X171.415 Y94.645 E.04091
G1 X171.682 Y95.922 E.04091
G1 X171.913 Y97.206 E.04092
G1 X172.109 Y98.496 E.04091
G1 X172.27 Y99.791 E.04091
G1 X172.395 Y101.09 E.04091
G1 X172.471 Y102.191 E.03461
G1 X172.538 Y103.696 E.04725
G1 X172.556 Y105 E.04088
G1 X172.538 Y106.305 E.04091
G1 X172.484 Y107.608 E.04091
G1 X172.395 Y108.91 E.04092
G1 X172.27 Y110.209 E.0409
G1 X172.109 Y111.503 E.04088
G1 X171.877 Y112.992 E.04725
G1 X171.682 Y114.078 E.03461
G1 X171.415 Y115.355 E.04091
G1 X171.113 Y116.624 E.04091
G1 X170.777 Y117.885 E.04091
G1 X170.406 Y119.136 E.04091
G1 X170.002 Y120.376 E.04091
G1 X169.563 Y121.605 E.04091
G1 X169.091 Y122.822 E.04091
G1 X168.585 Y124.024 E.04091
G1 X168.047 Y125.213 E.04091
G1 X167.476 Y126.386 E.04091
G1 X166.873 Y127.544 E.04091
G1 X166.239 Y128.684 E.04091
G1 X165.574 Y129.806 E.04091
G1 X164.878 Y130.91 E.04091
