; generated by PrusaSlicer 2.5.0+win64 on 2022-10-12 at 15:57:39 UTC


;
;
; 

; external perimeters extrusion width = 0.45mm
; perimeters extrusion width = 0.45mm
; infill extrusion width = 0.45mm
; solid infill extrusion width = 0.45mm
; top infill extrusion width = 0.40mm
; first layer extrusion width = 0.42mm

; external perimeters extrusion width = 0.45mm
; perimeters extrusion width = 0.45mm
; infill extrusion width = 0.45mm
; solid infill extrusion width = 0.45mm
; top infill extrusion width = 0.40mm
; first layer extrusion width = 0.42mm

M73 P0 R309
M73 Q0 S310
M201 X1000 Y1000 Z200 E5000 ; sets maximum accelerations, mm/sec^2
M203 X200 Y200 Z12 E120 ; sets maximum feedrates, mm / sec
M204 P1250 R1250 T1250 ; sets acceleration (P, T) and retract acceleration (R), mm/sec^2
M205 X8.00 Y8.00 Z0.40 E4.50 ; sets the jerk limits, mm/sec
M205 S0 T0 ; sets the minimum extruding and travel feed rate, mm/sec
M107
;TYPE:Custom
M862.3 P "MK3S" ; printer model check
M862.1 P0.4 ; nozzle diameter check
M115 U3.11.0 ; tell printer latest fw version
G90 ; use absolute coordinates
M83 ; extruder relative mode
M104 S210 ; set extruder temp
M140 S60 ; set bed temp
M190 S60 ; wait for bed temp
M109 S210 ; wait for extruder temp
G28 W ; home all without mesh bed level
G80 ; mesh bed leveling

G1 Z0.2 F720
G1 Y-3 F1000 ; go outside print area
G92 E0
G1 X60 E9 F1000 ; intro line
G1 X100 E12.5 F1000 ; intro line

G92 E0
M221 S95

; Don't change E values below. Excessive value can damage the printer.
M907 E430 ; set extruder motor current
G21 ; set units to millimeters
G90 ; use absolute coordinates
M83 ; use relative distances for extrusion
M900 K0.05 ; Filament gcode LA 1.5
M900 K30 ; Filament gcode LA 1.0
M107
;LAYER_CHANGE
;Z:0.2
;HEIGHT:0.2
;BEFORE_LAYER_CHANGE
G92 E0.0
;0.2


M73 P0 R308
G1 E-.8 F2100
G1 Z.4 F720
;AFTER_LAYER_CHANGE
;0.2
G1 X84.085 Y68.111 F10800
G1 Z.2 F720
G1 E.8 F2100
M204 S800
;TYPE:Skirt/Brim
;WIDTH:0.42
G1 F1200
G1 X94.653 Y55.065 E.52644
G1 X95.78 Y54.295 E.04278
G1 X96.5 Y54.184 E.02285
G1 X153.5 Y54.184 E1.7872
G1 X154.807 Y54.575 E.04278
G1 X155.347 Y55.065 E.02285
G1 X170.147 Y73.336 E.73724
G1 X170.677 Y74.832 E.04977
G1 X170.677 Y135.168 E1.89181
G1 X169.981 Y136.849 E.05704
G1 X156.849 Y149.981 E.58228
G1 X155.168 Y150.677 E.05704
G1 X94.832 Y150.677 E1.89181
G1 X93.151 Y149.981 E.05704
G1 X80.019 Y136.849 E.58228
G1 X79.323 Y135.168 E.05704
G1 X79.323 Y74.832 E1.89181
G1 X79.853 Y73.336 E.04977
G1 X84.047 Y68.158 E.20892
M204 S1000
; printing object cockpit_clock-all.stl id:0 copy 0
;WIPE_START
G1 F8640
G1 X86.119 Y65.6 E-.76
;WIPE_END
G1 E-.04 F2100
G1 Z.6 F720
G1 X153.129 Y62.835 F10800
G1 Z.2 F720
G1 E.8 F2100
M204 S800
;TYPE:Perimeter
;WIDTH:0.419999
G1 F1200
G1 X153.279 Y62.864 E.00479
G1 X154.686 Y62.864 E.04413
G1 X167.136 Y75.314 E.55204
G1 X167.136 Y134.686 E1.86157
G1 X154.686 Y147.136 E.55204
G1 X95.314 Y147.136 E1.86157
G1 X82.864 Y134.686 E.55204
G1 X82.864 Y75.314 E1.86157
G1 X95.314 Y62.864 E.55204
G1 X96.721 Y62.864 E.04413
G1 X97.062 Y62.8 E.01088
G1 X97.383 Y62.593 E.01195
G1 X97.586 Y62.298 E.01124
G1 X97.664 Y61.921 E.01206
G1 X97.664 Y57.839 E.12802
G1 X152.336 Y57.839 E1.71419
G1 X152.336 Y61.921 E.12802
G1 X152.414 Y62.298 E.01206
G1 X152.617 Y62.593 E.01124
G1 X152.924 Y62.795 E.0115
G1 X153.07 Y62.823 E.00466
M204 S1000
G1 X153.195 Y62.467 F10800
M204 S800
G1 F1200
G1 X153.279 Y62.487 E.0027
G1 X154.842 Y62.487 E.04903
G1 X167.513 Y75.158 E.56184
G1 X167.513 Y134.842 E1.87136
G1 X154.842 Y147.513 E.56184
G1 X95.158 Y147.513 E1.87136
G1 X82.487 Y134.842 E.56184
M73 Q0 S309
G1 X82.487 Y75.158 E1.87136
G1 X95.158 Y62.487 E.56184
G1 X96.833 Y62.476 E.05253
G1 X97.025 Y62.399 E.00647
G1 X97.216 Y62.197 E.00872
G1 X97.287 Y61.921 E.00892
G1 X97.287 Y57.461 E.13984
G1 X152.713 Y57.461 E1.73784
G1 X152.72 Y62.012 E.14268
G1 X152.811 Y62.24 E.0077
G1 X153.019 Y62.424 E.00868
G1 X153.137 Y62.453 E.0038
M204 S1000
G1 X153.279 Y62.11 F10800
M204 S800
;TYPE:External perimeter
G1 F1200
G1 X154.998 Y62.11 E.05393
G1 X167.89 Y75.002 E.57163
G1 X167.89 Y134.998 E1.88116
G1 X154.998 Y147.89 E.57163
G1 X95.002 Y147.89 E1.88116
G1 X82.11 Y134.998 E.57163
M73 P0 R307
G1 X82.11 Y75.002 E1.88116
G1 X95.002 Y62.11 E.57163
G1 X96.721 Y62.11 E.05393
G1 X96.839 Y62.069 E.00391
G1 X96.91 Y61.921 E.00513
G1 X96.91 Y57.084 E.15166
G1 X153.09 Y57.084 E1.76148
G1 X153.09 Y61.921 E.15166
G1 X153.134 Y62.042 E.00402
G1 X153.224 Y62.085 E.00314
M204 S1000
G1 X153.382 Y62.496 F10800
;WIPE_START
G1 F8640
G1 X154.998 Y62.11 E-.40972
G1 X156.071 Y63.183 E-.35028
;WIPE_END
G1 E-.04 F2100
G1 Z.6 F720
G1 X114.113 Y75.536 F10800
G1 Z.2 F720
G1 E.8 F2100
M204 S800
;TYPE:Perimeter
G1 F1200
G1 X114.425 Y74.779 E.02568
G1 X114.68 Y74.264 E.01802
G1 X114.961 Y73.762 E.01802
G1 X115.265 Y73.275 E.01802
G1 X115.594 Y72.803 E.01802
G1 X115.945 Y72.348 E.01802
G1 X116.318 Y71.911 E.01802
G1 X116.712 Y71.493 E.01802
G1 X117.144 Y71.079 E.01877
G1 X117.559 Y70.717 E.01726
G1 X118.011 Y70.362 E.01802
G1 X118.479 Y70.029 E.01802
G1 X118.963 Y69.72 E.01802
G1 X119.462 Y69.434 E.01802
G1 X119.975 Y69.174 E.01802
G1 X120.499 Y68.939 E.01802
G1 X121.035 Y68.731 E.01802
G1 X121.58 Y68.549 E.01802
G1 X122.133 Y68.394 E.01802
G1 X122.693 Y68.266 E.01802
G1 X123.259 Y68.167 E.01802
G1 X123.83 Y68.095 E.01802
G1 X124.691 Y68.044 E.02705
G1 X125.536 Y68.049 E.0265
G1 X126.124 Y68.09 E.0185
G1 X126.695 Y68.16 E.01802
G1 X127.261 Y68.257 E.01802
G1 X127.822 Y68.383 E.01802
G1 X128.376 Y68.535 E.01802
G1 X128.922 Y68.715 E.01802
G1 X129.458 Y68.922 E.01802
G1 X130.005 Y69.165 E.01877
G1 X130.497 Y69.412 E.01726
G1 X130.997 Y69.696 E.01802
G1 X131.482 Y70.003 E.01802
G1 X131.952 Y70.334 E.01802
G1 X132.405 Y70.688 E.01802
G1 X132.84 Y71.064 E.01802
G1 X133.255 Y71.46 E.01802
G1 X133.667 Y71.895 E.01877
G1 X134.026 Y72.312 E.01726
G1 X134.379 Y72.766 E.01802
G1 X134.858 Y73.473 E.02677
G1 X135.29 Y74.209 E.02677
G1 X135.555 Y74.737 E.01851
G1 X135.887 Y75.536 E.02713
G1 X149.047 Y75.536 E.41262
G1 X149.385 Y75.599 E.01079
G1 X149.639 Y75.745 E.0092
G1 X149.713 Y75.812 E.00313
G1 X154.188 Y80.287 E.19841
G1 X154.392 Y80.592 E.01153
G1 X154.464 Y80.953 E.01153
G1 X154.464 Y129.047 E1.50794
G1 X154.392 Y129.408 E.01153
G1 X154.251 Y129.644 E.00864
G1 X154.188 Y129.713 E.00294
G1 X149.713 Y134.188 E.19841
G1 X149.408 Y134.392 E.01153
G1 X149.047 Y134.464 E.01153
G1 X100.953 Y134.464 E1.50794
G1 X100.592 Y134.392 E.01153
G1 X100.287 Y134.188 E.01153
G1 X95.812 Y129.713 E.19841
G1 X95.608 Y129.408 E.01153
G1 X95.536 Y129.047 E.01153
G1 X95.536 Y80.953 E1.50794
G1 X95.608 Y80.592 E.01153
G1 X95.812 Y80.287 E.01153
G1 X100.287 Y75.812 E.19841
G1 X100.527 Y75.638 E.0093
G1 X100.87 Y75.54 E.0112
G1 X114.053 Y75.536 E.41335
M204 S1000
G1 X114.379 Y75.913 F10800
M204 S800
G1 F1200
G1 X114.558 Y75.414 E.01663
G1 X114.771 Y74.93 E.01657
G1 X115.018 Y74.432 E.01744
G1 X115.289 Y73.947 E.01743
G1 X115.585 Y73.475 E.01743
G1 X115.903 Y73.019 E.01744
G1 X116.243 Y72.579 E.01743
G1 X116.604 Y72.157 E.01744
G1 X116.986 Y71.752 E.01743
G1 X117.404 Y71.352 E.01817
G1 X117.806 Y71.002 E.0167
G1 X118.244 Y70.659 E.01744
G1 X118.697 Y70.337 E.01744
G1 X119.166 Y70.038 E.01743
G1 X119.649 Y69.762 E.01743
G1 X120.145 Y69.511 E.01743
G1 X120.653 Y69.284 E.01744
G1 X121.171 Y69.082 E.01743
G1 X121.698 Y68.907 E.01744
G1 X122.234 Y68.757 E.01744
G1 X122.776 Y68.634 E.01743
G1 X123.324 Y68.538 E.01743
G1 X123.876 Y68.469 E.01744
G1 X124.712 Y68.42 E.02627
G1 X125.533 Y68.426 E.02572
G1 X126.097 Y68.466 E.01772
G1 X126.649 Y68.534 E.01744
G1 X127.196 Y68.629 E.01743
G1 X127.739 Y68.75 E.01743
G1 X128.275 Y68.899 E.01744
G1 X128.803 Y69.073 E.01744
G1 X129.322 Y69.273 E.01744
G1 X129.851 Y69.509 E.01816
G1 X130.327 Y69.749 E.0167
G1 X130.81 Y70.023 E.01744
G1 X131.28 Y70.321 E.01743
G1 X131.734 Y70.642 E.01743
G1 X132.172 Y70.985 E.01744
G1 X132.593 Y71.348 E.01743
G1 X132.995 Y71.733 E.01744
G1 X133.393 Y72.154 E.01816
G1 X133.74 Y72.558 E.0167
G1 X134.081 Y72.997 E.01744
G1 X134.546 Y73.684 E.02599
G1 X134.964 Y74.399 E.02599
G1 X135.218 Y74.905 E.01773
G1 X135.442 Y75.414 E.01744
G1 X135.621 Y75.913 E.01663
G1 X149.047 Y75.913 E.42095
G1 X149.303 Y75.974 E.00825
G1 X149.447 Y76.079 E.00558
G1 X153.921 Y80.553 E.19841
G1 X154.062 Y80.788 E.00859
G1 X154.087 Y80.953 E.00523
G1 X154.087 Y129.047 E1.50794
G1 X154.021 Y129.313 E.00859
G1 X153.921 Y129.447 E.00523
G1 X149.447 Y133.921 E.19841
G1 X149.212 Y134.062 E.00859
G1 X149.047 Y134.087 E.00523
G1 X100.953 Y134.087 E1.50794
G1 X100.687 Y134.021 E.00859
G1 X100.553 Y133.921 E.00523
G1 X96.079 Y129.447 E.19841
G1 X95.938 Y129.212 E.00859
G1 X95.913 Y129.047 E.00523
G1 X95.913 Y80.953 E1.50794
G1 X95.979 Y80.687 E.00859
G1 X96.079 Y80.553 E.00523
G1 X100.553 Y76.079 E.19841
G1 X100.8 Y75.934 E.00898
G1 X101.818 Y75.913 E.0319
G1 X114.319 Y75.913 E.39197
M204 S1000
G1 X114.644 Y76.29 F10800
M204 S800
;TYPE:External perimeter
G1 F1200
G1 X114.899 Y75.577 E.02372
G1 X115.116 Y75.081 E.01698
G1 X115.355 Y74.6 E.01685
G1 X115.618 Y74.131 E.01685
G1 X115.904 Y73.676 E.01685
G1 X116.212 Y73.235 E.01685
G1 X116.541 Y72.81 E.01685
G1 X116.89 Y72.402 E.01685
G1 X117.26 Y72.011 E.01685
G1 X117.665 Y71.625 E.01756
G1 X118.054 Y71.287 E.01614
G1 X118.476 Y70.955 E.01685
G1 X118.915 Y70.645 E.01685
G1 X119.368 Y70.356 E.01685
G1 X119.835 Y70.09 E.01685
G1 X120.315 Y69.847 E.01685
G1 X120.806 Y69.628 E.01685
G1 X121.307 Y69.434 E.01685
G1 X121.817 Y69.265 E.01685
G1 X122.335 Y69.121 E.01685
G1 X122.859 Y69.002 E.01685
G1 X123.389 Y68.91 E.01685
G1 X123.922 Y68.843 E.01686
G1 X124.734 Y68.797 E.02549
G1 X125.53 Y68.803 E.02495
G1 X126.069 Y68.842 E.01695
G1 X126.602 Y68.908 E.01685
G1 X127.132 Y69 E.01685
G1 X127.656 Y69.118 E.01685
G1 X128.174 Y69.262 E.01685
G1 X128.684 Y69.431 E.01685
G1 X129.186 Y69.625 E.01685
G1 X129.697 Y69.853 E.01756
G1 X130.156 Y70.085 E.01614
G1 X130.624 Y70.351 E.01685
G1 X131.077 Y70.639 E.01685
G1 X131.516 Y70.95 E.01685
G1 X131.939 Y71.281 E.01685
G1 X132.345 Y71.633 E.01685
G1 X132.734 Y72.005 E.01686
G1 X133.118 Y72.412 E.01756
G1 X133.453 Y72.803 E.01615
G1 X133.783 Y73.228 E.01686
G1 X134.233 Y73.894 E.02522
G1 X134.639 Y74.589 E.02522
G1 X134.88 Y75.073 E.01696
G1 X135.096 Y75.565 E.01686
G1 X135.356 Y76.29 E.02414
G1 X149.047 Y76.29 E.42928
G1 X149.18 Y76.345 E.00452
G1 X153.655 Y80.82 E.19841
G1 X153.71 Y80.953 E.00452
G1 X153.71 Y129.047 E1.50794
G1 X153.655 Y129.18 E.00452
G1 X149.18 Y133.655 E.19841
G1 X149.047 Y133.71 E.00452
G1 X100.953 Y133.71 E1.50794
G1 X100.82 Y133.655 E.00452
G1 X96.345 Y129.18 E.19841
G1 X96.29 Y129.047 E.00452
G1 X96.29 Y80.953 E1.50794
G1 X96.345 Y80.82 E.00452
G1 X100.82 Y76.345 E.19841
G1 X100.953 Y76.29 E.00452
G1 X114.584 Y76.29 E.4274
M204 S1000
G1 X114.528 Y75.907 F10800
;WIPE_START
M73 Q0 S308
G1 F8640
G1 X114.899 Y75.577 E-.17984
G1 X115.116 Y75.081 E-.12505
G1 X115.355 Y74.6 E-.12411
G1 X115.618 Y74.131 E-.12411
G1 X115.904 Y73.676 E-.12411
G1 X116.109 Y73.382 E-.08279
;WIPE_END
G1 E-.04 F2100
G1 Z.6 F720
G1 X167.023 Y75.655 F10800
G1 Z.2 F720
G1 E.8 F2100
M204 S800
;TYPE:Solid infill
;WIDTH:0.421073
G1 F1200
G1 X154.514 Y63.147 E.55622
G1 X153.98 Y63.147 E.01682
G1 X166.853 Y76.02 E.57246
G1 X166.853 Y76.555 E.01682
G1 X153.274 Y62.976 E.60382
M204 S1000
;WIPE_START
G1 F8640
G1 X155.602 Y65.304 E-.76
;WIPE_END
G1 E-.04 F2100
G1 Z.6 F720
G1 X152.223 Y58.716 F10800
G1 Z.2 F720
G1 E.8 F2100
M204 S800
G1 F1200
G1 X151.628 Y58.121 E.02645
G1 X151.093 Y58.121 E.01682
G1 X152.053 Y59.081 E.04269
G1 X152.053 Y59.616 E.01682
G1 X150.558 Y58.121 E.06647
G1 X150.024 Y58.121 E.01682
G1 X152.053 Y60.151 E.09025
G1 X152.053 Y60.686 E.01682
G1 X149.489 Y58.121 E.11403
G1 X148.954 Y58.121 E.01682
G1 X152.053 Y61.22 E.13781
G1 X152.053 Y61.755 E.01682
G1 X148.419 Y58.121 E.16159
G1 X147.884 Y58.121 E.01682
G1 X166.853 Y77.09 E.8435
G1 X166.853 Y77.625 E.01682
G1 X147.35 Y58.121 E.86728
G1 X146.815 Y58.121 E.01682
G1 X166.853 Y78.16 E.89106
G1 X166.853 Y78.694 E.01682
G1 X146.28 Y58.121 E.91484
G1 X145.745 Y58.121 E.01682
G1 X166.853 Y79.229 E.93862
G1 X166.853 Y79.764 E.01682
G1 X145.21 Y58.121 E.9624
G1 X144.676 Y58.121 E.01682
M73 P0 R306
G1 X166.853 Y80.299 E.98618
G1 X166.853 Y80.834 E.01682
G1 X144.141 Y58.121 E1.00996
G1 X143.606 Y58.121 E.01682
G1 X166.853 Y81.368 E1.03375
G1 X166.853 Y81.903 E.01682
G1 X143.071 Y58.121 E1.05753
G1 X142.536 Y58.121 E.01682
G1 X166.853 Y82.438 E1.08131
G1 X166.853 Y82.973 E.01682
G1 X142.002 Y58.121 E1.10509
G1 X141.467 Y58.121 E.01682
G1 X166.853 Y83.507 E1.12887
G1 X166.853 Y84.042 E.01682
G1 X140.932 Y58.121 E1.15265
G1 X140.397 Y58.121 E.01682
G1 X166.853 Y84.577 E1.17643
G1 X166.853 Y85.112 E.01682
G1 X139.863 Y58.121 E1.20021
G1 X139.328 Y58.121 E.01682
G1 X166.853 Y85.647 E1.22399
G1 X166.853 Y86.181 E.01682
G1 X138.793 Y58.121 E1.24777
G1 X138.258 Y58.121 E.01682
G1 X166.853 Y86.716 E1.27156
G1 X166.853 Y87.251 E.01682
G1 X137.723 Y58.121 E1.29534
G1 X137.189 Y58.121 E.01682
G1 X166.853 Y87.786 E1.31912
G1 X166.853 Y88.321 E.01682
G1 X136.654 Y58.121 E1.3429
G1 X136.119 Y58.121 E.01682
G1 X166.853 Y88.855 E1.36668
G1 X166.853 Y89.39 E.01682
G1 X135.584 Y58.121 E1.39046
G1 X135.049 Y58.121 E.01682
G1 X166.853 Y89.925 E1.41424
G1 X166.853 Y90.46 E.01682
G1 X134.515 Y58.121 E1.43802
G1 X133.98 Y58.121 E.01682
G1 X166.853 Y90.995 E1.4618
G1 X166.853 Y91.529 E.01682
G1 X133.445 Y58.121 E1.48558
G1 X132.91 Y58.121 E.01682
G1 X166.853 Y92.064 E1.50936
G1 X166.853 Y92.599 E.01682
M73 Q0 S307
G1 X132.375 Y58.121 E1.53315
G1 X131.841 Y58.121 E.01682
G1 X148.972 Y75.253 E.76181
G1 X148.438 Y75.253 E.01682
G1 X131.306 Y58.121 E.76181
G1 X130.771 Y58.121 E.01682
G1 X147.903 Y75.253 E.76181
G1 X147.368 Y75.253 E.01682
G1 X130.236 Y58.121 E.76181
G1 X129.702 Y58.121 E.01682
G1 X146.833 Y75.253 E.76181
G1 X146.299 Y75.253 E.01682
G1 X129.167 Y58.121 E.76181
G1 X128.632 Y58.121 E.01682
G1 X145.764 Y75.253 E.76181
G1 X145.229 Y75.253 E.01682
G1 X128.097 Y58.121 E.76181
G1 X127.562 Y58.121 E.01682
G1 X144.694 Y75.253 E.76181
G1 X144.159 Y75.253 E.01682
M73 P0 R305
G1 X127.028 Y58.121 E.76181
G1 X126.493 Y58.121 E.01682
G1 X143.625 Y75.253 E.76181
G1 X143.09 Y75.253 E.01682
G1 X125.958 Y58.121 E.76181
G1 X125.423 Y58.121 E.01682
M73 P1 R305
M73 Q1 S307
G1 X142.555 Y75.253 E.76181
G1 X142.02 Y75.253 E.01682
G1 X124.888 Y58.121 E.76181
G1 X124.354 Y58.121 E.01682
G1 X141.485 Y75.253 E.76181
G1 X140.951 Y75.253 E.01682
G1 X123.819 Y58.121 E.76181
G1 X123.284 Y58.121 E.01682
G1 X140.416 Y75.253 E.76181
G1 X139.881 Y75.253 E.01682
G1 X122.749 Y58.121 E.76181
G1 X122.214 Y58.121 E.01682
G1 X139.346 Y75.253 E.76181
G1 X138.811 Y75.253 E.01682
G1 X121.68 Y58.121 E.76181
G1 X121.145 Y58.121 E.01682
G1 X138.277 Y75.253 E.76181
G1 X137.742 Y75.253 E.01682
G1 X120.61 Y58.121 E.76181
G1 X120.075 Y58.121 E.01682
G1 X131.923 Y69.969 E.52684
G1 X132.581 Y70.467 E.02595
G1 X133.027 Y70.851 E.01851
G1 X133.494 Y71.299 E.02034
G1 X133.874 Y71.703 E.01745
G1 X134.255 Y72.145 E.01837
G1 X134.727 Y72.773 E.02468
G1 X137.207 Y75.253 E.11029
G1 X136.672 Y75.253 E.01682
G1 X135.588 Y74.169 E.0482
G1 X135.833 Y74.664 E.01735
G1 X136.042 Y75.157 E.01686
G1 X136.307 Y75.423 E.0118
M204 S1000
;WIPE_START
G1 F8640
G1 X136.042 Y75.157 E-.08662
G1 X135.833 Y74.664 E-.12378
G1 X135.588 Y74.169 E-.12744
G1 X136.672 Y75.253 E-.35397
G1 X136.968 Y75.253 E-.06819
;WIPE_END
G1 E-.04 F2100
G1 Z.6 F720
G1 X130.969 Y69.55 F10800
G1 Z.2 F720
G1 E.8 F2100
M204 S800
G1 F1200
G1 X119.541 Y58.121 E.5082
G1 X119.006 Y58.121 E.01682
G1 X129.533 Y68.649 E.46814
G1 X128.692 Y68.342 E.02815
G1 X118.471 Y58.121 E.45451
G1 X117.936 Y58.121 E.01682
G1 X127.936 Y68.121 E.44466
G1 X127.25 Y67.97 E.02208
G1 X117.401 Y58.121 E.43794
G1 X116.867 Y58.121 E.01682
G1 X126.61 Y67.865 E.43327
G1 X126.009 Y67.798 E.01902
G1 X116.332 Y58.121 E.43031
G1 X115.797 Y58.121 E.01682
G1 X125.443 Y67.768 E.42895
G1 X124.904 Y67.763 E.01696
G1 X115.262 Y58.121 E.42875
G1 X114.727 Y58.121 E.01682
G1 X124.384 Y67.778 E.42941
G1 X123.878 Y67.807 E.01593
G1 X114.193 Y58.121 E.43069
