; generated by PrusaSlicer 2.5.0+win64 on 2022-10-03 at 16:50:56 UTC


;
;
; 

; external perimeters extrusion width = 0.45mm
; perimeters extrusion width = 0.45mm
; infill extrusion width = 0.45mm
; solid infill extrusion width = 0.45mm
; top infill extrusion width = 0.40mm
; first layer extrusion width = 0.42mm

M73 P0 R57
M73 Q0 S57
M201 X1000 Y1000 Z200 E5000 ; sets maximum accelerations, mm/sec^2
M203 X200 Y200 Z12 E120 ; sets maximum feedrates, mm / sec
M204 P1250 R1250 T1250 ; sets acceleration (P, T) and retract acceleration (R), mm/sec^2
M205 X8.00 Y8.00 Z0.40 E4.50 ; sets the jerk limits, mm/sec
M205 S0 T0 ; sets the minimum extruding and travel feed rate, mm/sec
M107
;TYPE:Custom
M862.3 P "MK3S" ; printer model check
M862.1 P0.4 ; nozzle diameter check
M115 U3.11.0 ; tell printer latest fw version
G90 ; use absolute coordinates
M83 ; extruder relative mode
M104 S215 ; set extruder temp
M140 S60 ; set bed temp
M190 S60 ; wait for bed temp
M109 S215 ; wait for extruder temp
G28 W ; home all without mesh bed level
G80 ; mesh bed leveling

G1 Z0.2 F720
G1 Y-3 F1000 ; go outside print area
G92 E0
G1 X60 E9 F1000 ; intro line
G1 X100 E12.5 F1000 ; intro line

G92 E0
M221 S95

; Don't change E values below. Excessive value can damage the printer.
M907 E430 ; set extruder motor current
G21 ; set units to millimeters
G90 ; use absolute coordinates
M83 ; use relative distances for extrusion
M900 K0.05 ; Filament gcode LA 1.5
M900 K30 ; Filament gcode LA 1.0
M107
;LAYER_CHANGE
;Z:0.2
;HEIGHT:0.2
;BEFORE_LAYER_CHANGE
G92 E0.0
;0.2


G1 E-.8 F2100
G1 Z.4 F720
;AFTER_LAYER_CHANGE
;0.2
G1 X93.232 Y91.14 F10800
G1 Z.2 F720
G1 E.8 F2100
M204 S800
;TYPE:Skirt/Brim
;WIDTH:0.42
G1 F1200
G1 X94.15 Y90.212 E.04093
G1 X120.15 Y74.212 E.95721
G1 X121.593 Y73.804 E.04704
G1 X124.661 Y73.805 E.09617
G1 X125.258 Y73.863 E.01881
G1 X125.963 Y74.063 E.02298
G1 X126.619 Y74.398 E.0231
G1 X127.167 Y74.825 E.02178
G1 X127.647 Y75.374 E.02285
G1 X127.956 Y75.89 E.01887
G1 X128.217 Y76.578 E.02309
G1 X128.335 Y77.258 E.02162
G1 X128.344 Y102.723 E.79844
G1 X128.221 Y103.645 E.02917
G1 X127.959 Y104.439 E.02623
G1 X127.583 Y105.143 E.02503
G1 X127.07 Y105.8 E.02613
G1 X126.371 Y106.416 E.02922
G1 X125.476 Y106.923 E.03224
G1 X124.587 Y107.207 E.02926
G1 X123.662 Y107.311 E.0292
G1 X96.477 Y107.31 E.85235
G1 X95.795 Y107.226 E.02154
G1 X95.097 Y107.001 E.023
G1 X94.565 Y106.717 E.0189
G1 X94.024 Y106.294 E.02153
G1 X93.62 Y105.85 E.01883
G1 X93.23 Y105.225 E.02307
G1 X92.969 Y104.537 E.02308
G1 X92.848 Y103.812 E.02305
G1 X92.839 Y92.558 E.35286
G1 X93.216 Y91.198 E.04424
M204 S1000
G1 X93.59 Y91.31 F10800
M204 S800
G1 F1200
G1 X93.608 Y91.251 E.00195
G1 X94.348 Y90.533 E.03231
G1 X120.348 Y74.533 E.95721
G1 X121.593 Y74.181 E.0406
G1 X124.652 Y74.182 E.09588
G1 X125.194 Y74.235 E.01708
G1 X125.828 Y74.415 E.02068
G1 X126.418 Y74.716 E.02078
G1 X126.907 Y75.098 E.01943
G1 X127.339 Y75.591 E.02056
G1 X127.671 Y76.167 E.02084
G1 X127.882 Y76.792 E.02069
G1 X127.963 Y77.334 E.01717
G1 X127.967 Y102.713 E.79577
G1 X127.853 Y103.562 E.02686
G1 X127.614 Y104.287 E.02391
G1 X127.264 Y104.941 E.02329
G1 X126.729 Y105.611 E.02688
G1 X126.074 Y106.164 E.02689
G1 X125.323 Y106.578 E.02688
G1 X124.504 Y106.839 E.02694
G1 X123.594 Y106.935 E.02871
G1 X96.486 Y106.933 E.84993
G1 X95.878 Y106.858 E.01923
G1 X95.249 Y106.656 E.02069
G1 X94.767 Y106.398 E.01715
G1 X94.248 Y105.987 E.02075
G1 X93.847 Y105.523 E.01924
G1 X93.517 Y104.95 E.02073
G1 X93.304 Y104.322 E.02079
G1 X93.218 Y103.667 E.02069
G1 X93.216 Y92.558 E.34833
G1 X93.573 Y91.368 E.03895
M204 S1000
; printing object webcam-raiser-Extrude id:0 copy 0
;WIPE_START
G1 F8640
G1 X93.608 Y91.251 E-.0282
G1 X94.348 Y90.533 E-.23793
G1 X96.169 Y89.412 E-.49387
;WIPE_END
G1 E-.04 F2100
G1 Z.6 F720
G1 X97.178 Y94.657 F10800
G1 Z.2 F720
G1 E.8 F2100
M204 S800
;TYPE:Perimeter
;WIDTH:0.419999
G1 F1200
G1 X97.372 Y94.722 E.00642
G1 X119.703 Y94.719 E.70017
G1 X120.271 Y94.646 E.01797
G1 X120.74 Y94.505 E.01533
G1 X121.272 Y94.236 E.01871
G1 X121.762 Y93.858 E.01942
G1 X122.169 Y93.39 E.01943
G1 X122.477 Y92.853 E.01941
G1 X122.681 Y92.236 E.02038
G1 X122.755 Y91.668 E.01797
G1 X122.757 Y77.722 E.43724
G1 X124.429 Y77.723 E.05242
G1 X124.429 Y102.463 E.7757
G1 X124.361 Y102.876 E.01312
G1 X124.181 Y103.146 E.01017
G1 X123.912 Y103.326 E.01017
G1 X123.544 Y103.394 E.01172
G1 X96.758 Y103.394 E.83987
G1 X96.758 Y94.454 E.2803
G1 X96.806 Y94.534 E.00293
G1 X97.121 Y94.638 E.01039
M204 S1000
G1 X97.275 Y94.313 F10800
M204 S800
G1 F1200
G1 X97.372 Y94.345 E.00321
G1 X119.703 Y94.342 E.70017
G1 X120.216 Y94.273 E.01623
G1 X120.621 Y94.147 E.0133
G1 X121.094 Y93.904 E.01669
G1 X121.523 Y93.566 E.01711
G1 X121.878 Y93.151 E.01712
G1 X122.145 Y92.675 E.01711
G1 X122.308 Y92.18 E.01633
G1 X122.378 Y91.667 E.01623
G1 X122.38 Y77.345 E.44906
G1 X124.561 Y77.346 E.06838
G1 X124.743 Y77.423 E.00618
G1 X124.806 Y77.635 E.00696
G1 X124.806 Y102.527 E.78046
G1 X124.711 Y103.021 E.01577
G1 X124.449 Y103.414 E.01481
G1 X124.057 Y103.676 E.0148
G1 X123.562 Y103.771 E.01578
G1 X96.652 Y103.771 E.84375
G1 X96.451 Y103.701 E.00668
G1 X96.381 Y103.499 E.00668
G1 X96.381 Y94.558 E.28035
;WIDTH:0.45028
G1 X96.393 Y93.357 E.04068
;WIDTH:0.444381
G1 X96.794 Y93.357 E.0134
;WIDTH:0.45028
G1 X96.8 Y93.88 E.0177
G1 X97.033 Y94.232 E.0143
;WIDTH:0.419999
G1 X97.218 Y94.294 E.00613
M204 S1000
G1 X97.372 Y93.968 F10800
M204 S800
;TYPE:External perimeter
G1 F1200
G1 X119.703 Y93.965 E.70017
G1 X120.161 Y93.9 E.0145
M73 P0 R56
G1 X120.503 Y93.789 E.01128
G1 X120.917 Y93.571 E.01466
G1 X121.284 Y93.275 E.01481
G1 X121.586 Y92.912 E.01481
G1 X121.812 Y92.497 E.0148
G1 X121.928 Y92.157 E.01128
G1 X122.001 Y91.667 E.01551
G1 X122.003 Y76.968 E.46089
G1 X124.517 Y76.969 E.07882
G1 X124.844 Y77.028 E.01041
G1 X125.028 Y77.164 E.00718
G1 X125.146 Y77.362 E.00721
G1 X125.183 Y77.635 E.00866
G1 X125.183 Y102.463 E.77845
G1 X125.167 Y102.712 E.00783
G1 X125.062 Y103.166 E.01461
G1 X124.816 Y103.561 E.01459
G1 X124.476 Y103.879 E.01459
G1 X124.053 Y104.071 E.01458
G1 X123.581 Y104.148 E.01499
G1 X96.682 Y104.148 E.84341
G1 X96.369 Y104.099 E.00991
M73 P1 R56
M73 Q1 S57
G1 X96.179 Y103.972 E.00717
G1 X96.052 Y103.782 E.00717
G1 X96.003 Y103.536 E.00787
G1 X96.003 Y92.968 E.33136
G1 X97.183 Y92.968 E.037
G1 X97.183 Y93.779 E.02544
G1 X97.259 Y93.93 E.00529
G1 X97.315 Y93.949 E.00186
M204 S1000
G1 X97.476 Y94.354 F10800
;WIPE_START
G1 F8640
G1 X100.607 Y93.951 E-.76
;WIPE_END
G1 E-.04 F2100
G1 Z.6 F720
G1 X124.316 Y78.601 F10800
G1 Z.2 F720
G1 E.8 F2100
M204 S800
;TYPE:Solid infill
;WIDTH:0.421225
G1 F1200
G1 X123.721 Y78.006 E.02649
G1 X123.186 Y78.005 E.01684
G1 X124.146 Y78.966 E.04275
G1 X124.146 Y79.501 E.01683
G1 X123.04 Y78.394 E.04924
G1 X123.039 Y78.929 E.01681
G1 X124.146 Y80.036 E.04926
G1 X124.146 Y80.571 E.01683
G1 X123.039 Y79.463 E.04929
G1 X123.038 Y79.998 E.01681
G1 X124.146 Y81.106 E.04931
G1 X124.146 Y81.641 E.01683
G1 X123.037 Y80.532 E.04934
G1 X123.037 Y81.067 E.01681
G1 X124.146 Y82.176 E.04936
G1 X124.146 Y82.711 E.01683
G1 X123.036 Y81.601 E.04939
G1 X123.036 Y82.136 E.01681
G1 X124.146 Y83.246 E.04941
G1 X124.146 Y83.781 E.01683
G1 X123.035 Y82.67 E.04944
G1 X123.035 Y83.204 E.01681
G1 X124.146 Y84.316 E.04946
G1 X124.146 Y84.851 E.01683
G1 X123.034 Y83.739 E.04949
G1 X123.034 Y84.273 E.01681
G1 X124.146 Y85.386 E.04951
G1 X124.146 Y85.921 E.01683
G1 X123.033 Y84.808 E.04954
G1 X123.032 Y85.342 E.01681
G1 X124.146 Y86.456 E.04956
G1 X124.146 Y86.991 E.01683
G1 X123.032 Y85.877 E.04959
G1 X123.031 Y86.411 E.01681
G1 X124.146 Y87.526 E.04961
G1 X124.146 Y88.061 E.01683
G1 X123.031 Y86.946 E.04964
G1 X123.03 Y87.48 E.01681
G1 X124.146 Y88.596 E.04966
G1 X124.146 Y89.131 E.01683
G1 X123.03 Y88.014 E.04969
G1 X123.029 Y88.549 E.01681
G1 X124.146 Y89.666 E.04971
G1 X124.146 Y90.201 E.01683
G1 X123.028 Y89.083 E.04974
G1 X123.028 Y89.618 E.01681
G1 X124.146 Y90.736 E.04976
G1 X124.146 Y91.271 E.01683
G1 X123.027 Y90.152 E.04979
G1 X123.027 Y90.687 E.01681
G1 X124.146 Y91.806 E.04981
G1 X124.146 Y92.341 E.01683
G1 X123.026 Y91.221 E.04984
G1 X123.026 Y91.756 E.01681
G1 X124.146 Y92.876 E.04986
G1 X124.146 Y93.411 E.01683
G1 X122.959 Y92.223 E.05285
G1 X122.914 Y92.477 E.00809
G1 X122.851 Y92.65 E.00581
G1 X124.146 Y93.946 E.05765
G1 X124.146 Y94.481 E.01683
G1 X122.7 Y93.035 E.06433
G1 X122.513 Y93.383 E.01242
G1 X124.146 Y95.016 E.07266
G1 X124.146 Y95.551 E.01683
G1 X122.287 Y93.692 E.08271
G1 X122.039 Y93.979 E.01193
G1 X124.146 Y96.086 E.09374
G1 X124.146 Y96.621 E.01683
G1 X121.755 Y94.23 E.1064
G1 X121.448 Y94.458 E.01203
G1 X124.146 Y97.156 E.12004
G1 X124.146 Y97.691 E.01683
G1 X121.096 Y94.641 E.1357
G1 X120.833 Y94.773 E.00924
G1 X120.725 Y94.805 E.00357
G1 X124.146 Y98.226 E.15222
G1 X124.146 Y98.761 E.01683
G1 X120.311 Y94.926 E.17064
G1 X119.836 Y94.986 E.01505
G1 X124.146 Y99.296 E.19175
G1 X124.146 Y99.831 E.01683
G1 X119.317 Y95.002 E.21483
G1 X118.782 Y95.002 E.01683
G1 X124.146 Y100.366 E.23862
G1 X124.146 Y100.901 E.01683
M73 Q1 S56
G1 X118.248 Y95.002 E.26242
G1 X117.713 Y95.003 E.01683
G1 X124.146 Y101.436 E.28622
G1 X124.146 Y101.971 E.01683
G1 X117.178 Y95.003 E.31002
G1 X116.643 Y95.003 E.01683
G1 X124.145 Y102.505 E.33377
G1 X124.1 Y102.763 E.00821
G1 X124.007 Y102.902 E.00528
G1 X116.108 Y95.003 E.35141
G1 X115.573 Y95.003 E.01683
G1 X123.668 Y103.097 E.3601
G1 X123.146 Y103.111 E.01641
G1 X115.038 Y95.003 E.3607
G1 X114.503 Y95.003 E.01683
G1 X122.611 Y103.111 E.36069
G1 X122.076 Y103.111 E.01683
G1 X113.968 Y95.003 E.36069
G1 X113.433 Y95.003 E.01683
G1 X121.541 Y103.111 E.36069
G1 X121.006 Y103.111 E.01683
G1 X112.898 Y95.003 E.36069
G1 X112.363 Y95.003 E.01683
G1 X120.471 Y103.111 E.36068
G1 X119.936 Y103.111 E.01683
G1 X111.828 Y95.003 E.36068
G1 X111.293 Y95.003 E.01683
G1 X119.401 Y103.111 E.36068
G1 X118.866 Y103.111 E.01683
G1 X110.758 Y95.003 E.36067
G1 X110.223 Y95.003 E.01683
G1 X118.331 Y103.111 E.36067
G1 X117.796 Y103.111 E.01683
G1 X109.688 Y95.003 E.36067
G1 X109.153 Y95.004 E.01683
G1 X117.261 Y103.111 E.36067
G1 X116.726 Y103.111 E.01683
G1 X108.619 Y95.004 E.36066
G1 X108.084 Y95.004 E.01683
G1 X116.191 Y103.111 E.36066
G1 X115.656 Y103.111 E.01683
G1 X107.549 Y95.004 E.36066
G1 X107.014 Y95.004 E.01683
G1 X115.121 Y103.111 E.36065
G1 X114.586 Y103.111 E.01683
G1 X106.479 Y95.004 E.36065
G1 X105.944 Y95.004 E.01683
G1 X114.051 Y103.111 E.36065
G1 X113.516 Y103.111 E.01683
G1 X105.409 Y95.004 E.36065
G1 X104.874 Y95.004 E.01683
G1 X112.981 Y103.111 E.36064
G1 X112.446 Y103.111 E.01683
G1 X104.339 Y95.004 E.36064
G1 X103.804 Y95.004 E.01683
G1 X111.911 Y103.111 E.36064
G1 X111.376 Y103.111 E.01683
G1 X103.269 Y95.004 E.36064
G1 X102.734 Y95.004 E.01683
G1 X110.841 Y103.111 E.36063
G1 X110.306 Y103.111 E.01683
G1 X102.199 Y95.004 E.36063
G1 X101.664 Y95.004 E.01683
G1 X109.771 Y103.111 E.36063
G1 X109.236 Y103.111 E.01683
G1 X101.129 Y95.004 E.36062
G1 X100.594 Y95.004 E.01683
G1 X108.701 Y103.111 E.36062
G1 X108.166 Y103.111 E.01683
G1 X100.059 Y95.005 E.36062
G1 X99.525 Y95.005 E.01683
G1 X107.631 Y103.111 E.36062
G1 X107.096 Y103.111 E.01683
G1 X98.99 Y95.005 E.36061
G1 X98.455 Y95.005 E.01683
G1 X106.561 Y103.111 E.36061
G1 X106.026 Y103.111 E.01683
G1 X97.92 Y95.005 E.36061
G1 X97.385 Y95.005 E.01683
G1 X105.491 Y103.111 E.36061
G1 X104.956 Y103.111 E.01683
G1 X97.04 Y95.196 E.35212
G1 X97.04 Y95.731 E.01683
G1 X104.421 Y103.111 E.32832
G1 X103.886 Y103.111 E.01683
G1 X97.04 Y96.266 E.30452
G1 X97.04 Y96.801 E.01683
M73 P2 R56
M73 Q2 S56
G1 X103.351 Y103.111 E.28072
G1 X102.816 Y103.111 E.01683
G1 X97.04 Y97.336 E.25692
G1 X97.04 Y97.871 E.01683
G1 X102.281 Y103.111 E.23312
G1 X101.746 Y103.111 E.01683
G1 X97.04 Y98.406 E.20932
G1 X97.04 Y98.941 E.01683
G1 X101.211 Y103.111 E.18552
G1 X100.676 Y103.111 E.01683
G1 X97.04 Y99.476 E.16172
G1 X97.04 Y100.011 E.01683
G1 X100.141 Y103.111 E.13792
G1 X99.606 Y103.111 E.01683
G1 X97.04 Y100.546 E.11412
G1 X97.04 Y101.081 E.01683
G1 X99.071 Y103.111 E.09032
G1 X98.536 Y103.111 E.01683
G1 X97.04 Y101.616 E.06652
G1 X97.04 Y102.151 E.01683
G1 X98.001 Y103.111 E.04272
G1 X97.466 Y103.111 E.01683
G1 X96.871 Y102.516 E.02647
M204 S1000
; stop printing object webcam-raiser-Extrude id:0 copy 0
M106 S84.15
;LAYER_CHANGE
;Z:0.45
;HEIGHT:0.25
;BEFORE_LAYER_CHANGE
G92 E0.0
;0.45


;WIPE_START
G1 F8640
G1 X97.466 Y103.111 E-.19431
G1 X98.001 Y103.111 E-.12353
G1 X97.04 Y102.151 E-.31361
G1 X97.04 Y101.616 E-.12353
G1 X97.056 Y101.631 E-.00501
;WIPE_END
G1 E-.04 F2100
G1 Z.6 F720
;AFTER_LAYER_CHANGE
;0.45
G1 X92.846 Y101.634 F10800
G1 Z.45 F720
G1 E.8 F2100
;TYPE:Skirt/Brim
;WIDTH:0.42
G1 F3000
G1 X92.839 Y92.558 E.3456
G1 X93.232 Y91.14 E.05601
G1 X94.15 Y90.212 E.04971
G1 X120.15 Y74.212 E1.16246
G1 X121.593 Y73.804 E.05712
G1 X124.661 Y73.805 E.1168
G1 X125.258 Y73.863 E.02285
G1 X125.963 Y74.063 E.02791
G1 X126.619 Y74.398 E.02805
G1 X127.167 Y74.825 E.02645
G1 X127.647 Y75.374 E.02775
G1 X127.956 Y75.89 E.02291
G1 X128.217 Y76.578 E.02804
G1 X128.335 Y77.258 E.02626
G1 X128.344 Y102.723 E.96965
G1 X128.221 Y103.645 E.03543
G1 X127.959 Y104.439 E.03185
G1 X127.583 Y105.143 E.0304
G1 X127.07 Y105.8 E.03173
G1 X126.371 Y106.416 E.03548
G1 X125.476 Y106.923 E.03915
G1 X124.587 Y107.207 E.03553
G1 X123.662 Y107.311 E.03546
G1 X96.477 Y107.31 E1.03512
G1 X95.795 Y107.226 E.02616
G1 X95.097 Y107.001 E.02793
G1 X94.565 Y106.717 E.02295
G1 X94.024 Y106.294 E.02615
G1 X93.62 Y105.85 E.02287
G1 X93.23 Y105.225 E.02802
G1 X92.969 Y104.537 E.02803
G1 X92.848 Y103.812 E.02799
G1 X92.846 Y101.694 E.08064
G1 X93.218 Y101.694 F10800
G1 F3000
G1 X93.216 Y92.558 E.34789
G1 X93.608 Y91.251 E.05195
G1 X94.348 Y90.533 E.03924
G1 X120.348 Y74.533 E1.16246
G1 X121.593 Y74.181 E.0493
G1 X124.652 Y74.182 E.11645
G1 X125.194 Y74.235 E.02074
G1 X125.828 Y74.415 E.02511
G1 X126.418 Y74.716 E.02523
G1 X126.907 Y75.098 E.0236
G1 X127.339 Y75.591 E.02497
G1 X127.671 Y76.167 E.02531
G1 X127.882 Y76.792 E.02512
G1 X127.963 Y77.334 E.02085
G1 X127.967 Y102.713 E.96641
G1 X127.853 Y103.562 E.03262
G1 X127.614 Y104.287 E.02903
G1 X127.264 Y104.941 E.02828
G1 X126.729 Y105.611 E.03264
G1 X126.074 Y106.164 E.03265
G1 X125.323 Y106.578 E.03264
G1 X124.504 Y106.839 E.03272
G1 X123.594 Y106.935 E.03487
G1 X96.486 Y106.933 E1.03219
G1 X95.878 Y106.858 E.02335
G1 X95.249 Y106.656 E.02513
G1 X94.767 Y106.398 E.02083
G1 X94.248 Y105.987 E.0252
G1 X93.847 Y105.523 E.02337
G1 X93.517 Y104.95 E.02518
G1 X93.304 Y104.322 E.02525
G1 X93.218 Y103.667 E.02513
G1 X93.218 Y101.754 E.07285
; printing object webcam-raiser-Extrude id:0 copy 0
;WIPE_START
G1 F8640
G1 X93.217 Y98.463 E-.76
;WIPE_END
G1 E-.04 F2100
G1 Z.85 F720
G1 X96.902 Y94.26 F10800
G1 Z.45 F720
G1 E.8 F2100
M204 S800
;TYPE:Perimeter
;WIDTH:0.449999
G1 F2700
G1 X96.972 Y94.377 E.00563
G1 X97.567 Y94.576 E.02582
G1 X119.694 Y94.573 E.91153
G1 X120.231 Y94.504 E.02232
G1 X120.68 Y94.371 E.0193
G1 X121.187 Y94.117 E.02335
G1 X121.655 Y93.757 E.02433
G1 X122.045 Y93.313 E.02435
G1 X122.34 Y92.801 E.02431
G1 X122.54 Y92.195 E.02628
G1 X122.609 Y91.658 E.02232
G1 X122.611 Y77.576 E.58012
G1 X124.562 Y77.588 E.08038
G1 X124.576 Y77.665 E.00324
G1 X124.576 Y102.508 E1.02341
G1 X124.496 Y102.932 E.01777
G1 X124.285 Y103.249 E.01571
G1 X123.967 Y103.461 E.01571
G1 X123.543 Y103.54 E.01777
G1 X96.66 Y103.534 E1.10747
G1 X96.612 Y103.483 E.00288
G1 X96.601 Y93.754 E.40078
G1 X96.871 Y94.209 E.02178
M204 S1000
G1 X97.175 Y94.004 F10800
M204 S800
G1 F2700
G1 X97.21 Y94.06 E.00275
G1 X97.567 Y94.179 E.01549
G1 X119.694 Y94.177 E.91153
G1 X120.173 Y94.112 E.01992
G1 X120.556 Y93.995 E.01651
G1 X121 Y93.767 E.02055
G1 X121.404 Y93.451 E.02114
G1 X121.738 Y93.061 E.02116
G1 X121.99 Y92.614 E.02113
G1 X122.124 Y92.237 E.01651
G1 X122.212 Y91.658 E.02411
G1 X122.215 Y77.18 E.59645
G1 X124.487 Y77.18 E.09362
G1 X124.75 Y77.226 E.011
G1 X124.901 Y77.363 E.00838
G1 X124.972 Y77.665 E.01279
G1 X124.972 Y102.455 E1.02121
G1 X124.965 Y102.6 E.00599
G1 X124.864 Y103.084 E.02038
G1 X124.652 Y103.426 E.01659
G1 X124.358 Y103.702 E.0166
