; generated by PrusaSlicer 2.6.0-alpha6+win64 on 2023-04-22 at 11:30:13 UTC


;
;
; 

; external perimeters extrusion width = 0.45mm
; perimeters extrusion width = 0.45mm
; infill extrusion width = 0.45mm
; solid infill extrusion width = 0.45mm
; top infill extrusion width = 0.40mm
; first layer extrusion width = 0.42mm

M73 P0 R10
M73 C4
M73 Q0 S10
M73 D4
M201 X1000 Y1000 Z200 E5000 ; sets maximum accelerations, mm/sec^2
M203 X200 Y200 Z12 E120 ; sets maximum feedrates, mm / sec
M204 S1250 T1250 ; sets acceleration (S) and retract acceleration (R), mm/sec^2
M205 X8.00 Y8.00 Z0.40 E4.50 ; sets the jerk limits, mm/sec
M205 S0 T0 ; sets the minimum extruding and travel feed rate, mm/sec
;TYPE:Custom
M862.3 P "MK3S" ; printer model check
M862.1 P0.4 ; nozzle diameter check
M115 U3.11.0 ; tell printer latest fw version
G90 ; use absolute coordinates
M83 ; extruder relative mode

M104 S110 ; preheat extruder to lower temp
M140 S60 ; set bed temp
M190 S60 ; wait for bed temp

; ready sound
M300 S440 P200
M300 S660 P250
; end ready sou

; start ramp up to preheat temp before bed level
M104 S180 ; preheat extruder to lower temp

G28 W ; home all without mesh bed level
G80 ; mesh bed leveling

G1 Z40 F750 ; lift nozzle before heating it to final temp
M104 S210 ; set extruder temp
M109 S210 ; wait for extruder temp

; startup sound
M300 S440 P200
M300 S660 P250
M300 S880 P300
; end startup sound


G1 Z0.2 F720
G1 Y-3 F1000 ; go outside print area
G92 E0
M73 P1 R10
M73 Q1 S10
G1 X60 E9 F1000 ; intro line
G1 X100 E12.5 F1000 ; intro line

G92 E0
M221 S95

; Don't change E values below. Excessive value can damage the printer.
M907 E430 ; set extruder motor current

G21 ; set units to millimeters
G90 ; use absolute coordinates
M83 ; use relative distances for extrusion
M900 K0.05 ; Filament gcode LA 1.5
M900 K30 ; Filament gcode LA 1.0
M107
;LAYER_CHANGE
;Z:0.2
;HEIGHT:0.2
;BEFORE_LAYER_CHANGE
G92 E0.0
;0.2


G1 E-.8 F2100
M73 P2 R10
G1 Z.4 F720
;AFTER_LAYER_CHANGE
;0.2
M73 Q2 S10
G1 X130.267 Y91.833 F10800
G1 Z.2 F720
G1 E.8 F2100
M204 S800
;TYPE:Skirt/Brim
;WIDTH:0.42
G1 F1200
G1 X131.519 Y90.349 E.06088
G1 X132.273 Y89.682 E.03156
G1 X133.134 Y89.064 E.03323
G1 X134.862 Y88.177 E.0609
G1 X136.728 Y87.637 E.06091
G1 X138.717 Y87.463 E.0626
G1 X139.721 Y87.524 E.03154
G1 X140.767 Y87.697 E.03324
G1 X142.616 Y88.292 E.0609
G1 X144.317 Y89.229 E.06089
G1 X145.846 Y90.512 E.06258
G1 X146.547 Y91.308 E.03326
G1 X147.131 Y92.127 E.03154
G1 X148.017 Y93.855 E.06089
G1 X148.558 Y95.721 E.06092
G1 X148.732 Y97.71 E.0626
G1 X148.523 Y99.64 E.06087
G1 X148.272 Y100.614 E.03154
G1 X147.903 Y101.609 E.03327
G1 X146.935 Y103.355 E.0626
G1 X145.683 Y104.839 E.06088
G1 X144.929 Y105.506 E.03156
G1 X144.068 Y106.124 E.03323
G1 X142.339 Y107.01 E.06091
G1 X140.42 Y107.561 E.0626
G1 X138.485 Y107.725 E.06089
G1 X137.481 Y107.663 E.03154
G1 X136.435 Y107.491 E.03324
G1 X134.586 Y106.896 E.0609
G1 X132.885 Y105.959 E.06089
G1 X131.356 Y104.676 E.06258
G1 X130.655 Y103.879 E.03328
G1 X130.071 Y103.061 E.03151
G1 X129.184 Y101.332 E.06093
G1 X128.644 Y99.467 E.06088
G1 X128.47 Y97.478 E.0626
G1 X128.531 Y96.474 E.03154
G1 X128.704 Y95.428 E.03324
G1 X129.299 Y93.579 E.0609
G1 X130.238 Y91.885 E.06073
M204 S1000
G1 X130.566 Y92.067 F10800
M204 S800
G1 F1200
G1 X131.781 Y90.62 E.05924
G1 X132.51 Y89.975 E.03052
G1 X133.34 Y89.38 E.03202
G1 X135.003 Y88.527 E.0586
G1 X136.847 Y87.998 E.06015
G1 X138.71 Y87.84 E.05862
G1 X139.681 Y87.899 E.0305
G1 X140.689 Y88.066 E.03204
G1 X142.468 Y88.639 E.0586
G1 X144.106 Y89.541 E.05863
G1 X145.575 Y90.774 E.06013
G1 X146.25 Y91.54 E.03201
G1 X146.815 Y92.333 E.03053
G1 X147.668 Y93.996 E.0586
G1 X148.196 Y95.84 E.06014
G1 X148.355 Y97.703 E.05863
G1 X148.155 Y99.562 E.05862
G1 X147.911 Y100.504 E.03051
G1 X147.556 Y101.461 E.032
G1 X146.626 Y103.139 E.06015
G1 X145.421 Y104.568 E.05861
G1 X144.654 Y105.243 E.03204
G1 X143.862 Y105.808 E.0305
G1 X142.198 Y106.661 E.05863
G1 X140.355 Y107.189 E.06011
G1 X138.492 Y107.348 E.05863
G1 X137.473 Y107.283 E.03201
G1 X136.513 Y107.122 E.03052
M73 Q3 S10
G1 X134.733 Y106.549 E.05863
G1 X133.096 Y105.646 E.05862
G1 X131.627 Y104.414 E.06011
G1 X130.952 Y103.647 E.03204
M73 P3 R10
G1 X130.387 Y102.855 E.0305
G1 X129.534 Y101.191 E.05863
G1 X129.005 Y99.348 E.06012
G1 X128.847 Y97.485 E.05862
G1 X128.912 Y96.466 E.03201
G1 X129.073 Y95.506 E.03052
G1 X129.646 Y93.726 E.05863
G1 X130.537 Y92.12 E.05759
M204 S1000
G1 X130.865 Y92.301 F10800
M204 S800
G1 F1200
G1 X132.043 Y90.891 E.05761
G1 X133.545 Y89.696 E.06018
G1 X135.145 Y88.877 E.05636
G1 X136.872 Y88.377 E.05637
G1 X138.703 Y88.217 E.05763
G1 X140.61 Y88.434 E.06018
G1 X142.321 Y88.986 E.05637
G1 X143.895 Y89.854 E.05636
G1 X145.304 Y91.036 E.05766
G1 X146.498 Y92.538 E.06016
G1 X147.318 Y94.138 E.05637
G1 X147.817 Y95.865 E.05636
G1 X147.978 Y97.696 E.05763
G1 X147.786 Y99.484 E.05638
G1 X147.209 Y101.314 E.06016
G1 X146.317 Y102.922 E.05766
G1 X145.159 Y104.297 E.05636
G1 X143.657 Y105.491 E.06016
G1 X142.057 Y106.311 E.05637
G1 X140.33 Y106.81 E.05636
G1 X138.498 Y106.971 E.05766
G1 X136.592 Y106.753 E.06015
G1 X134.881 Y106.202 E.05636
G1 X133.307 Y105.334 E.05636
G1 X131.898 Y104.152 E.05766
G1 X130.703 Y102.65 E.06018
G1 X129.884 Y101.05 E.05636
G1 X129.384 Y99.323 E.05637
G1 X129.224 Y97.491 E.05766
G1 X129.441 Y95.585 E.06015
G1 X129.993 Y93.874 E.05637
G1 X130.835 Y92.354 E.05448
M204 S1000
; printing object Shape-Cylinder id:0 copy 0
;WIPE_START
G1 F8640
G1 X132.043 Y90.891 E-.43808
G1 X133.27 Y89.915 E-.36192
;WIPE_END
G1 Z.6 F720
G1 X132.9 Y95.15 F10800
G1 Z.2 F720
G1 E.8 F2100
M204 S800
;TYPE:Perimeter
;WIDTH:0.419999
G1 F1200
G1 X133.178 Y94.57 E.02017
G1 X133.524 Y94.018 E.02043
G1 X133.961 Y93.474 E.02188
G1 X134.308 Y93.108 E.01581
G1 X134.788 Y92.692 E.01992
G1 X135.244 Y92.371 E.01748
G1 X135.864 Y92.023 E.02229
G1 X136.391 Y91.791 E.01805
G1 X137.052 Y91.581 E.02175
G1 X137.551 Y91.475 E.01599
G1 X138.18 Y91.398 E.01987
G1 X138.738 Y91.387 E.0175
G1 X139.445 Y91.445 E.02224
G1 X140.01 Y91.546 E.018
G1 X140.602 Y91.719 E.01934
G1 X141.141 Y91.928 E.01813
G1 X141.717 Y92.222 E.02028
G1 X142.169 Y92.512 E.01684
G1 X142.719 Y92.948 E.02201
G1 X143.087 Y93.302 E.01601
G1 X143.54 Y93.833 E.02188
G1 X143.832 Y94.251 E.01599
G1 X144.199 Y94.917 E.02384
G1 X144.407 Y95.396 E.01637
G1 X144.603 Y95.999 E.01988
G1 X144.72 Y96.546 E.01754
G1 X144.797 Y97.173 E.01981
G1 X144.807 Y97.747 E.018
G1 X144.742 Y98.494 E.02351
G1 X144.647 Y98.995 E.01599
G1 X144.446 Y99.675 E.02223
G1 X144.261 Y100.145 E.01584
G1 X143.973 Y100.71 E.01988
G1 X143.67 Y101.178 E.01748
G1 X143.279 Y101.678 E.0199
G1 X142.902 Y102.073 E.01712
G1 X142.369 Y102.523 E.02187
G1 X141.958 Y102.816 E.01583
G1 X141.409 Y103.133 E.01988
G1 X140.899 Y103.361 E.01752
G1 X140.224 Y103.584 E.02229
G1 X139.667 Y103.712 E.01792
G1 X138.985 Y103.787 E.02151
G1 X138.475 Y103.802 E.016
G1 X137.78 Y103.744 E.02187
G1 X137.282 Y103.661 E.01583
G1 X136.67 Y103.496 E.01987
G1 X136.149 Y103.298 E.01748
G1 X135.515 Y102.979 E.02225
G1 X135.026 Y102.671 E.01812
G1 X134.482 Y102.24 E.02176
G1 X134.104 Y101.874 E.0165
G1 X133.622 Y101.3 E.0235
G1 X133.335 Y100.878 E.016
G1 X133.062 Y100.402 E.01721
G1 X132.805 Y99.812 E.02018
G1 X132.628 Y99.29 E.01728
G1 X132.482 Y98.653 E.02049
G1 X132.414 Y98.126 E.01666
G1 X132.392 Y97.469 E.02061
G1 X132.451 Y96.773 E.0219
G1 X132.538 Y96.259 E.01635
G1 X132.744 Y95.538 E.02351
G1 X132.877 Y95.206 E.01121
M204 S1000
G1 X132.55 Y95.01 F10800
M204 S800
;TYPE:External perimeter
G1 F1200
G1 X132.939 Y94.238 E.0271
G1 X133.223 Y93.791 E.0166
G1 X133.683 Y93.219 E.02301
M73 Q4 S10
G1 X134.059 Y92.826 E.01705
G1 X134.618 Y92.35 E.02302
G1 X135.053 Y92.046 E.01664
G1 X135.708 Y91.68 E.02353
G1 X136.271 Y91.434 E.01926
G1 X136.967 Y91.214 E.02289
G1 X137.501 Y91.101 E.01711
M73 P4 R10
G1 X138.231 Y91.019 E.02303
G1 X138.761 Y91.01 E.01662
G1 X139.507 Y91.073 E.02347
G1 X140.108 Y91.182 E.01915
G1 X140.734 Y91.366 E.02046
G1 X141.309 Y91.591 E.01936
G1 X141.917 Y91.902 E.02141
G1 X142.398 Y92.213 E.01796
G1 X142.976 Y92.672 E.02314
G1 X143.369 Y93.052 E.01714
G1 X143.845 Y93.611 E.02302
G1 X144.157 Y94.06 E.01714
G1 X144.542 Y94.761 E.02508
G1 X144.765 Y95.276 E.0176
G1 X144.985 Y95.979 E.0231
G1 X145.094 Y96.497 E.0166
G1 X145.173 Y97.16 E.02093
G1 X145.183 Y97.77 E.01913
G1 X145.115 Y98.553 E.02464
G1 X145.012 Y99.089 E.01711
G1 X144.799 Y99.807 E.02348
G1 X144.599 Y100.313 E.01706
G1 X144.259 Y100.964 E.02303
G1 X143.97 Y101.408 E.01661
G1 X143.511 Y101.981 E.02302
G1 X143.155 Y102.353 E.01614
G1 X142.593 Y102.826 E.02303
G1 X142.15 Y103.141 E.01704
G1 X141.51 Y103.502 E.02304
G1 X141.025 Y103.717 E.01663
G1 X140.312 Y103.951 E.02353
G1 X139.719 Y104.085 E.01906
G1 X139.001 Y104.164 E.02265
G1 X138.456 Y104.179 E.01709
G1 X137.724 Y104.117 E.02303
G1 X137.188 Y104.026 E.01705
G1 X136.481 Y103.828 E.02302
G1 X135.986 Y103.638 E.01662
G1 X135.318 Y103.3 E.02347
G1 X134.797 Y102.97 E.01934
G1 X134.225 Y102.516 E.0229
G1 X133.822 Y102.124 E.01763
G1 X133.317 Y101.522 E.02464
G1 X133.011 Y101.07 E.01711
G1 X132.657 Y100.426 E.02304
G1 X132.45 Y99.938 E.01662
G1 X132.224 Y99.223 E.02351
G1 X132.109 Y98.706 E.01661
G1 X132.03 Y97.977 E.02299
G1 X132.016 Y97.449 E.01656
G1 X132.078 Y96.717 E.02303
G1 X132.173 Y96.165 E.01756
G1 X132.39 Y95.409 E.02466
G1 X132.528 Y95.066 E.01159
M204 S1000
G1 X132.948 Y94.967 F10800
;WIPE_START
G1 F8640
G1 X132.939 Y94.238 E-.21345
G1 X133.223 Y93.791 E-.12228
G1 X133.683 Y93.219 E-.16949
G1 X134.059 Y92.826 E-.12559
G1 X134.617 Y92.351 E-.16919
;WIPE_END
G1 Z.6 F720
G1 X138.882 Y101.107 F10800
G1 Z.2 F720
G1 E.8 F2100
M204 S800
;TYPE:Perimeter
G1 F1200
G1 X138.639 Y101.129 E.00765
G1 X138.071 Y101.089 E.01785
G1 X137.476 Y100.94 E.01923
G1 X136.865 Y100.668 E.02097
G1 X136.249 Y100.227 E.02375
G1 X135.808 Y99.745 E.02048
G1 X135.657 Y99.551 E.00771
G1 X135.381 Y99.053 E.01785
G1 X135.138 Y98.304 E.02469
G1 X135.069 Y97.74 E.01782
G1 X135.125 Y96.952 E.02477
G1 X135.291 Y96.354 E.01946
G1 X135.649 Y95.649 E.02479
G1 X136 Y95.2 E.01787
G1 X136.456 Y94.79 E.01923
G1 X137.023 Y94.437 E.02094
G1 X137.733 Y94.171 E.02377
G1 X138.39 Y94.07 E.02084
G1 X139.058 Y94.094 E.02096
G1 X139.71 Y94.243 E.02097
G1 X140.401 Y94.552 E.02373
G1 X140.953 Y94.961 E.02154
G1 X141.405 Y95.449 E.02086
G1 X141.749 Y96.008 E.02058
G1 X141.864 Y96.234 E.00795
G1 X142.04 Y96.778 E.01793
G1 X142.125 Y97.383 E.01916
G1 X142.097 Y98.048 E.02087
G1 X142.066 Y98.291 E.00768
G1 X141.909 Y98.839 E.01787
G1 X141.64 Y99.39 E.01923
G1 X141.241 Y99.937 E.02123
G1 X140.823 Y100.331 E.01801
G1 X140.609 Y100.503 E.00861
G1 X140.116 Y100.788 E.01785
G1 X139.548 Y100.994 E.01894
G1 X138.941 Y101.099 E.01931
M204 S1000
G1 X138.66 Y100.729 F10800
M204 S800
;TYPE:External perimeter
G1 F1200
G1 X138.062 Y100.707 E.01876
G1 X137.512 Y100.559 E.01786
G1 X137.031 Y100.329 E.01672
G1 X136.478 Y99.928 E.02142
G1 X136.095 Y99.5 E.01801
G1 X135.783 Y99.001 E.01845
G1 X135.512 Y98.258 E.0248
G1 X135.443 Y97.695 E.01778
G1 X135.482 Y97.09 E.01901
G1 X135.619 Y96.582 E.0165
G1 X135.855 Y96.052 E.01819
G1 X136.322 Y95.406 E.02499
G1 X136.752 Y95.032 E.01787
G1 X137.211 Y94.763 E.01668
G1 X137.853 Y94.529 E.02142
G1 X138.436 Y94.444 E.01847
G1 X139.032 Y94.47 E.0187
G1 X139.612 Y94.607 E.01869
G1 X140.236 Y94.891 E.0215
G1 X140.723 Y95.26 E.01916
G1 X141.12 Y95.696 E.01849
G1 X141.421 Y96.193 E.01822
G1 X141.661 Y96.831 E.02137
G1 X141.751 Y97.429 E.01896
G1 X141.721 Y98.018 E.01849
G1 X141.534 Y98.768 E.02424
G1 X141.275 Y99.276 E.01788
G1 X140.944 Y99.705 E.01699
G1 X140.421 Y100.176 E.02207
G1 X139.927 Y100.461 E.01788
G1 X139.425 Y100.638 E.01669
G1 X138.85 Y100.732 E.01827
G1 X138.72 Y100.73 E.00408
M204 S1000
G1 X138.465 Y101.079 F10800
;WIPE_START
G1 F8640
G1 X138.062 Y100.707 E-.15203
G1 X137.512 Y100.559 E-.13151
G1 X137.031 Y100.329 E-.12311
G1 X136.478 Y99.928 E-.15773
G1 X136.095 Y99.5 E-.13262
G1 X135.859 Y99.122 E-.103
;WIPE_END
G1 Z.6 F720
G1 X141.761 Y92.45 F10800
G1 Z.2 F720
G1 E.8 F2100
M204 S800
;TYPE:Solid infill
;WIDTH:0.421751
G1 F1200
G1 X142.795 Y93.484 E.04606
G1 X143.199 Y93.941 E.01921
G1 X143.497 Y94.351 E.01597
G1 X143.81 Y94.882 E.01942
G1 X143.937 Y95.162 E.00968
G1 X141.025 Y92.249 E.12974
G1 X140.363 Y91.992 E.02237
G1 X140.183 Y91.943 E.00588
G1 X144.258 Y96.018 E.18153
G1 X144.375 Y96.52 E.01624
G1 X144.397 Y96.694 E.00552
G1 X139.502 Y91.799 E.21806
G1 X139.265 Y91.759 E.00757
G1 X138.905 Y91.737 E.01136
G1 X144.461 Y97.293 E.24751
G1 X144.462 Y97.83 E.01692
M73 P5 R10
M73 Q5 S10
G1 X138.366 Y91.733 E.27158
G1 X138.143 Y91.739 E.00703
G1 X137.871 Y91.775 E.00864
G1 X140.154 Y94.058 E.1017
G1 X140.633 Y94.292 E.01679
G1 X141.264 Y94.776 E.02505
G1 X141.754 Y95.337 E.02346
G1 X142.16 Y96.064 E.02623
G1 X144.425 Y98.328 E.10088
G1 X144.349 Y98.789 E.01472
G1 X142.396 Y96.835 E.08702
G1 X142.472 Y97.447 E.01943
G1 X144.239 Y99.214 E.07872
G1 X144.106 Y99.616 E.01334
G1 X142.441 Y97.952 E.07415
G1 X142.417 Y98.28 E.01036
G1 X142.376 Y98.423 E.00469
G1 X143.954 Y100 E.07027
G1 X143.776 Y100.358 E.01259
G1 X142.259 Y98.841 E.06758
G1 X142.213 Y99.002 E.00527
G1 X142.103 Y99.221 E.00772
G1 X143.58 Y100.698 E.0658
G1 X143.365 Y101.019 E.01217
G1 X141.923 Y99.576 E.06426
G1 X141.875 Y99.671 E.00335
G1 X141.703 Y99.892 E.00882
G1 X143.132 Y101.322 E.06368
G1 X142.881 Y101.607 E.01196
G1 X141.468 Y100.193 E.06297
G1 X141.193 Y100.454 E.01194
G1 X142.614 Y101.875 E.0633
G1 X142.332 Y102.128 E.01193
G1 X140.907 Y100.704 E.06346
G1 X140.577 Y100.909 E.01224
G1 X142.024 Y102.356 E.06446
G1 X141.704 Y102.572 E.01216
G1 X140.238 Y101.106 E.06531
G1 X139.843 Y101.247 E.01321
G1 X141.367 Y102.771 E.06789
G1 X141.006 Y102.946 E.01264
G1 X139.434 Y101.374 E.07003
G1 X138.961 Y101.437 E.01503
G1 X140.624 Y103.099 E.07406
G1 X140.224 Y103.235 E.01331
G1 X138.44 Y101.451 E.07947
G1 X137.974 Y101.42 E.01471
G1 X137.837 Y101.383 E.00447
G1 X139.933 Y103.48 E.09339
M204 S1000
;WIPE_START
G1 F8640
G1 X137.837 Y101.383 E-.6846
G1 X137.974 Y101.42 E-.03277
G1 X138.331 Y101.444 E-.08263
;WIPE_END
G1 Z.6 F720
G1 X139.603 Y94.043 F10800
G1 Z.2 F720
G1 E.8 F2100
M204 S800
G1 F1200
G1 X137.408 Y91.847 E.0978
G1 X136.978 Y91.953 E.01395
G1 X138.768 Y93.743 E.07974
G1 X138.426 Y93.723 E.01079
G1 X138.237 Y93.748 E.00601
G1 X136.576 Y92.087 E.07399
G1 X136.198 Y92.244 E.01289
G1 X137.763 Y93.809 E.06972
G1 X137.36 Y93.942 E.01337
G1 X135.835 Y92.417 E.06794
G1 X135.498 Y92.615 E.01231
G1 X136.964 Y94.082 E.06533
G1 X136.625 Y94.279 E.01235
G1 X135.176 Y92.83 E.06455
G1 X134.873 Y93.062 E.01202
G1 X136.295 Y94.484 E.06335
G1 X136.009 Y94.734 E.01197
G1 X134.588 Y93.314 E.06328
G1 X134.485 Y93.405 E.00433
G1 X134.322 Y93.583 E.0076
G1 X135.733 Y94.994 E.06286
G1 X135.499 Y95.296 E.01203
G1 X134.066 Y93.863 E.06384
G1 X133.836 Y94.168 E.01203
G1 X135.279 Y95.611 E.06428
G1 X135.099 Y95.967 E.01257
G1 X133.624 Y94.492 E.06571
G1 X133.423 Y94.827 E.01231
G1 X134.944 Y96.348 E.06776
G1 X134.829 Y96.768 E.01372
G1 X133.25 Y95.19 E.07032
G1 X133.094 Y95.569 E.01291
M73 Q6 S10
G1 X134.757 Y97.233 E.0741
G1 X134.729 Y97.741 E.01603
G1 X132.962 Y95.974 E.07872
G1 X132.852 Y96.399 E.01383
M73 P6 R10
G1 X135.046 Y98.593 E.09774
M204 S1000
;WIPE_START
G1 F8640
G1 X132.852 Y96.399 E-.71644
G1 X132.943 Y96.049 E-.08356
;WIPE_END
G1 Z.6 F720
G1 X132.631 Y96.714 F10800
G1 Z.2 F720
G1 E.8 F2100
M204 S800
G1 F1200
G1 X135.043 Y99.125 E.10743
G1 X135.418 Y99.807 E.02452
G1 X135.937 Y100.411 E.02509
G1 X136.575 Y100.899 E.0253
G1 X137.046 Y101.129 E.01651
G1 X139.333 Y103.416 E.10188
G1 X138.835 Y103.454 E.01573
G1 X132.738 Y97.356 E.27163
G1 X132.744 Y97.898 E.01707
G1 X138.299 Y103.453 E.24746
G1 X138.04 Y103.44 E.00817
G1 X137.699 Y103.389 E.01086
G1 X132.802 Y98.492 E.21815
G1 X132.949 Y99.175 E.02201
G1 X137.016 Y103.241 E.18115
G1 X136.831 Y103.194 E.00601
G1 X136.355 Y103.02 E.01596
G1 X136.171 Y102.932 E.00642
G1 X133.258 Y100.02 E.12974
G1 X133.39 Y100.302 E.00981
G1 X133.706 Y100.839 E.01963
G1 X134.002 Y101.247 E.01588
G1 X134.408 Y101.705 E.01928
