; generated by PrusaSlicer 2.6.0-alpha6+win64 on 2023-04-22 at 11:30:26 UTC


;
;
; 

; external perimeters extrusion width = 0.45mm
; perimeters extrusion width = 0.45mm
; infill extrusion width = 0.45mm
; solid infill extrusion width = 0.45mm
; top infill extrusion width = 0.40mm
; first layer extrusion width = 0.42mm

M73 P0 R10
M73 C4
M73 Q0 S10
M73 D4
M201 X1000 Y1000 Z200 E5000 ; sets maximum accelerations, mm/sec^2
M203 X200 Y200 Z12 E120 ; sets maximum feedrates, mm / sec
M204 S1250 T1250 ; sets acceleration (S) and retract acceleration (R), mm/sec^2
M205 X8.00 Y8.00 Z0.40 E4.50 ; sets the jerk limits, mm/sec
M205 S0 T0 ; sets the minimum extruding and travel feed rate, mm/sec
;TYPE:Custom
M862.3 P "MK3S" ; printer model check
M862.1 P0.4 ; nozzle diameter check
M115 U3.11.0 ; tell printer latest fw version
G90 ; use absolute coordinates
M83 ; extruder relative mode

M104 S110 ; preheat extruder to lower temp
M140 S60 ; set bed temp
M190 S60 ; wait for bed temp

; ready sound
M300 S440 P200
M300 S660 P250
; end ready sou

; start ramp up to preheat temp before bed level
M104 S180 ; preheat extruder to lower temp

G28 W ; home all without mesh bed level
G80 ; mesh bed leveling

G1 Z40 F750 ; lift nozzle before heating it to final temp
M104 S210 ; set extruder temp
M109 S210 ; wait for extruder temp

; startup sound
M300 S440 P200
M300 S660 P250
M300 S880 P300
; end startup sound


G1 Z0.2 F720
G1 Y-3 F1000 ; go outside print area
G92 E0
M73 P1 R10
M73 Q1 S10
G1 X60 E9 F1000 ; intro line
G1 X100 E12.5 F1000 ; intro line

G92 E0
M221 S95

; Don't change E values below. Excessive value can damage the printer.
M907 E430 ; set extruder motor current

G21 ; set units to millimeters
G90 ; use absolute coordinates
M83 ; use relative distances for extrusion
M900 K0.05 ; Filament gcode LA 1.5
M900 K30 ; Filament gcode LA 1.0
M107
;LAYER_CHANGE
;Z:0.2
;HEIGHT:0.2
;BEFORE_LAYER_CHANGE
G92 E0.0
;0.2


G1 E-.8 F2100
M73 P2 R10
M73 Q2 S10
G1 Z.4 F720
;AFTER_LAYER_CHANGE
;0.2
G1 X92.918 Y92.755 F10800
G1 Z.2 F720
G1 E.8 F2100
M204 S800
;TYPE:Skirt/Brim
;WIDTH:0.42
G1 F1200
G1 X93.672 Y92.088 E.03156
G1 X94.533 Y91.47 E.03323
G1 X96.261 Y90.584 E.06089
G1 X98.127 Y90.043 E.06092
G1 X100.116 Y89.869 E.0626
G1 X101.12 Y89.931 E.03154
G1 X102.166 Y90.103 E.03324
G1 X104.015 Y90.698 E.0609
G1 X105.716 Y91.635 E.06089
G1 X107.245 Y92.918 E.06258
G1 X107.946 Y93.714 E.03326
G1 X108.53 Y94.533 E.03154
G1 X109.416 Y96.261 E.06089
G1 X109.957 Y98.127 E.06092
G1 X110.131 Y100.116 E.0626
G1 X109.923 Y102.047 E.0609
G1 X109.671 Y103.02 E.03151
G1 X109.302 Y104.015 E.03327
G1 X108.334 Y105.761 E.0626
G1 X107.082 Y107.245 E.06088
G1 X106.328 Y107.912 E.03156
G1 X105.467 Y108.53 E.03323
G1 X103.739 Y109.416 E.06089
G1 X101.819 Y109.967 E.06263
G1 X99.884 Y110.131 E.06089
G1 X98.88 Y110.069 E.03154
G1 X97.834 Y109.897 E.03324
G1 X95.985 Y109.302 E.0609
G1 X94.284 Y108.365 E.06089
G1 X92.755 Y107.082 E.06258
G1 X92.054 Y106.286 E.03326
G1 X91.47 Y105.467 E.03154
G1 X90.584 Y103.739 E.06089
G1 X90.043 Y101.873 E.06092
G1 X89.869 Y99.884 E.0626
G1 X89.931 Y98.88 E.03154
G1 X90.103 Y97.834 E.03324
G1 X90.698 Y95.985 E.0609
G1 X91.666 Y94.239 E.0626
G1 X92.88 Y92.801 E.05901
M204 S1000
G1 X93.166 Y93.042 F10800
M204 S800
G1 F1200
G1 X93.909 Y92.381 E.03118
G1 X94.739 Y91.786 E.03202
G1 X96.403 Y90.933 E.05863
G1 X98.246 Y90.405 E.06011
G1 X100.109 Y90.246 E.05863
G1 X101.08 Y90.306 E.0305
G1 X102.088 Y90.472 E.03203
G1 X103.867 Y91.045 E.0586
G1 X105.505 Y91.948 E.05865
G1 X106.974 Y93.18 E.06011
G1 X107.649 Y93.947 E.03204
G1 X108.214 Y94.739 E.0305
G1 X109.067 Y96.403 E.05863
G1 X109.595 Y98.246 E.06011
G1 X109.754 Y100.109 E.05863
G1 X109.554 Y101.968 E.05862
G1 X109.31 Y102.91 E.03051
G1 X108.955 Y103.867 E.032
G1 X108.025 Y105.545 E.06015
G1 X106.82 Y106.974 E.05861
G1 X106.053 Y107.649 E.03204
G1 X105.261 Y108.214 E.0305
G1 X103.597 Y109.067 E.05863
G1 X101.754 Y109.595 E.06011
G1 X99.891 Y109.754 E.05863
G1 X98.872 Y109.689 E.03201
M73 Q3 S10
G1 X97.912 Y109.528 E.03052
G1 X96.133 Y108.955 E.0586
G1 X94.495 Y108.052 E.05865
G1 X93.026 Y106.82 E.06011
M73 P3 R10
G1 X92.351 Y106.053 E.03204
G1 X91.786 Y105.261 E.0305
G1 X90.933 Y103.597 E.05863
G1 X90.405 Y101.754 E.06011
G1 X90.246 Y99.891 E.05863
G1 X90.311 Y98.872 E.03201
G1 X90.472 Y97.912 E.03052
G1 X91.045 Y96.133 E.0586
G1 X91.975 Y94.455 E.06015
G1 X93.128 Y93.088 E.05607
M204 S1000
G1 X93.414 Y93.33 F10800
M204 S800
G1 F1200
G1 X94.944 Y92.102 E.06151
G1 X96.544 Y91.283 E.05636
G1 X98.271 Y90.784 E.05636
G1 X100.103 Y90.623 E.05766
G1 X102.009 Y90.841 E.06015
G1 X103.72 Y91.392 E.05636
G1 X105.294 Y92.26 E.05636
G1 X106.703 Y93.442 E.05766
G1 X107.898 Y94.944 E.06018
G1 X108.717 Y96.544 E.05636
G1 X109.216 Y98.271 E.05636
G1 X109.377 Y100.103 E.05766
G1 X109.185 Y101.89 E.05635
G1 X108.608 Y103.72 E.06016
G1 X107.716 Y105.328 E.05766
G1 X106.558 Y106.703 E.05636
G1 X105.056 Y107.898 E.06018
G1 X103.456 Y108.717 E.05636
G1 X101.729 Y109.216 E.05636
G1 X99.897 Y109.377 E.05766
G1 X97.991 Y109.159 E.06015
G1 X96.28 Y108.608 E.05636
G1 X94.706 Y107.74 E.05636
G1 X93.297 Y106.558 E.05766
G1 X92.102 Y105.056 E.06018
G1 X91.283 Y103.456 E.05636
G1 X90.784 Y101.729 E.05636
G1 X90.623 Y99.897 E.05766
G1 X90.841 Y97.991 E.06015
G1 X91.392 Y96.28 E.05636
G1 X92.284 Y94.672 E.05766
G1 X93.376 Y93.376 E.05314
M204 S1000
; printing object Shape-Cylinder id:0 copy 0
;WIPE_START
G1 F8640
G1 X94.944 Y92.102 E-.4665
G1 X96.23 Y91.444 E-.3335
;WIPE_END
G1 Z.6 F720
G1 X94.802 Y103.383 F10800
G1 Z.2 F720
G1 E.8 F2100
M204 S800
;TYPE:Perimeter
;WIDTH:0.419999
G1 F1200
G1 X94.461 Y102.808 E.02096
G1 X94.204 Y102.219 E.02015
G1 X94.027 Y101.696 E.01731
G1 X93.881 Y101.059 E.02049
G1 X93.813 Y100.532 E.01666
G1 X93.791 Y99.875 E.02061
G1 X93.85 Y99.179 E.0219
G1 X93.937 Y98.665 E.01635
G1 X94.143 Y97.944 E.02351
G1 X94.333 Y97.471 E.01598
G1 X94.577 Y96.976 E.0173
G1 X94.923 Y96.424 E.02043
G1 X95.36 Y95.88 E.02188
G1 X95.708 Y95.514 E.01583
G1 X96.187 Y95.099 E.01987
G1 X96.643 Y94.777 E.0175
G1 X97.263 Y94.429 E.02229
G1 X97.79 Y94.198 E.01804
G1 X98.451 Y93.988 E.02175
G1 X98.95 Y93.881 E.016
G1 X99.58 Y93.804 E.0199
G1 X100.137 Y93.793 E.01747
G1 X100.844 Y93.851 E.02224
G1 X101.409 Y93.952 E.018
G1 X102.002 Y94.125 E.01937
G1 X102.54 Y94.334 E.0181
G1 X103.116 Y94.628 E.02028
G1 X103.568 Y94.918 E.01684
G1 X104.118 Y95.354 E.02201
G1 X104.486 Y95.708 E.01601
G1 X104.939 Y96.239 E.02188
G1 X105.231 Y96.657 E.01599
G1 X105.598 Y97.324 E.02387
G1 X105.807 Y97.802 E.01636
G1 X106.002 Y98.405 E.01987
G1 X106.119 Y98.952 E.01754
G1 X106.196 Y99.58 E.01984
G1 X106.206 Y100.154 E.018
G1 X106.141 Y100.9 E.02348
G1 X106.046 Y101.401 E.01599
G1 X105.845 Y102.081 E.02223
G1 X105.66 Y102.551 E.01584
G1 X105.372 Y103.116 E.01988
G1 X105.07 Y103.584 E.01746
G1 X104.678 Y104.084 E.01992
G1 X104.302 Y104.479 E.0171
G1 X103.768 Y104.929 E.0219
G1 X103.357 Y105.223 E.01584
G1 X102.808 Y105.539 E.01986
G1 X102.299 Y105.767 E.01749
G1 X101.623 Y105.99 E.02232
G1 X101.066 Y106.118 E.01792
G1 X100.384 Y106.193 E.02151
G1 X99.875 Y106.209 E.01597
G1 X99.179 Y106.15 E.0219
G1 X98.681 Y106.067 E.01583
G1 X98.069 Y105.902 E.01987
G1 X97.548 Y105.704 E.01748
M73 Q4 S10
G1 X96.914 Y105.385 E.02225
G1 X96.426 Y105.077 E.01809
G1 X95.882 Y104.646 E.02176
G1 X95.503 Y104.28 E.01652
G1 X95.021 Y103.706 E.0235
G1 X94.835 Y103.433 E.01036
M204 S1000
G1 X94.49 Y103.595 F10800
M204 S800
;TYPE:External perimeter
G1 F1200
G1 X94.056 Y102.832 E.02752
G1 X93.849 Y102.344 E.01662
M73 P4 R10
G1 X93.623 Y101.629 E.02351
G1 X93.508 Y101.112 E.01661
G1 X93.429 Y100.384 E.02296
G1 X93.415 Y99.855 E.01659
G1 X93.477 Y99.124 E.023
G1 X93.572 Y98.571 E.01759
G1 X93.789 Y97.815 E.02466
G1 X93.992 Y97.309 E.01709
G1 X94.338 Y96.645 E.02348
G1 X94.622 Y96.197 E.01663
G1 X95.082 Y95.626 E.02299
G1 X95.458 Y95.232 E.01708
G1 X96.017 Y94.756 E.02302
G1 X96.452 Y94.452 E.01664
G1 X97.107 Y94.086 E.02353
G1 X97.67 Y93.84 E.01926
G1 X98.367 Y93.62 E.02292
G1 X98.901 Y93.507 E.01711
G1 X99.631 Y93.425 E.02303
G1 X100.16 Y93.416 E.01659
G1 X100.906 Y93.479 E.02347
G1 X101.507 Y93.588 E.01915
G1 X102.134 Y93.772 E.02049
G1 X102.708 Y93.997 E.01933
G1 X103.316 Y94.308 E.02141
G1 X103.797 Y94.619 E.01796
G1 X104.376 Y95.078 E.02317
G1 X104.768 Y95.458 E.01712
G1 X105.244 Y96.017 E.02302
G1 X105.556 Y96.466 E.01714
G1 X105.941 Y97.167 E.02508
G1 X106.164 Y97.683 E.01763
G1 X106.384 Y98.385 E.02307
G1 X106.493 Y98.903 E.0166
G1 X106.573 Y99.566 E.02094
G1 X106.582 Y100.177 E.01916
G1 X106.514 Y100.959 E.02461
G1 X106.411 Y101.495 E.01711
G1 X106.198 Y102.213 E.02348
G1 X105.998 Y102.719 E.01706
G1 X105.658 Y103.37 E.02303
G1 X105.369 Y103.814 E.01661
G1 X104.911 Y104.388 E.02302
G1 X104.554 Y104.759 E.01614
G1 X103.993 Y105.232 E.02301
G1 X103.549 Y105.547 E.01707
G1 X102.909 Y105.908 E.02304
G1 X102.424 Y106.123 E.01663
G1 X101.711 Y106.357 E.02353
G1 X101.118 Y106.491 E.01906
G1 X100.4 Y106.57 E.02265
G1 X99.855 Y106.585 E.01709
G1 X99.123 Y106.523 E.02303
G1 X98.587 Y106.432 E.01705
G1 X97.88 Y106.235 E.02301
G1 X97.386 Y106.044 E.01661
G1 X96.717 Y105.707 E.02349
G1 X96.196 Y105.376 E.01935
G1 X95.624 Y104.922 E.0229
G1 X95.221 Y104.53 E.01763
G1 X94.716 Y103.928 E.02464
G1 X94.524 Y103.645 E.01072
M204 S1000
G1 X94.676 Y103.24 F10800
;WIPE_START
G1 F8640
G1 X94.056 Y102.832 E-.21661
G1 X93.849 Y102.344 E-.1224
G1 X93.623 Y101.629 E-.17315
G1 X93.508 Y101.112 E-.12229
G1 X93.431 Y100.399 E-.16555
;WIPE_END
G1 Z.6 F720
G1 X98.474 Y96.823 F10800
G1 Z.2 F720
G1 E.8 F2100
M204 S800
;TYPE:Perimeter
G1 F1200
G1 X99.132 Y96.578 E.02201
G1 X99.79 Y96.476 E.02088
G1 X100.457 Y96.5 E.02093
G1 X101.109 Y96.649 E.02097
G1 X101.801 Y96.958 E.02376
G1 X102.352 Y97.367 E.02152
G1 X102.804 Y97.855 E.02086
G1 X103.148 Y98.414 E.02058
G1 X103.263 Y98.64 E.00795
G1 X103.439 Y99.184 E.01793
G1 X103.524 Y99.789 E.01916
G1 X103.496 Y100.454 E.02087
G1 X103.465 Y100.697 E.00768
G1 X103.308 Y101.245 E.01787
G1 X103.039 Y101.796 E.01923
G1 X102.64 Y102.343 E.02123
G1 X102.222 Y102.737 E.01801
G1 X102.008 Y102.909 E.00861
G1 X101.515 Y103.194 E.01785
G1 X100.947 Y103.4 E.01894
G1 X100.298 Y103.512 E.02065
G1 X100.038 Y103.535 E.00818
G1 X99.47 Y103.495 E.01785
G1 X98.875 Y103.346 E.01923
G1 X98.265 Y103.074 E.02094
G1 X97.648 Y102.633 E.02378
G1 X97.207 Y102.151 E.02048
G1 X97.056 Y101.957 E.00771
G1 X96.78 Y101.459 E.01785
G1 X96.537 Y100.71 E.02469
G1 X96.468 Y100.147 E.01778
G1 X96.524 Y99.358 E.0248
G1 X96.69 Y98.76 E.01946
G1 X97.048 Y98.055 E.02479
G1 X97.399 Y97.606 E.01787
G1 X97.855 Y97.196 E.01923
G1 X98.418 Y96.845 E.0208
M204 S1000
G1 X98.706 Y97.134 F10800
M204 S800
;TYPE:External perimeter
G1 F1200
G1 X99.252 Y96.935 E.01822
G1 X99.836 Y96.85 E.0185
G1 X100.431 Y96.876 E.01867
G1 X101.011 Y97.014 E.01869
G1 X101.635 Y97.297 E.02148
G1 X102.123 Y97.666 E.01918
G1 X102.519 Y98.102 E.01847
G1 X102.82 Y98.6 E.01824
G1 X103.06 Y99.237 E.02134
G1 X103.15 Y99.835 E.01896
G1 X103.12 Y100.424 E.01849
G1 X102.933 Y101.175 E.02427
G1 X102.674 Y101.682 E.01785
G1 X102.343 Y102.111 E.01699
G1 X101.82 Y102.582 E.02207
G1 X101.326 Y102.867 E.01788
G1 X100.824 Y103.044 E.01669
G1 X100.249 Y103.138 E.01827
G1 X99.461 Y103.113 E.02472
G1 X98.911 Y102.965 E.01786
G1 X98.43 Y102.735 E.01672
G1 X97.877 Y102.334 E.02142
G1 X97.494 Y101.906 E.01801
G1 X97.182 Y101.407 E.01845
G1 X96.969 Y100.852 E.01864
G1 X96.862 Y100.264 E.01874
G1 X96.888 Y99.459 E.02525
G1 X97.054 Y98.861 E.01946
G1 X97.326 Y98.318 E.01904
G1 X97.696 Y97.839 E.01898
G1 X98.102 Y97.481 E.01697
G1 X98.65 Y97.155 E.01999
M204 S1000
G1 X98.741 Y96.736 F10800
;WIPE_START
G1 F8640
G1 X99.252 Y96.935 E-.14799
G1 X99.836 Y96.85 E-.13627
G1 X100.431 Y96.876 E-.13752
G1 X101.011 Y97.014 E-.13766
G1 X101.635 Y97.297 E-.15821
G1 X101.919 Y97.512 E-.08235
;WIPE_END
G1 Z.6 F720
G1 X103.16 Y94.856 F10800
G1 Z.2 F720
G1 E.8 F2100
M204 S800
;TYPE:Solid infill
;WIDTH:0.421751
G1 F1200
G1 X104.194 Y95.89 E.04606
G1 X104.599 Y96.347 E.01923
G1 X104.896 Y96.757 E.01595
G1 X105.209 Y97.288 E.01942
G1 X105.337 Y97.568 E.0097
G1 X102.424 Y94.655 E.12977
G1 X101.762 Y94.398 E.02237
G1 X101.582 Y94.35 E.00587
G1 X105.657 Y98.424 E.18151
G1 X105.774 Y98.926 E.01624
G1 X105.797 Y99.1 E.00553
G1 X100.902 Y94.205 E.21806
G1 X100.665 Y94.165 E.00757
M73 Q5 S10
G1 X100.304 Y94.143 E.01139
G1 X105.86 Y99.699 E.24751
G1 X105.861 Y100.236 E.01692
M73 P5 R10
G1 X99.765 Y94.139 E.27158
G1 X99.542 Y94.145 E.00703
G1 X99.27 Y94.181 E.00864
G1 X101.554 Y96.464 E.10172
G1 X102.032 Y96.698 E.01676
G1 X102.664 Y97.182 E.02508
G1 X103.153 Y97.744 E.02347
G1 X103.559 Y98.47 E.0262
G1 X105.824 Y100.735 E.1009
G1 X105.749 Y101.195 E.01468
G1 X103.795 Y99.241 E.08705
G1 X103.871 Y99.853 E.01943
G1 X105.638 Y101.62 E.07872
G1 X105.505 Y102.023 E.01337
G1 X103.841 Y100.358 E.07415
G1 X103.816 Y100.686 E.01036
G1 X103.776 Y100.829 E.00468
G1 X105.353 Y102.407 E.07027
G1 X105.175 Y102.764 E.01257
G1 X103.658 Y101.247 E.06758
G1 X103.612 Y101.408 E.00527
G1 X103.502 Y101.627 E.00772
G1 X104.979 Y103.104 E.0658
G1 X104.764 Y103.425 E.01217
G1 X103.322 Y101.982 E.06426
G1 X103.274 Y102.077 E.00335
G1 X103.102 Y102.298 E.00882
G1 X104.531 Y103.728 E.06368
G1 X104.281 Y104.013 E.01194
G1 X102.867 Y102.599 E.06299
G1 X102.592 Y102.86 E.01194
G1 X104.014 Y104.281 E.06332
G1 X103.731 Y104.535 E.01198
G1 X102.306 Y103.11 E.06348
G1 X101.976 Y103.315 E.01224
G1 X103.423 Y104.763 E.06448
G1 X103.103 Y104.978 E.01214
G1 X101.637 Y103.512 E.06531
G1 X101.243 Y103.653 E.01318
G1 X102.766 Y105.177 E.06787
G1 X102.405 Y105.352 E.01264
G1 X100.833 Y103.78 E.07003
G1 X100.36 Y103.843 E.01503
G1 X102.023 Y105.505 E.07406
G1 X101.623 Y105.641 E.01331
G1 X99.839 Y103.857 E.07947
G1 X99.373 Y103.826 E.01471
G1 X99.236 Y103.79 E.00446
G1 X101.332 Y105.886 E.09337
M204 S1000
;WIPE_START
G1 F8640
G1 X99.236 Y103.79 E-.68444
G1 X99.373 Y103.826 E-.03271
G1 X99.731 Y103.85 E-.08285
;WIPE_END
G1 Z.6 F720
G1 X101.003 Y96.449 F10800
G1 Z.2 F720
G1 E.8 F2100
M204 S800
G1 F1200
G1 X98.807 Y94.254 E.0978
G1 X98.377 Y94.359 E.01394
G1 X100.167 Y96.149 E.07974
G1 X99.825 Y96.13 E.01079
G1 X99.636 Y96.154 E.006
G1 X97.976 Y94.493 E.07397
G1 X97.597 Y94.65 E.01292
G1 X99.162 Y96.215 E.06972
G1 X98.759 Y96.349 E.01338
G1 X97.234 Y94.823 E.06796
G1 X96.897 Y95.022 E.01233
G1 X98.364 Y96.489 E.06535
G1 X98.024 Y96.685 E.01236
G1 X96.575 Y95.236 E.06455
G1 X96.272 Y95.468 E.01202
G1 X97.694 Y96.89 E.06335
G1 X97.408 Y97.14 E.01197
G1 X95.988 Y95.72 E.06326
G1 X95.884 Y95.811 E.00435
G1 X95.721 Y95.989 E.0076
G1 X97.132 Y97.4 E.06286
G1 X96.898 Y97.702 E.01203
G1 X95.465 Y96.269 E.06384
G1 X95.235 Y96.574 E.01203
G1 X96.678 Y98.017 E.06428
G1 X96.498 Y98.374 E.01259
G1 X95.023 Y96.898 E.06573
G1 X94.822 Y97.233 E.01231
M73 Q6 S10
G1 X96.343 Y98.754 E.06776
G1 X96.228 Y99.175 E.01375
G1 X94.649 Y97.596 E.07034
G1 X94.493 Y97.975 E.01291
M73 P6 R10
G1 X96.156 Y99.639 E.0741
G1 X96.129 Y100.147 E.01602
G1 X94.362 Y98.38 E.07872
G1 X94.252 Y98.805 E.01383
G1 X96.445 Y100.999 E.09772
M204 S1000
;WIPE_START
G1 F8640
G1 X94.252 Y98.805 E-.71628
G1 X94.343 Y98.454 E-.08372
;WIPE_END
G1 Z.6 F720
G1 X94.03 Y99.12 F10800
G1 Z.2 F720
G1 E.8 F2100
M204 S800
G1 F1200
M73 P6 R9
G1 X96.442 Y101.531 E.10743
G1 X96.817 Y102.213 E.02452
G1 X97.336 Y102.817 E.02509
G1 X97.974 Y103.306 E.02532
G1 X98.446 Y103.535 E.01653
G1 X100.732 Y105.822 E.10186
G1 X100.234 Y105.86 E.01573
G1 X94.137 Y99.762 E.27163
G1 X94.143 Y100.304 E.01707
G1 X99.698 Y105.86 E.24748
G1 X99.439 Y105.846 E.00817
G1 X99.098 Y105.795 E.01086
G1 X94.201 Y100.898 E.21815
G1 X94.348 Y101.581 E.02201
G1 X98.415 Y105.647 E.18115
G1 X98.23 Y105.6 E.00601
M73 Q6 S9
G1 X97.755 Y105.427 E.01592
G1 X97.57 Y105.338 E.00647
G1 X94.657 Y102.426 E.12974
G1 X94.789 Y102.708 E.00981
G1 X95.105 Y103.245 E.01963
G1 X95.401 Y103.653 E.01588
G1 X95.807 Y104.111 E.01928
G1 X96.831 Y105.135 E.04562
M204 S1000
; stop printing object Shape-Cylinder id:0 copy 0
M106 S84.15
;LAYER_CHANGE
;Z:0.35
;HEIGHT:0.15
;BEFORE_LAYER_CHANGE
G92 E0.0
;0.35


;WIPE_START
G1 F8640
